/* XPM */
static char * addIndividualsSmall_xpm[] = {
"25 25 5 1",
" 	c None",
".	c #4AE822",
"+	c #000000",
"@	c #F4BE1A",
"#	c #FFFFFF",
"               ...       ",
"               ...       ",
"               ...       ",
"               ...       ",
"           ...........   ",
"           ...........   ",
"           ...........   ",
"               ...       ",
"               ...       ",
"               ...       ",
"      ++++++   ...       ",
"    + +@@@@++            ",
"   +#+#+@@@@+            ",
" +++#+#+@@@@++           ",
"+@@@+@+@@@+@@+           ",
"+@@@@@@@++@@@+           ",
"+++@@@@++@@@@+           ",
"  ++++++@@@@@+           ",
"        ++@@@+           ",
"         +@@@@+          ",
"        +@@@@@@+         ",
"       +@@@@@@@@         ",
"      +@@@@@@@@@         ",
"                         ",
"                         "};
