/* XPM */
static char * balloonLarge_xpm[] = {
"48 48 131 2",
"  	c None",
". 	c #171616",
"+ 	c #333232",
"@ 	c #302F2F",
"# 	c #000000",
"$ 	c #232222",
"% 	c #020202",
"& 	c #353434",
"* 	c #444343",
"= 	c #4E4D4D",
"- 	c #787575",
"; 	c #979393",
"> 	c #ACA8A8",
", 	c #D8D3D3",
"' 	c #C3BFBF",
") 	c #969393",
"! 	c #706D6D",
"~ 	c #060606",
"{ 	c #070707",
"] 	c #272626",
"^ 	c #050505",
"/ 	c #191919",
"( 	c #5C5A5A",
"_ 	c #C2BEBE",
": 	c #E0DBDB",
"< 	c #DFDADA",
"[ 	c #B3AFAF",
"} 	c #2E2D2D",
"| 	c #121212",
"1 	c #585656",
"2 	c #928F8F",
"3 	c #DAD5D5",
"4 	c #4B4A4A",
"5 	c #908C8C",
"6 	c #D2CECE",
"7 	c #5A5858",
"8 	c #0B0B0B",
"9 	c #7F7C7C",
"0 	c #DED9D9",
"a 	c #E0DADA",
"b 	c #6C6A6A",
"c 	c #070606",
"d 	c #A5A1A1",
"e 	c #DFDBDB",
"f 	c #3D3C3C",
"g 	c #040303",
"h 	c #9D9999",
"i 	c #BEBABA",
"j 	c #4F4D4D",
"k 	c #3C3B3B",
"l 	c #9A9797",
"m 	c #D3CECE",
"n 	c #838181",
"o 	c #0F0F0F",
"p 	c #D9D4D4",
"q 	c #DDD8D8",
"r 	c #AAA6A6",
"s 	c #9B9797",
"t 	c #6B6868",
"u 	c #676565",
"v 	c #615F5F",
"w 	c #323131",
"x 	c #111010",
"y 	c #0E0E0E",
"z 	c #C0BCBC",
"A 	c #151414",
"B 	c #222121",
"C 	c #252424",
"D 	c #565454",
"E 	c #626060",
"F 	c #898686",
"G 	c #928E8E",
"H 	c #BDB9B9",
"I 	c #CAC6C6",
"J 	c #575555",
"K 	c #CECACA",
"L 	c #757272",
"M 	c #535252",
"N 	c #1D1D1D",
"O 	c #2A2929",
"P 	c #CEC9C9",
"Q 	c #393737",
"R 	c #868383",
"S 	c #797676",
"T 	c #5E5C5C",
"U 	c #B5B1B1",
"V 	c #131212",
"W 	c #BAB6B6",
"X 	c #BBB7B7",
"Y 	c #3F3E3E",
"Z 	c #CCC7C7",
"` 	c #999696",
" .	c #4D4B4B",
"..	c #D5D0D0",
"+.	c #454444",
"@.	c #0E0D0D",
"#.	c #B6B2B2",
"$.	c #0C0B0B",
"%.	c #9D9A9A",
"&.	c #0C0C0C",
"*.	c #6E6B6B",
"=.	c #6B6969",
"-.	c #141313",
";.	c #555353",
">.	c #A6A3A3",
",.	c #535151",
"'.	c #3B3939",
").	c #9A9696",
"!.	c #D5D1D1",
"~.	c #DBD6D6",
"{.	c #B0ACAC",
"].	c #666464",
"^.	c #0B0A0A",
"/.	c #939090",
"(.	c #393838",
"_.	c #1A1919",
":.	c #969292",
"<.	c #D8D4D4",
"[.	c #151515",
"}.	c #7B7979",
"|.	c #767474",
"1.	c #656363",
"2.	c #C3BEBE",
"3.	c #726F6F",
"4.	c #343333",
"5.	c #090909",
"6.	c #1E1D1D",
"7.	c #313030",
"8.	c #A39F9F",
"9.	c #D0CBCB",
"0.	c #1A1A1A",
"                                                                                                ",
"                                                                                                ",
"                                      . + @ # # # # # # # # # # # # # # #                       ",
"                          $ # % & * * * * * = - - ; > , ' > > > ) - - ! & ~ #                   ",
"                    { ] ^ / ( _ : : : : : : : : : : : < < < < < < < < < < [ } #                 ",
"                # # | 1 2 3 : : : : : : : : : : : : : < < < < < < < < < < < 3 4 #               ",
"            # # @ 5 < < < : : : : : : : : : : : : : : < < < < < < < < < < < < 6 7 # #           ",
"          # 8 9 0 a : : a : : : : : : : : : : : : : : < < < < < < < < < < < < < < b #           ",
"        # c d e : : : : a : : : : : : : : : : : : : : < < < < < < < < < < < < < < 0 f #         ",
"        g h : e e : : e e : : : : : : : : : : : : : : < < < < < < < < < < < < < < < i #         ",
"      # j : : : a e : e a : : : : : : : : : : : : : : < < < < < < < < < < < < < < < < k #       ",
"      # l : : a a : a : a : : : : : : : : : : : : : : < < < < < < < m > > , < < < < < n #       ",
"    # o p : : a a : q r s s s s t u u u u u u v + + + + + w # # # # # ~ x _ < < < < < 6 y       ",
"    # f : : : e : : z # A B B B C D D D D D D D E F F F F F G H H H H I < < < < < < < < J #     ",
"    #   : : : a a : q K p : : : : : : : : : : : : : : < < < < < < < < < < < < < < < < < L #     ",
"    #   < < < < < < < < < < a < a a < a < a < : a < a < < < < < < < < < < < < < < < < < L #     ",
"    # * < < < < < < < < < < < < < a < < a < a a < a < < < < < < < < < < < < < < < < < < L #     ",
"    # * < < < < < < < < < : a a e a : a e a a : < : a < < < < < < < < < < < < < < < < < M #     ",
"    # N q < < < < < < < < : : a : < a a : : a : a : a < < < < < < < < < < < < < < < < < O       ",
"      # d < < < < < < < < e e e : a < < e a a : < < < < < < < < < < < < < < < < < < < P {       ",
"      # Q < < < < < < < F - - - R > > > > > > > > > > > S - - ' < < < < < < < < < < < ) #       ",
"        # 2 < < < < < < T * * f x x x x x x x x x x x x . * * U < < < < < < < < < < < j #       ",
"        # V W < < < < < < : a a e a < a e a e e a a a < < < < < < < < < < < < < < < X #         ",
"          # Y < < < < < < e e a a < a < a < a a < a a < < < < < < < < < < < < < < Z $ #         ",
"            % ` < < < < < e e < e < < e e < < e e < < < < < < < < < < < < < < < q  .#           ",
"            # . z < < < < : a < e a a : < a e e : : e < < < < < < < < < < < < ..+.#             ",
"              # @.#.< < < e e a : < e : : e : e : < : < < < < < < < < < < < <  .#               ",
"                # $.%.< < e e e e e e : e e e e : e e < < < < < < < < < < i * #                 ",
"                  # &.*.6 < < < < a < < < < < e < a < < < < < < < < < _ =.&.#                   ",
"                    # # -.;.H < e < e e < e e : : : a < < < < < < >.,.~ # #                     ",
"                        # # # '.).!.: : : : : : : : : : : ~.{.].N # # ^.                        ",
"                              # # @.B > : : : : : : : /.(._.# # #                               ",
"                                    # :.: : : : : : <.[.#                                       ",
"                                    # }.: : : : : : |.#                                         ",
"                                    # 1.: : : : : 2.&.#                                         ",
"                                    # 1.: : : : 0 Y #                                           ",
"                                    # D : : : : 3.#                                             ",
"                                      4.: : : i 5.#                                             ",
"                                      6.: : : 7.#                                               ",
"                                      g : : 1.#                                                 ",
"                                      g : 8.^                                                   ",
"                                      g 9.0.#                                                   ",
"                                      % O #                                                     ",
"                                      # #                                                       ",
"                                      #                                                         ",
"                                                                                                ",
"                                                                                                ",
"                                                                                                "};
