/* XPM */
static char * deleteIndividualsLarge_xpm[] = {
"40 40 109 2",
"  	c None",
". 	c #9B0411",
"+ 	c #B10513",
"@ 	c #9F0411",
"# 	c #CF0616",
"$ 	c #ED071A",
"% 	c #D50617",
"& 	c #BA0514",
"* 	c #BF0515",
"= 	c #000000",
"- 	c #0F0B01",
"; 	c #85670E",
"> 	c #987610",
", 	c #392C06",
"' 	c #131313",
") 	c #0F0F0F",
"! 	c #2C2819",
"~ 	c #C39817",
"{ 	c #E5B218",
"] 	c #F4BE1A",
"^ 	c #6A530B",
"/ 	c #151102",
"( 	c #030200",
"_ 	c #050505",
": 	c #A7A7A7",
"< 	c #ACACAC",
"[ 	c #8B8B8B",
"} 	c #CBCBC9",
"| 	c #36301E",
"1 	c #735A0C",
"2 	c #E0AF17",
"3 	c #C09514",
"4 	c #1A1402",
"5 	c #060606",
"6 	c #BFBFBF",
"7 	c #C5C5C5",
"8 	c #9F9F9F",
"9 	c #E5E5E5",
"0 	c #1F1F1F",
"a 	c #614C0A",
"b 	c #DBAB17",
"c 	c #1E1703",
"d 	c #060400",
"e 	c #0C0A06",
"f 	c #BBBBBA",
"g 	c #C2C1C0",
"h 	c #9D9D9B",
"i 	c #E0E0DF",
"j 	c #24231F",
"k 	c #654E0A",
"l 	c #F2BC19",
"m 	c #EDB919",
"n 	c #F1BC19",
"o 	c #DCAB17",
"p 	c #231B03",
"q 	c #72590C",
"r 	c #B78E13",
"s 	c #B48C14",
"t 	c #5D5334",
"u 	c #5A5135",
"v 	c #6C5D2F",
"w 	c #4B473B",
"x 	c #A88419",
"y 	c #CFA116",
"z 	c #CA9D15",
"A 	c #3D2F06",
"B 	c #AF8812",
"C 	c #BE9414",
"D 	c #6D550B",
"E 	c #EFBA19",
"F 	c #664F0A",
"G 	c #614B0A",
"H 	c #7D610D",
"I 	c #493907",
"J 	c #DEAC17",
"K 	c #BD9314",
"L 	c #9E7B10",
"M 	c #362A05",
"N 	c #AD8612",
"O 	c #92720F",
"P 	c #5B4709",
"Q 	c #E4B218",
"R 	c #6E560B",
"S 	c #574409",
"T 	c #C59915",
"U 	c #1B1502",
"V 	c #090701",
"W 	c #1D1703",
"X 	c #0C0901",
"Y 	c #554209",
"Z 	c #D6A616",
"` 	c #ECB819",
" .	c #3A2D06",
"..	c #A88311",
"+.	c #94730F",
"@.	c #050400",
"#.	c #B28A13",
"$.	c #2D2304",
"%.	c #292004",
"&.	c #2A2104",
"*.	c #9A7810",
"=.	c #DDAC17",
"-.	c #DFAD17",
";.	c #151002",
">.	c #70570B",
",.	c #BA9113",
"'.	c #E1AF18",
").	c #0E0B01",
"!.	c #80630D",
"                                                                                ",
"                                                                                ",
"                                                                                ",
"                                                                                ",
"                                                                                ",
"                                    . + + + + + + + + + + + + + + @             ",
"                                    # $ $ $ $ $ $ $ $ $ $ $ $ $ $ %             ",
"                                    # $ $ $ $ $ $ $ $ $ $ $ $ $ $ %             ",
"                                    # $ $ $ $ $ $ $ $ $ $ $ $ $ $ %             ",
"                                    & % % % % % % % % % % % % % % *             ",
"                                                                                ",
"                                                                                ",
"                                                                                ",
"                                                                                ",
"                                                                                ",
"                = = = = = = = = = =                                             ",
"                = - ; > > > > > , = =                                           ",
"          ' '   ) ! ~ { ] ] ] ] ^ / ( =                                         ",
"        _ : < = [ } | 1 ] ] ] ] 2 3 4 =                                         ",
"      = 5 6 7 = 8 9 0 a ] ] ] ] ] b c =                                         ",
"( d d d e f g d h i j k ] ] l m n o p ( =                                       ",
"q r r r s t u r v w x y ] ] z A B m C D =                                       ",
"> ] ] ] E F G ] H I o J K K L M N ] ] O =                                       ",
"> ] ] ] ] ] ] ] ] ] ] O = = M ] ] ] ] O =                                       ",
", P P > ] ] ] ] ] Q R M ( q N ] ] ] ] O =                                       ",
"= = = S b b b b b T U V W K ] ] ] ] ] O =                                       ",
"    = X c c c c c U ( Y Z ` ] ] ] ] ] O =                                       ",
"    = = = = = = = = =  .O O ..] ] ] ] O =                                       ",
"                        = = M ] ] ] ] +.@.                                      ",
"                          = M ] ] ] ] b #.$.=                                   ",
"                          %.G ] ] ] ] ] E F &.                                  ",
"                        d r ] ] ] ] ] ] ] ] K =                                 ",
"                    = A *.=.] ] ] ] ] ] ] ] -.>                                 ",
"                    ;.>.] ] ] ] ] ] ] ] ] ] ] ]                                 ",
"                = ;.,.'.] ] ] ] ] ] ] ] ] ] ] ]                                 ",
"                  ).!.O O O O O O O O O O O O O                                 ",
"                                                                                ",
"                                                                                ",
"                                                                                ",
"                                                                                "};
