/* XPM */
static char * deleteExperimentLarge_xpm[] = {
"32 32 222 2",
"  	c None",
". 	c #2D2D2D",
"+ 	c #222222",
"@ 	c #292929",
"# 	c #D0D0D0",
"$ 	c #313131",
"% 	c #171717",
"& 	c #FFFFFF",
"* 	c #232323",
"= 	c #DDDDDD",
"- 	c #E4E4E4",
"; 	c #D4D4D4",
"> 	c #272727",
", 	c #151515",
"' 	c #262626",
") 	c #2E2E2E",
"! 	c #1B1B1B",
"~ 	c #191919",
"{ 	c #FCFCFC",
"] 	c #1F1F1F",
"^ 	c #000000",
"/ 	c #202020",
"( 	c #2B2B2B",
"_ 	c #1A1A1A",
": 	c #2C2C2C",
"< 	c #F7F7F7",
"[ 	c #EDEDED",
"} 	c #060606",
"| 	c #EEEEEE",
"1 	c #EAEAEA",
"2 	c #DCDCDC",
"3 	c #E0E0E0",
"4 	c #DBDBDB",
"5 	c #D6D6D6",
"6 	c #C6C6C6",
"7 	c #BEBEBE",
"8 	c #C7C7C7",
"9 	c #D8D8D8",
"0 	c #141414",
"a 	c #FDFDFD",
"b 	c #DEDEDE",
"c 	c #E5E5E5",
"d 	c #E3E3E3",
"e 	c #F6F6F6",
"f 	c #F3F3F3",
"g 	c #181818",
"h 	c #E2E2E2",
"i 	c #B0B0B0",
"j 	c #B8B8B8",
"k 	c #1E1E1E",
"l 	c #424242",
"m 	c #0C0C0C",
"n 	c #B4B4B4",
"o 	c #BABABA",
"p 	c #DADADA",
"q 	c #0D0D0D",
"r 	c #F5F5F5",
"s 	c #303030",
"t 	c #DFDFDF",
"u 	c #282828",
"v 	c #4E4E4E",
"w 	c #545454",
"x 	c #7B7B7B",
"y 	c #212121",
"z 	c #E1E1E1",
"A 	c #D5D5D5",
"B 	c #BDBDBD",
"C 	c #B9B9B9",
"D 	c #474747",
"E 	c #505050",
"F 	c #8E8E8E",
"G 	c #020202",
"H 	c #030303",
"I 	c #949494",
"J 	c #090909",
"K 	c #D1D1D1",
"L 	c #D9D9D9",
"M 	c #1D1D1D",
"N 	c #BBBBBB",
"O 	c #BFBFBF",
"P 	c #6B6B6B",
"Q 	c #4A4A4A",
"R 	c #4C4C4C",
"S 	c #4F4F4F",
"T 	c #888888",
"U 	c #8A8A8A",
"V 	c #F9F9F9",
"W 	c #FAFAFA",
"X 	c #808080",
"Y 	c #606060",
"Z 	c #070707",
"` 	c #010101",
" .	c #1C1C1C",
"..	c #333333",
"+.	c #818181",
"@.	c #7F7F7F",
"#.	c #909090",
"$.	c #797979",
"%.	c #555555",
"&.	c #898989",
"*.	c #BCBCBC",
"=.	c #B5B5B5",
"-.	c #C3C3C3",
";.	c #CBCBCB",
">.	c #B7B7B7",
",.	c #AEAEAE",
"'.	c #8D8D8D",
").	c #878787",
"!.	c #7A7A7A",
"~.	c #3E3E3E",
"{.	c #414141",
"].	c #454545",
"^.	c #CCCCCC",
"/.	c #E8E8E8",
"(.	c #A2A2A2",
"_.	c #A4A4A4",
":.	c #6F6F6F",
"<.	c #626262",
"[.	c #040404",
"}.	c #050505",
"|.	c #7D7D7D",
"1.	c #717171",
"2.	c #E7E7E7",
"3.	c #A5A5A5",
"4.	c #9F9F9F",
"5.	c #6C6C6C",
"6.	c #101010",
"7.	c #525252",
"8.	c #CECECE",
"9.	c #F1F1F1",
"0.	c #5D5D5D",
"a.	c #A9A9A9",
"b.	c #9D9D9D",
"c.	c #5B5B5B",
"d.	c #434343",
"e.	c #575757",
"f.	c #252525",
"g.	c #3C3C3C",
"h.	c #323232",
"i.	c #515151",
"j.	c #969696",
"k.	c #0A0A0A",
"l.	c #919191",
"m.	c #979797",
"n.	c #ADADAD",
"o.	c #989898",
"p.	c #A7A7A7",
"q.	c #C1C1C1",
"r.	c #D3D3D3",
"s.	c #777777",
"t.	c #AAAAAA",
"u.	c #E6E6E6",
"v.	c #ACACAC",
"w.	c #CACACA",
"x.	c #D7D7D7",
"y.	c #F8F8F8",
"z.	c #FEFEFE",
"A.	c #A3A3A3",
"B.	c #848484",
"C.	c #B6B6B6",
"D.	c #8B8B8B",
"E.	c #0B0B0B",
"F.	c #CDCDCD",
"G.	c #B2B2B2",
"H.	c #AFAFAF",
"I.	c #A0A0A0",
"J.	c #959595",
"K.	c #858585",
"L.	c #939393",
"M.	c #F0F0F0",
"N.	c #3F3F3F",
"O.	c #4B4B4B",
"P.	c #404040",
"Q.	c #C4C4C4",
"R.	c #D2D2D2",
"S.	c #868686",
"T.	c #EBEBEB",
"U.	c #FBFBFB",
"V.	c #161616",
"W.	c #464646",
"X.	c #C5C5C5",
"Y.	c #929292",
"Z.	c #CFCFCF",
"`.	c #131313",
" +	c #8C8C8C",
".+	c #ABABAB",
"++	c #767676",
"@+	c #A8A8A8",
"#+	c #9C9C9C",
"$+	c #6D6D6D",
"%+	c #373737",
"&+	c #EFEFEF",
"*+	c #585858",
"=+	c #5A5A5A",
"-+	c #838383",
";+	c #757575",
">+	c #C9C9C9",
",+	c #A6A6A6",
"'+	c #828282",
")+	c #8F8F8F",
"!+	c #484848",
"~+	c #9E9E9E",
"{+	c #0E0E0E",
"]+	c #999999",
"^+	c #9B9B9B",
"/+	c #595959",
"(+	c #737373",
"_+	c #444444",
":+	c #B3B3B3",
"<+	c #B1B1B1",
"[+	c #646464",
"}+	c #686868",
"|+	c #7C7C7C",
"1+	c #707070",
"2+	c #F4F4F4",
"3+	c #353535",
"4+	c #4D4D4D",
"5+	c #C8C8C8",
"6+	c #363636",
"7+	c #080808",
"8+	c #3D3D3D",
"9+	c #5E5E5E",
"            .                 +                                 ",
"          @ # $             % & *                               ",
"        * = - ; > , ' ) ! ~ & { & ]                             ",
"      ^ ' / @ ( _ : % ! ~ & & < & [ /                           ",
"  } ^ | @ & 1 2 3 4 5 * & { { > & 6 7 ^                         ",
"} ^ 8 9 0 a & b c d : e f & g h / i j k l                       ",
"^ m n o @ { p = = q & r & s p p t u v w ^                       ",
"^ x ^ o y z t h * & & ; ' A 3 B C D E F G                       ",
"H r I ^ J ^ K . & L - M N O P Q R S T U ^                       ",
"^ I V W X Y J ^ Z ^ H ^ `  ...+.@.#.$.%.H                       ",
"^ &.z 3 & V *.C =.-.C ;.>.,.'.).!.w ~.{.^                       ",
"  _ ].L ^.[ p c /.=.N (.T _.:.<./ [.^ J ^ }.                    ",
"  ^ |.w 1.=.3 2.t o ,.3.4.x 5.6.7.8.9.0.6 a.^                   ",
"  J b.N N &.c.d.e.d.].v f.g.h.i.c L j.d K 6 k.                  ",
"  G F I l.j ,.8 m.n.o.p.q.=.^ d 2 j = 1 & r.*.^                 ",
"  ^ s.'.p.t.O L 2 u.3 7 v.^ w.x.z &.h y.W z.3 }.                ",
"  ` 4.A.4 b V & d r.4 T B.[.C.& z D.d e a & t '.^               ",
"  E.(.=.- - F.G.j.H.I.D.J.^ c & o 9 & & W & z.5 J               ",
"  ^ x K.4.i C.-.v.=.L.t.C ^ z = K.| < M.& & N.O.P.^             ",
"  ^ K.l._.(.>.2 A d d Q.a.^ R.d S.T.z.& U.9 V.*.W.}             ",
"  ^ L._.3 - W & = 4 8.U K.E.X.n Y.9 Z.f & C O.J k B.`.          ",
"  k.H.i /.2 R.G.4.t._. + +^ n..+++9 h # e Q.o ^ i.r.^ ; K       ",
"  ^ T X A.@+N Q.,.3.#+v.8 J t.t.$+q.d L.v %+E + &+, e.A.r.F.    ",
"  ^ $.Y.a.@+j t 2 d z G.H.^ ).'.*+=.2 I ^ =+-+;+c ^ ).F i >+#   ",
"  [.m.,+[ b V & = L x.'+F ^ U )+e.C.3 ++!+^ T u.^ @ +.K.>.~+5 R.",
"  {+]+G.5 9 L 7 ^+H.A.)+).E.].P /+&.2 (+_+f.^ ^ ` #.j.I X n a.Q.",
"  ^ '.(.#.:+7 H.n.3.@+A.Q.<+y 0.7.[+t !.}+%+R N.` |+#.T ).,.v.:+",
"  ^ 1+-+i Y.i 2+d b 5 O _.#+E.{.R S .+2.o.3+4+].Z S.'.+.j.I.v.  ",
"  ( 0.H.4 [ U.V 2 T.5+x #+'.^ %._+*+^+2 C  +~.[.|.U #+#.,+C.    ",
"    > ^ n.5 9 O L.>.(._.Y.|.Y.V.*+S 6+B.i j.T ^ I.'+).4.        ",
"        G k.^ '+n.p.I.,+n.q.i 7+8+v R 9+x v ^ L.K.l.@+          ",
"              `.` G ^ G k._ ] k f.^ ^ ^ ^ Z T U ,.              "};
