/* XPM */
static char * worldSmall_xpm[] = {
/* columns rows colors chars-per-pixel */
"25 25 112 2 ",
"   c None",
".  c #1E285A",
"X  c #73634A",
"o  c #7B6352",
"O  c #4A4A7B",
"+  c #4A527B",
"@  c #5A5A73",
"#  c #52527B",
"$  c #525A7B",
"%  c #635A63",
"&  c #635A6B",
"*  c #736363",
"=  c #736B7B",
"-  c #8C735A",
";  c #947B63",
":  c #947B6B",
">  c #8C7B7B",
",  c #9C8463",
"<  c #9C846B",
"1  c #A58C6B",
"2  c #AD8C73",
"3  c #AD9473",
"4  c #AD947B",
"5  c #B59C7B",
"6  c #BD9C7B",
"7  c #4A5284",
"8  c #525284",
"9  c #525A84",
"0  c #5A5A84",
"q  c #525A8C",
"w  c #525A94",
"e  c #5A6384",
"r  c #526394",
"t  c #5A639C",
"y  c #636384",
"u  c #636B84",
"i  c #736B84",
"p  c #6B7384",
"a  c #7B7B8C",
"s  c #636394",
"d  c #5A63A5",
"f  c #5A63AD",
"g  c #5A6BAD",
"h  c #5A63B5",
"j  c #5A6BB5",
"k  c #5A6BBD",
"l  c #6B6FA0",
"z  c #636BBD",
"x  c #5A6BCE",
"c  c #636BCE",
"v  c #6373C6",
"b  c #6373CE",
"n  c #6B73CE",
"m  c #6B7BCE",
"M  c #737BC6",
"N  c #737BCE",
"B  c #7B7BCE",
"V  c #847B84",
"C  c #887FAD",
"Z  c #7384D6",
"A  c #84848C",
"S  c #8C848C",
"D  c #88889C",
"F  c #A59484",
"G  c #BD9C84",
"H  c #AD9C9C",
"J  c #BDA584",
"K  c #BDA594",
"L  c #9890A9",
"P  c #948CBD",
"I  c #9C8CBD",
"U  c #9C94BD",
"Y  c #A594A5",
"T  c #AD9CB5",
"R  c #B5A5AD",
"E  c #B5A5BD",
"W  c #C6A584",
"Q  c #C6A58C",
"!  c #C6AD8C",
"~  c #CEAD8C",
"^  c #D6B58C",
"/  c #CEAD94",
"(  c #D6B594",
")  c #DEBD94",
"_  c #DEBD9C",
"`  c #C6ADA5",
"'  c #D6BDA5",
"]  c #DEBDAD",
"[  c #E7C69C",
"{  c #EFC6A5",
"}  c #EFCEA5",
"|  c #F7D6AD",
" . c #8484C6",
".. c #948CC6",
"X. c #9C94CE",
"o. c #8494DE",
"O. c #B5B5CE",
"+. c #B5B5DE",
"@. c #94A5E7",
"#. c #9CADE7",
"$. c #B5B5E7",
"%. c #CEC6CE",
"&. c #D6CEC6",
"*. c #C6C6D6",
"=. c #D6CED6",
"-. c #FFEFCE",
";. c #FFFFDE",
":. c #D6DEEF",
">. c #E7E7E7",
",. c #E7EFF7",
"<. c gray97",
"1. c white",
/* pixels */
"                    . . . . .                     ",
"              . . . . . Q . . . . .               ",
"            . . 7 s g C ~ ^ ^ ^ ^ . .             ",
"        . . O 8 w 5 5 W ^ ^ / ) ~ ^ ^ . .         ",
"      . . # # # : l j L Y R ` T R ) ) ^ . .       ",
"      . # 9 # 0 : 4 D v M M M ) [ X.[ ) ( .       ",
"    . # # # 8 = < 3 6 K ( ` U ) [ ] } { ) ^ .     ",
"  . . # 8 # * o ; 1 5 W ~ ( ) E | &.O.B ] ^ . .   ",
"  . 9 9 9 X X X - 1 5 W ^ ( ) ' =.;.>.#.m I T .   ",
"  . 9 9 9 X X X - < 4 W ^ ) [ } *.:.1.<.o.b ` .   ",
". . 9 9 9 % X X ; < 3 J ^ ^ ) } -.;.1.1.$.n P . . ",
". . 9 + $ 9 9 9 q t 3 6 ~ ^ ) [ %.+.,.,.@.n n . . ",
". & 9 9 9 p p 0 q t 2 6 W ~ ) ) ..m o.o.Z n b b . ",
". . + + 0 a a u 9 r 4 G ~ ~ ) ) n n Z Z N b c . . ",
". . # 9 0 A A a $ w S G ! ~ _ [ n n n n b b c . . ",
"  . # 9 0 a A a 9 q F 4 G W ) ) n _ n n n b c .   ",
"  . @ + + e u y 9 9 p < 4 J ~ b P  .b b n b x .   ",
"  . . 9 9 9 9 $ 9 9 q , 2 4 H v  .n b n b x . .   ",
"    . 9 9 9 9 + + 9 9 i > V j z v b n n x x .     ",
"      . + $ 9 9 9 + 9 w d d j z z v n n x .       ",
"      . . + $ 9 9 9 $ 9 w r d g h z v c . .       ",
"        . . $ + 9 + 9 $ 9 w t d f j k . .         ",
"            . . 9 9 + 9 + 9 q w t . .             ",
"              . . . . . + . . . . .               ",
"                    . . . . .                     "
};
