/* XPM */
static char * worldLarge_xpm[] = {
/* columns rows colors chars-per-pixel */
"46 46 181 2 ",
"   c None",
".  c #1E285A",
"X  c #5A525A",
"o  c #6B5A5A",
"O  c #73634A",
"+  c #736352",
"@  c #7B6352",
"#  c #5A5263",
"$  c #4A4A73",
"%  c #4A4A7B",
"&  c #4A527B",
"*  c #525273",
"=  c #5A5A73",
"-  c #52527B",
";  c #525A7B",
":  c #635A63",
">  c #635A6B",
",  c #6B6363",
"<  c #736363",
"1  c #736B7B",
"2  c #7B737B",
"3  c #846B52",
"4  c #8C735A",
"5  c #947B63",
"6  c #947B6B",
"7  c #8C7B73",
"8  c #847B7B",
"9  c #8C7B7B",
"0  c #948463",
"q  c #9C8463",
"w  c #9C846B",
"e  c #90847F",
"r  c #9C847B",
"t  c #A58C6B",
"y  c #A58C73",
"u  c #AD8C73",
"i  c #AD9473",
"p  c #AD947B",
"a  c #B59C7B",
"s  c #BD9C7B",
"d  c #4A5284",
"f  c #525284",
"g  c #525A84",
"h  c #5A5A84",
"j  c #52528C",
"k  c #525A8C",
"l  c #5A5A8C",
"z  c #4A529C",
"x  c #525A94",
"c  c #5A6384",
"v  c #5A638C",
"b  c #526394",
"n  c #5A639C",
"m  c #636384",
"M  c #636B84",
"N  c #6B6B84",
"B  c #736B84",
"V  c #6B7384",
"C  c #737384",
"Z  c #7B738C",
"A  c #7B7B8C",
"S  c #636394",
"D  c #737394",
"F  c #7E7894",
"G  c #525AA5",
"H  c #5A63A5",
"J  c #5A63AD",
"K  c #5A6BAD",
"L  c #5A63B5",
"P  c #5A6BB5",
"I  c #5A6BBD",
"U  c #6363A5",
"Y  c #6B6FA0",
"T  c #636BBD",
"R  c #737BB5",
"E  c #7B7BB5",
"W  c #5A6BCE",
"Q  c #636BCE",
"!  c #6373C6",
"~  c #6B73C6",
"^  c #6373CE",
"/  c #6B73CE",
"(  c #6B7BCE",
")  c #737BC6",
"_  c #737BCE",
"`  c #7B7BCE",
"'  c #737BD6",
"]  c #847B84",
"[  c #887FAD",
"{  c #7B84CE",
"}  c #7384D6",
"|  c #7B84DE",
" . c #84848C",
".. c #8C848C",
"X. c #88889C",
"o. c #998994",
"O. c #A59484",
"+. c #AD9484",
"@. c #BD9C84",
"#. c #AD9494",
"$. c #AD9C9C",
"%. c #BDA584",
"&. c #BDA594",
"*. c #BDA59C",
"=. c #9890A9",
"-. c #948CBD",
";. c #9C8CBD",
":. c #9C94BD",
">. c #A594A5",
",. c #A594B5",
"<. c #AD9CB5",
"1. c #AD9CBD",
"2. c #BDA5A5",
"3. c #B5A5AD",
"4. c #BDA5AD",
"5. c #B5A5B5",
"6. c #B5A5BD",
"7. c #BDADBD",
"8. c #C6A584",
"9. c #C6A58C",
"0. c #C6AD8C",
"q. c #CEAD8C",
"w. c #D6B58C",
"e. c #C6AD94",
"r. c #CEAD94",
"t. c #CEAD9C",
"y. c #D6B594",
"u. c #DEBD94",
"i. c #D6B59C",
"p. c #DEBD9C",
"a. c #C6ADA5",
"s. c #C6ADAD",
"d. c #CEB5AD",
"f. c #D6B5A5",
"g. c #D6BDA5",
"h. c #DEBDAD",
"j. c #E7C69C",
"k. c #DEC6BD",
"l. c #EFC6A5",
"z. c #EFCEA5",
"x. c #F7D6AD",
"c. c #FFDEBD",
"v. c #8484C6",
"b. c #8C8CC6",
"n. c #8484CE",
"m. c #948CC6",
"M. c #9C94CE",
"N. c #949CCE",
"B. c #8C8CD6",
"V. c #848CDE",
"C. c #8494DE",
"Z. c #9494D6",
"A. c #B5A5CE",
"S. c #B5B5CE",
"D. c #BDBDD6",
"F. c #B5B5DE",
"G. c #94A5E7",
"H. c #9CADE7",
"J. c #B5B5E7",
"K. c #BDC6EF",
"L. c #CEC6CE",
"P. c #D6CEC6",
"I. c #C6C6D6",
"U. c #D6CED6",
"Y. c #DED6D6",
"T. c #D6D6DE",
"R. c #FFE7C6",
"E. c #FFEFCE",
"W. c #EFE7D6",
"Q. c #FFFFD6",
"!. c #F7F7DE",
"~. c #FFFFDE",
"^. c #CED6EF",
"/. c #D6DEEF",
"(. c #E7E7E7",
"). c #EFEFE7",
"_. c #E7EFF7",
"`. c #EFF7F7",
"'. c gray97",
"]. c #FFFFF7",
"[. c white",
/* pixels */
"                                        . . . . . .                                         ",
"                                . . . . . . . . . . . . . .                                 ",
"                          . . . . N z G H [ &.9.e.;.;.-.r.. . . .                           ",
"                      . . . $ d j x z U #.&.[ &.<.y.i.t.<.w.1.a.. . .                       ",
"                    . . $ $ % d S S Y K X.[ >.q.w.w.w.w.w.m.w.q.w.a.. .                     ",
"                  . . % $ % d j S F o.+.8.8.8.w.w.w.w.w.w.w.B.w.m.w.w.. .                   ",
"              . . * % % $ f j x F a a a 8.8.q.w.w.y.r.y.u.i.q.w.w.w.w.q.w.. .               ",
"            . . & & & & & g l B ..O.X.o.=.=.v.q.r.^ ` b.e.4.` u.y.w.w.w.w.q.. .             ",
"            . - - - - - * - 2 6 r Y K P [ =.,.>.3.3.a.2.<.u.3.b.u.u.u.w.w.w.w..             ",
"          . & f - - - - - j N B Z o.o.[ E ~ ) -._ 4.3.n.y.u.p.4.j.u.M.y.y.w.w.w..           ",
"        . . - - - - g - - h 7 6 y p a X.R ! ) ) ) / ) ,.u.u.j.p.M.j.j.u.u.y.w.w.. .         ",
"      . . - - f - f - f f 1 5 w t i p s 8.&.,.y.a.3.:.t.u.f.j.d.h.z.z.l.j.u.w.w.w.. .       ",
"      . g & f - - & g - , 3 4 5 w t i a @.8.8.w.y.u.i.5.j.j.z.k._ B.c.z.l.j.u.w.w.5..       ",
"    . . g g - - f - - < O @ 3 5 q t i a %.8.8.q.y.u.u.s.6.z.x.c.P.A.S.` M.h.u.w.w.w.. .     ",
"    . f & g & ; g & < + O O 3 4 q w i p %.%.8.w.y.u.u.u.-.n.R.R.E.J.R.N.' _ ` y.w.y.m..     ",
"    . - g g g & g = O O O O 3 4 q t i a %.8.q.w.y.u.u.u.g._ U.Q.~.(.(.H.V.( ^ ;.u.<.^ .     ",
"  . . f & & & ; g : O O O O 3 4 q t u p s 8.8.w.y.u.u.j.l.7.D.Q.~.!.'./.G.| ^ ( y.2.^ . .   ",
"  . - & g - g g g o O O O O @ 4 q w u p s 8.q.w.u.u.j.j.z.R.I.T./.'.[.'.^.C.( ^ <.a.^ ( .   ",
"  . & g g g & g & : O O O O @ 4 0 w t i s 8.q.w.u.u.j.l.x.R.Y.T.).].[.[.`.H.( ^ _ a.^ ^ .   ",
"  . f g g ; g g g g : O O O @ 5 q w t i s %.8.w.w.u.u.l.z.R.E.E.~.).[.[.'.J.} / ^ -.) ^ .   ",
". . & ; g & g g & g ; # X : = m 8 7 w i a %.8.q.w.u.u.j.z.c.R.E.W._.[.[._.H.} ^ ^ ^ v.^ . . ",
". . g g g g & g ; g g g g g g k b n r i a s 8.q.w.u.u.j.j.z.L.R.F.K._._.^.G.} / / / ^ ^ . . ",
". . & g & ; g g g g h h h g g k b n w u p s %.8.q.w.u.u.j.l.A.Z.| G.J.K.H.C._ / ^ ! ^ ^ . . ",
". . > f g g g & g M V V M h g k x n 9 u p s @.8.q.w.u.u.u.j.m.( ( | C.C.V.} / / ^ ^ ^ ^ . . ",
". . + > & g & g h V A A C M ; g k b D p a @.@.q.q.u.u.u.u.5./ / / ( } } ' _ / ^ ^ Q W Q . . ",
". . + @ ; g g g h C  . . .V h g x b n o.a @.9.q.y.u.u.u.j.6./ / / / / ( / / ^ ^ Q W W ! . . ",
"  . X < - & g ; h A  . . .A c ; k x n ..a @.@.0.q.u.p.j.j.s./ / / / / / ^ ^ ^ ^ ! Q ^ ^ .   ",
"  . O < & g g g h V  . . .A M ; g k b ..p @.a @.q.y.u.u.u.4./ ( ;.v./ / ^ ^ ^ ^ ^ Q ^ ^ .   ",
"  . + X - g g & h M A  . .A m g g k b O.a p p @.8.q.u.j.u.;./ :.p.v./ / / / / ^ Q Q Q Q .   ",
"  . . o = g g g g c V A A V c ; g g x e y y i a @.8.q.p.:.( { u.4.^ ^ ^ / / / / W W W . .   ",
"    . o = g & g & g c M M m ; g g g k V w w y p %.8.q.*.^ ( -.u.v.^ ^ ^ ^ / / ^ W W W .     ",
"    . + = & g g g ; g h h h ; g ; g k b 6 w y i @.8.0.>.^ ^ 4.3./ ^ ^ / ^ ^ ^ W W W W .     ",
"    . . ; g g & g g g g g ; g g g g g k 1 q t u p @.$.T ! ! v._ / / ^ / ^ ^ W W W W . .     ",
"      . > - ; g ; g & g ; g g g & ; g g v 0 w y i +.E T T ! ^ ^ ^ / / / ^ W W W W W .       ",
"      . . ; g g g g g g g & g & g g g g k B 7 9 ] Y P I T T ! ! ^ ^ / / / W W W W . .       ",
"        . . & g & g ; g & g ; g g & ; g g x M H H J P P T T T Q ! ^ / / / W W W . .         ",
"          . g g g g g g g g g & g g g g g k b n H H J K P I I T ! ! ^ / ^ W ^ ^ .           ",
"            . g ; g & ; g g & g ; g & ; g g k x b n H J K P L I T T ! Q ^ / / .             ",
"            . . g g g g g g g & g g g g g g g k x n H H J J P L I I T ! Q ! . .             ",
"              . . g & ; g & ; g g & ; g & ; g g x x n n H J J J P L I T T . .               ",
"                  . . g g g g g g & g g g g g g g k x b n H H J J J P . .                   ",
"                    . . g g & g ; g g & ; g & & g g k x x n n n H G . .                     ",
"                      . . . g g g g & g g g g & & & f f j j x z . . .                       ",
"                          . . . . ; g ; g & & & $ $ $ $ % . . . .                           ",
"                                . . . . . . . . . . . . . .                                 ",
"                                        . . . . . .                                         "
};
