/* XPM */
static char * experimentLarge_xpm[] = {
"32 32 163 2",
"  	c None",
". 	c #000000",
"+ 	c #FFF2B1",
"@ 	c #FFF1B1",
"# 	c #FFF0B1",
"$ 	c #FFEFB1",
"% 	c #FFEEB1",
"& 	c #FFEDB1",
"* 	c #FFECB1",
"= 	c #FFEBB1",
"- 	c #FFEAB1",
"; 	c #FFE9B1",
"> 	c #FFE8B1",
", 	c #FFFCB1",
"' 	c #FFFBB1",
") 	c #FFFAB1",
"! 	c #FFF9B1",
"~ 	c #FFF8B1",
"{ 	c #FFF7B1",
"] 	c #FFF6B1",
"^ 	c #FFF5B1",
"/ 	c #FFF4B1",
"( 	c #FFF3B1",
"_ 	c #FFE7B1",
": 	c #FFFFFF",
"< 	c #FFFEFD",
"[ 	c #FFFDFB",
"} 	c #FFFDFA",
"| 	c #FFFCF8",
"1 	c #FFFCF7",
"2 	c #FFFBF5",
"3 	c #FFFAF3",
"4 	c #FFFAF2",
"5 	c #FFF9F0",
"6 	c #FFF9EF",
"7 	c #FFF8ED",
"8 	c #FFF7EB",
"9 	c #FFF7EA",
"0 	c #FFF6E8",
"a 	c #FFF6E7",
"b 	c #FFF5E5",
"c 	c #FFF4E3",
"d 	c #FFF4E2",
"e 	c #FFF3E0",
"f 	c #FFF3DF",
"g 	c #FFFBF6",
"h 	c #A2A2A2",
"i 	c #FFFAF1",
"j 	c #FFF8EE",
"k 	c #FFF8EC",
"l 	c #B4B4B4",
"m 	c #FFF7E9",
"n 	c #FFF5E4",
"o 	c #FFF4E1",
"p 	c #FFF2DE",
"q 	c #FFF2DD",
"r 	c #FFFAF4",
"s 	c #FFF9F2",
"t 	c #888888",
"u 	c #FFF6E9",
"v 	c #909090",
"w 	c #FFF2DC",
"x 	c #FFE6B1",
"y 	c #808080",
"z 	c #FFF3DE",
"A 	c #FFF1DC",
"B 	c #FFF1DB",
"C 	c #FFFF6B",
"D 	c #FFFD6B",
"E 	c #FFFC6C",
"F 	c #FFFB6D",
"G 	c #FFFA6E",
"H 	c #FFF96F",
"I 	c #FFF870",
"J 	c #FFF771",
"K 	c #FFF571",
"L 	c #FFF472",
"M 	c #FFF373",
"N 	c #FFF274",
"O 	c #FFF175",
"P 	c #FFF076",
"Q 	c #FFEF77",
"R 	c #FFF1D9",
"S 	c #FFF1DA",
"T 	c #FFE5B1",
"U 	c #FFF96D",
"V 	c #FFF86E",
"W 	c #FFF76F",
"X 	c #FFF670",
"Y 	c #FFF174",
"Z 	c #FFF075",
"` 	c #FFEF76",
" .	c #FFEE77",
"..	c #FFED78",
"+.	c #FFEC79",
"@.	c #FFEB7A",
"#.	c #FFEA7A",
"$.	c #FFE97B",
"%.	c #FFE87C",
"&.	c #FFE77C",
"*.	c #FFE67D",
"=.	c #FFE57E",
"-.	c #FFE47F",
";.	c #FFE37F",
">.	c #FFE280",
",.	c #FFE181",
"'.	c #FFF0D8",
").	c #FFF86F",
"!.	c #FFEB79",
"~.	c #FFE77D",
"{.	c #FFE47E",
"].	c #FFE281",
"^.	c #FFE082",
"/.	c #FFDF82",
"(.	c #FFF0D7",
"_.	c #FFF572",
":.	c #FFE380",
"<.	c #FFDF83",
"[.	c #FFDE83",
"}.	c #FFDE84",
"|.	c #FFF0D6",
"1.	c #FFE4B1",
"2.	c #FFED77",
"3.	c #FFEC78",
"4.	c #FFE97A",
"5.	c #FFDF84",
"6.	c #FFDD84",
"7.	c #FFDD85",
"8.	c #FFDC85",
"9.	c #FFDB85",
"0.	c #FFE57F",
"a.	c #FFDB87",
"b.	c #FFDA87",
"c.	c #FFF0D5",
"d.	c #FFDB86",
"e.	c #FFD888",
"f.	c #FFD78A",
"g.	c #FFD789",
"h.	c #FFD889",
"i.	c #FFF0D4",
"j.	c #FFE3B1",
"k.	c #FFE67E",
"l.	c #FFE381",
"m.	c #FFE182",
"n.	c #FFE083",
"o.	c #FFDE85",
"p.	c #FFDD86",
"q.	c #FFDA88",
"r.	c #FFD88A",
"s.	c #FFD78B",
"t.	c #FFD58C",
"u.	c #FFD48E",
"v.	c #FFD48D",
"w.	c #FFD68B",
"x.	c #FFD989",
"y.	c #FFD48C",
"z.	c #FFD58B",
"A.	c #FFD68A",
"B.	c #FFDC86",
"C.	c #FFD68C",
"D.	c #FFD58D",
"E.	c #FFE2B1",
"F.	c #FFD988",
"                                                                ",
"                                                                ",
"                                                                ",
"                                      . . . . . . . . . .       ",
"                                    . + @ # $ % % & * = - .     ",
"        . . . . . . . . . . . . . . @ # $ % % & * = = - ; > .   ",
"      . , ' ) ! ~ { ] ^ / ( + @ # # $ % % & * * = = - ; ; > > . ",
"      . ) ! ~ . . . . . . . . . . . . . . . . . . . . . . . _ . ",
"      . ! ~ { . : < [ } | 1 2 3 4 5 6 7 8 9 0 a b c d e f . _ . ",
"      . { ] ^ . } | g h 3 i h j k l m a l b n l o e l p q . _ . ",
"      . ] ^ / . g r s t j 7 t u a v n c v o e v f p v w w . x . ",
"  . . . . . . . . . . . . . . . o y z q y q w y A B v B B . x . ",
". C D E F G H I J K L M N O P Q . . . . . . . . . . y R S . T . ",
". F U V W X K L M Y Z `  ...+.@.#.$.%.&.*.=.-.;.>.,.. '.R . T . ",
". ).X K L M Y Z `  ...!.#.$.%.~.*.=.{.-.;.>.].,.^./.. (.'.. T . ",
". _.M N O `  ...+.#.$.%.*.=.-.:.>.>.,.,.^.^.<.<.[.}.. |.(.. 1.. ",
"  . Z ` 2.3.!.4.%.~.=.-.:.,.^.5.}.}.}.6.6.6.7.8.8.8.9.. |.. 1.. ",
"  . ..+.#.$.&.*.0.:.].^.<.6.8.a.b.b.b.b.b.b.b.b.b.b.b.. c.. 1.. ",
"  . #.$.&.*.-.:.,.^.[.7.d.b.e.f.g.g.g.g.g.g.h.e.e.e.e.. i.. j.. ",
"    . k.-.l.m.n.o.p.a.q.r.s.t.u.v.v.t.t.t.w.w.w.f.f.f.h.. . j.. ",
"    . :.].^.<.}.p.a.q.x.f.w.t.u.v.v.y.t.t.z.w.w.A.A.f.g.. . j.. ",
"    . ^.<.}.7.B.a.q.x.r.s.C.D.u.v.v.v.y.t.t.t.z.z.w.A.A.. . E.. ",
"      . 7.B.d.b.q.x.r.f.w.t.v.u.v.v.v.v.y.y.t.t.t.z.z.z.z.. E.. ",
"      . a.q.F.x.r.f.s.w.t.t.v.u.v.v.v.v.y.y.t.t.t.z.z.z.z.. E.. ",
"      . h.h.f.f.s.w.w.t.t.v.v.u.v.v.v.v.v.v.v.y.y.y.y.y.y.. E.. ",
"        . w.t.t.t.t.t.v.v.v.v.u.v.v.v.v.v.v.v.v.v.v.v.v.v.v.. . ",
"        . u.u.u.u.u.u.u.u.u.u.u.u.u.u.u.u.u.u.u.u.u.u.u.u.u.. . ",
"          . . . . . . . . . . . . . . . . . . . . . . . . . .   ",
"                                                                ",
"                                                                ",
"                                                                ",
"                                                                "};
