/* XPM */
static char * experimentSmall_xpm[] = {
"24 24 130 2",
"  	c None",
". 	c #000000",
"+ 	c #FFF2B1",
"@ 	c #FFF1B1",
"# 	c #FFEFB1",
"$ 	c #FFEEB1",
"% 	c #FFECB1",
"& 	c #FFEBB1",
"* 	c #FFEAB1",
"= 	c #FFFCB1",
"- 	c #FFFAB1",
"; 	c #FFF9B1",
"> 	c #FFF8B1",
", 	c #FFF6B1",
"' 	c #FFF5B1",
") 	c #FFF4B1",
"! 	c #FFF0B1",
"~ 	c #FFE9B1",
"{ 	c #FFE8B1",
"] 	c #FFE7B1",
"^ 	c #FFF7B1",
"/ 	c #FFFFFF",
"( 	c #FFFDFB",
"_ 	c #FFFDFA",
": 	c #FFFCF8",
"< 	c #FFFBF5",
"[ 	c #FFFAF3",
"} 	c #FFFAF2",
"| 	c #FFF9EF",
"1 	c #FFF8ED",
"2 	c #FFF7EB",
"3 	c #FFF6E8",
"4 	c #FFF6E7",
"5 	c #FFF5E5",
"6 	c #FFF4E2",
"7 	c #FFF3E0",
"8 	c #FFFBF6",
"9 	c #FFF9F2",
"0 	c #888888",
"a 	c #FFF8EE",
"b 	c #FFF6E9",
"c 	c #FFF5E4",
"d 	c #FFF4E3",
"e 	c #909090",
"f 	c #FFF3DF",
"g 	c #FFF2DC",
"h 	c #FFE6B1",
"i 	c #FFF4E1",
"j 	c #FFF3DE",
"k 	c #FFF2DD",
"l 	c #808080",
"m 	c #FFF1DC",
"n 	c #FFF1DB",
"o 	c #FFFD6B",
"p 	c #FFFC6C",
"q 	c #FFFB6D",
"r 	c #FFF96F",
"s 	c #FFF870",
"t 	c #FFF771",
"u 	c #FFF472",
"v 	c #FFF373",
"w 	c #FFF274",
"x 	c #FFF076",
"y 	c #FFEF77",
"z 	c #FFF1D9",
"A 	c #FFE5B1",
"B 	c #FFF670",
"C 	c #FFF571",
"D 	c #FFF174",
"E 	c #FFF075",
"F 	c #FFEF76",
"G 	c #FFED78",
"H 	c #FFEB79",
"I 	c #FFEA7A",
"J 	c #FFE87C",
"K 	c #FFE77D",
"L 	c #FFE67D",
"M 	c #FFE47E",
"N 	c #FFE47F",
"O 	c #FFE37F",
"P 	c #FFE281",
"Q 	c #FFE181",
"R 	c #FFE082",
"S 	c #FFF0D7",
"T 	c #FFF175",
"U 	c #FFEE77",
"V 	c #FFEC79",
"W 	c #FFE97B",
"X 	c #FFE380",
"Y 	c #FFE280",
"Z 	c #FFDF83",
"` 	c #FFDE83",
" .	c #FFF0D6",
"..	c #FFE4B1",
"+.	c #FFED77",
"@.	c #FFE97A",
"#.	c #FFE57E",
"$.	c #FFDF84",
"%.	c #FFDE84",
"&.	c #FFDD84",
"*.	c #FFDD85",
"=.	c #FFDC85",
"-.	c #FFDB85",
";.	c #FFE77C",
">.	c #FFDB86",
",.	c #FFD888",
"'.	c #FFD78A",
").	c #FFD789",
"!.	c #FFD889",
"~.	c #FFE3B1",
"{.	c #FFE67E",
"].	c #FFE182",
"^.	c #FFE083",
"/.	c #FFDE85",
"(.	c #FFDB87",
"_.	c #FFDA88",
":.	c #FFD88A",
"<.	c #FFD58C",
"[.	c #FFD48E",
"}.	c #FFD48D",
"|.	c #FFD68B",
"1.	c #FFDD86",
"2.	c #FFD989",
"3.	c #FFD48C",
"4.	c #FFD68A",
"5.	c #FFDA87",
"6.	c #FFD58B",
"7.	c #FFE2B1",
"8.	c #FFD988",
"9.	c #FFD78B",
"                                                ",
"                                                ",
"                            . . . . . . . .     ",
"      . . . . . . . . . . . + @ # $ $ % & * .   ",
"    . = - ; > , ' ) + @ ! # $ $ % % & * ~ ~ { . ",
"    . - > . . . . . . . . . . . . . . . . . ] . ",
"    . ; ^ . / ( _ : < [ } | 1 2 3 4 5 6 7 . ] . ",
"    . , ) . 8 9 0 a 0 b 4 c d e 7 e f e g . h . ",
"  . . . . . . . . . . . i j k l g l m e n . h . ",
". o p q r s t u v w x y . . . . . . . l z . A . ",
". B C u D E F G H I J K L M N O P Q R . S . A . ",
". v w T U G V W J L N X Y Q Q R Z Z ` .  .. ... ",
". E F +.H @.J #.N X R $.%.%.&.&.*.=.=.-.. . ... ",
". I W ;.N X Q ` *.>.,.'.).).).).!.,.,.,.. . ~.. ",
"  . {.N ].^./.(._.:.<.[.}.<.<.<.|.|.'.'.!.. ~.. ",
"  . X P Z %.1._.2.'.<.[.}.3.<.<.|.|.4.'.).. ~.. ",
"    . *.>.5._.:.'.|.}.[.}.}.}.3.<.<.<.6.6.6.7.. ",
"    . (.8.2.:.9.|.<.}.[.}.}.}.3.<.<.<.6.6.6.7.. ",
"    . !.'.'.9.|.<.<.}.[.}.}.}.}.}.3.3.3.3.3.7.. ",
"      . [.[.[.[.[.[.[.[.[.[.[.[.[.[.[.[.[.[.. . ",
"        . . . . . . . . . . . . . . . . . . .   ",
"                                                ",
"                                                ",
"                                                "};
