/* XPM */
static char * ffButton_xpm[] = {
"25 25 145 2 ",
"   c None",
".  c #001043",
"X  c #001045",
"o  c #001247",
"O  c #001447",
"+  c #001547",
"@  c #001249",
"#  c #001648",
"$  c #001649",
"%  c #00154A",
"&  c #00164B",
"*  c #00154C",
"=  c #00164C",
"-  c #00174C",
";  c #00164E",
":  c #001750",
">  c #001850",
",  c #001853",
"<  c #001953",
"1  c #011A57",
"2  c #031D59",
"3  c #011E61",
"4  c #052265",
"5  c #02206A",
"6  c #09296F",
"7  c #042475",
"8  c #0B2F79",
"9  c #052983",
"0  c #113D8D",
"q  c #07319B",
"w  c #0732A1",
"e  c #0A3BBD",
"r  c #184FB1",
"t  c #1A51B1",
"y  c #0D44CE",
"u  c #0C43D4",
"i  c #0D47D8",
"p  c #0E48DC",
"a  c #0F49DF",
"s  c #124EDE",
"d  c #124FDE",
"f  c #124FDF",
"g  c #2366D2",
"h  c #0E48E3",
"j  c #0F4BE5",
"k  c #0F4CE6",
"l  c #0E4CED",
"z  c #124FE1",
"x  c #124FE3",
"c  c #104CE8",
"v  c #1555E1",
"b  c #1655E2",
"n  c #1655E3",
"m  c #1352E7",
"M  c #1656E4",
"N  c #1656E6",
"B  c #195BE5",
"V  c #1A5BE6",
"C  c #1A5CE7",
"Z  c #1352EA",
"A  c #1657EA",
"S  c #1A5EEB",
"D  c #1F64E4",
"F  c #1D61E8",
"G  c #1D62E9",
"H  c #1E62EA",
"J  c #1E64ED",
"K  c #1D64EE",
"L  c #1C62F5",
"P  c #2266E0",
"I  c #2168EC",
"U  c #256EEF",
"Y  c #2B75E3",
"T  c #2A76EC",
"R  c #226AF1",
"E  c #246EF1",
"W  c #2671F6",
"Q  c #2873F1",
"!  c #2875F2",
"~  c #2A77F7",
"^  c #2E7DF2",
"/  c #2C7AF6",
"(  c #2470FF",
")  c #2D7DF9",
"_  c #2D7DFB",
"`  c #2E7EFB",
"'  c #2B7AFD",
"]  c #3080F7",
"[  c #3080F8",
"{  c #3385F9",
"}  c #3386FA",
"|  c #3386FB",
" . c #3082FC",
".. c #3183FC",
"X. c #3184FC",
"o. c #3387FC",
"O. c #3184FF",
"+. c #3387FF",
"@. c #3487FD",
"#. c #3488FF",
"$. c #358BFF",
"%. c #378EFF",
"&. c #398DFD",
"*. c #388EFD",
"=. c #398EFD",
"-. c #388EFF",
";. c #3A8FFF",
":. c #3791FF",
">. c #3A90FE",
",. c #3B92FF",
"<. c #3B93FF",
"1. c #4498FF",
"2. c #4499FF",
"3. c #459AFF",
"4. c #469CFF",
"5. c #49A3FF",
"6. c #4EA2FF",
"7. c #4FA2FF",
"8. c #4FA3FF",
"9. c #50A6FF",
"0. c #51A6FF",
"q. c #59ACFF",
"w. c #58ADFF",
"e. c #59ADFF",
"r. c #5BB1FF",
"t. c #63B7FF",
"y. c #61BBFF",
"u. c #64B9FF",
"i. c #66BBFF",
"p. c #6DC0FF",
"a. c #6EC1FF",
"s. c #71C5FF",
"d. c #74CBFF",
"f. c #79CBFF",
"g. c #7BCFFF",
"h. c #7CD0FF",
"j. c #83D6FF",
"k. c #85D8FF",
"l. c #87DCFF",
"z. c #8EDFFF",
"x. c #98EAFF",
"c. c #98F0FF",
"v. c #9DF2FF",
"b. c #A5F7FF",
"n. c #ABFDFF",
"                                                  ",
"                                                  ",
"                                                  ",
"                                                  ",
"                                                  ",
"                                                  ",
"      n.                6.                        ",
"      b.v.              3.<.                      ",
"      x.c.l.            *.:.o.                    ",
"      z.k.g.d.i.        o. .) ' E                 ",
"      j.h.p.t.y.9.      [ ) Q U ( J               ",
"      f.s.t.q.6.5.<.    / ~ U I H L A             ",
"      p.i.q.6.3.*.$.o.o.! W I H C n m j l         ",
"      t.r.6.3.*.}  .) r P R H C N f p h q %       ",
"      q.9.3.*.} o.T 8 ; D J V n f j u 7 O :       ",
"      6.4.*.} $.g 4 .   J S n f c e 3 %           ",
"      3.<.@.o.t > ;     V N x k w > ;             ",
"      *.%.] 0 @ >       n Z p 9 % >               ",
"      $.Y 6 X           x y 5 O                   ",
"      ^ 2 X             i 1 %                     ",
"        %                 ;                       ",
"                                                  ",
"                                                  ",
"                                                  ",
"                                                  "
};
