/* XPM */
static char * joints_C_xpm[] = {
"16 15 12 1",
" 	c None",
".	c #FFFFFF",
"+	c #E5E5E5",
"@	c #CBDCC3",
"#	c #BED7B1",
"$	c #D8E1D4",
"%	c #8AC56B",
"&	c #70BC48",
"*	c #7DC15A",
"=	c #A4CE8E",
"-	c #B1D39F",
";	c #97CA7C",
"................",
"++++++@#@+@@++++",
"++++$%&&&%%&++++",
"++++*&=##%&&++++",
"+++-&#++++*&++++",
"+++**+++++=;++++",
"+++&;+++++++++++",
"+++&;+++++++++++",
"+++**+++++++++++",
"+++=&@+++++--+++",
"+++$**-++#%&;+++",
"++++#*&&&&&=++++",
"+++++$-;;-$+++++",
"++++++++++++++++",
"++++++++++++++++"};
