/* XPM */
static char *links_R[] = {
/* columns rows colors chars-per-pixel */
"16 15 37 1 ",
"  c #8E44AD",
". c #8F46AE",
"X c #9048AE",
"o c #9149AF",
"O c #914AAF",
"+ c #924BAF",
"@ c #934DB0",
"# c #9A5BB5",
"$ c #9C5EB6",
"% c #9C5FB6",
"& c #9E61B7",
"* c #A269BA",
"= c #A977BF",
"- c #AF81C2",
"; c #B184C3",
": c #B287C4",
"> c #B58CC6",
", c #B58DC6",
"< c #B892C8",
"1 c #B993C8",
"2 c #C1A3CE",
"3 c #C4A8D0",
"4 c #CAB4D4",
"5 c #CBB6D5",
"6 c #CDB8D5",
"7 c #CEBAD6",
"8 c #D0BED8",
"9 c #D6C9DB",
"0 c #D7CADC",
"q c #D9CFDD",
"w c #DBD2DE",
"e c #DCD5E0",
"r c #DDD6E0",
"t c #E2DFE3",
"y c #E5E4E5",
"u c gray90",
"i c white",
/* pixels */
"iiiiiiiiiiiiiiii",
"uuuuuuuuuuuuuuuu",
"u4&  $#@*7uuuuuu",
"uu9  7u< O0uuuuu",
"uu9  7uw  2uuuuu",
"uu9  7uq  4uuuuu",
"uu9  7u:O,uuuuuu",
"uu9  $@ -tuuuuuu",
"uu9  78  ,uuuuuu",
"uu9  7u; Oeuuuuu",
"uu9  7ueO ,uuuuu",
"u4&  $3u< O=uuuu",
"uuuuuuuuuuuuuuuu",
"uuuuuuuuuuuuuuuu",
"uuuuuuuuuuuuuuuu"
};
