/* XPM */
static char *links_L[] = {
/* columns rows colors chars-per-pixel */
"16 15 12 1 ",
"  c #8E44AD",
". c #9A5AB5",
"X c #9C5EB6",
"o c #9E61B7",
"O c #A167B9",
"+ c #C1A2CE",
"@ c #C4A8D0",
"# c #CAB4D4",
"$ c #CEBAD6",
"% c #D6C9DB",
"& c gray90",
"* c white",
/* pixels */
"****************",
"&&&&&&&&&&&&&&&&",
"&#o  X@&&&&&&&&&",
"&&%  $&&&&&&&&&&",
"&&%  $&&&&&&&&&&",
"&&%  $&&&&&&&&&&",
"&&%  $&&&&&&&&&&",
"&&%  $&&&&&&&&&&",
"&&%  $&&&&&&&&&&",
"&&%  $&&&+&&&&&&",
"&&%  $&&&.&&&&&&",
"&#o  XOOO.&&&&&&",
"&&&&&&&&&&&&&&&&",
"&&&&&&&&&&&&&&&&",
"&&&&&&&&&&&&&&&&"
};
