/* XPM */
static char * motor_F_xpm[] = {
"16 15 11 1",
" 	c None",
".	c #FFFFFF",
"+	c #E5E5E5",
"@	c #3878E0",
"#	c #729CE2",
"$	c #4C84E1",
"%	c #ABC1E3",
"&	c #BFCDE4",
"*	c #98B5E3",
"=	c #5F90E1",
"-	c #D2D9E4",
"................",
"++++++++++++++++",
"+++@@@@@@@@@++++",
"+++#$@####$@++++",
"++++#@++%&#@++++",
"++++#@++@#*#++++",
"++++#@@@@#++++++",
"++++#@##@#++++++",
"++++#@++@#++++++",
"++++#@++++++++++",
"+++%=@%%-+++++++",
"+++@@@@@%+++++++",
"+++%%%%%-+++++++",
"++++++++++++++++",
"++++++++++++++++"};
