/* XPM */
static char* mt_ConfSmall[] = {
"25 25 7 1",
"  c None",
"! c #000000",
"# c #000080",
"$ c #C0C0C0",
"% c #808080",
"& c #0000FF",
"' c #FFFFFF",
"                         ",
"                !!       ",
"               !'%!      ",
"              !'$$%!     ",
"             !'$$$$%!    ",
"            !'$$$$$$%!   ",
"           !'$$$$$$$$%!  ",
"          !'$$$$$$$$$$%! ",
"          !'$$$$$$$$$$$%!",
"          !'$$$$$$$$$$$%!",
"          !'$$$$$$$$$$%! ",
"          !'$$$$$$$$$%!  ",
"         !''$$$$$$$$%!   ",
"        !''$$$$$$$$%!    ",
"       !''$$%%%%%%%!     ",
"      !''$$%%!!!!!!      ",
"     !''$$%%!            ",
"    !''$$%%!             ",
"  #!''$$%%!              ",
" !&#'$$%%!               ",
"!&&##$%%!                ",
"&&&&##%!                 ",
"&&&&&##                  ",
"&&&&&&#!                 ",
"&&&&&#!                  "};