/* XPM */
static char* mt_Stat[] = {
"25 25 4 1",
"  c None",
"! c #000000",
"# c #008000",
"$ c #0000FF",
"                         ",
"   ! !         $$$       ",
"     !        $   $      ",
"  !! !  !!!   $   $      ",
"   ! ! !   !   $$$  !    ",
"   ! ! !!!!   $   $      ",
"   ! ! !      $   $ !    ",
"!  ! !! !!!    $$$  !    ",
" !!                !     ",
"                         ",
"    ! !        ###     $ ",
"    !         #   #   $$ ",
" !!!! ! !   !     #  $ $ ",
"!   ! ! !   !   ##  $  $ ",
"!   ! ! !   !  #    $$$$ ",
"!   ! !  ! !  #        $ ",
" !!!! !!  !   #####    $ ",
"                         ",
"                         ",
"!!!   !!!  !!!!          ",
"!  ! !   ! !   !  !      ",
"!  ! !   ! !   !         ",
"!  ! !   ! !   !  !      ",
"!  !  !!!  !!!!   !      ",
"           !     !       "};