/* XPM */
static char* mt_StrategySmall[] = {
"25 25 3 1",
"  c None",
"! c #000000",
"# c #FF0066",
"                         ",
"           !             ",
"           !             ",
"           !             ",
"   ####    !             ",
"  ######   !             ",
"  ######   !             ",
" ### ###   !             ",
" ## ###   ! !            ",
"   ###   !   !           ",
"  ####  !     !     !    ",
"  ###  !       !     !   ",
"      !         !!!!!!!  ",
"  ###  !       !     !   ",
"  ###   !     !     !    ",
"  ###    !   !           ",
"          ! !            ",
"           !             ",
"           !             ",
"           !             ",
"         ! ! !           ",
"          !!!            ",
"           !             ",
"                         ",
"                         "};