/* XPM */
static char * pauseButton_xpm[] = {
"25 25 113 2",
"  	c None",
". 	c #B3FFAE",
"+ 	c #B4FFB0",
"@ 	c #AAFFA5",
"# 	c #96FF91",
"$ 	c #56B153",
"% 	c #30E42C",
"& 	c #28FF23",
"* 	c #1CFF18",
"= 	c #14FF10",
"- 	c #0CD309",
"; 	c #BCFFB7",
"> 	c #BEFFB9",
", 	c #B3FFAF",
"' 	c #9FFF9A",
") 	c #5AB857",
"! 	c #015800",
"~ 	c #34E431",
"{ 	c #2BFF27",
"] 	c #1FFF1B",
"^ 	c #16FF12",
"/ 	c #0DD30A",
"( 	c #B8FFB3",
"_ 	c #BBFFB6",
": 	c #B1FFAC",
"< 	c #9EFF9A",
"[ 	c #59B856",
"} 	c #36E432",
"| 	c #2DFF28",
"1 	c #20FF1C",
"2 	c #17FF13",
"3 	c #0ED30B",
"4 	c #A8FFA4",
"5 	c #ACFFA7",
"6 	c #A4FF9F",
"7 	c #93FF8F",
"8 	c #52B84F",
"9 	c #3CFF38",
"0 	c #2CFF28",
"a 	c #91FF8D",
"b 	c #95FF91",
"c 	c #8EFF89",
"d 	c #82FF7E",
"e 	c #49B846",
"f 	c #014800",
"g 	c #38FF34",
"h 	c #2AFF26",
"i 	c #17FF12",
"j 	c #77FF73",
"k 	c #7BFF76",
"l 	c #76FF72",
"m 	c #6EFF69",
"n 	c #3DB83A",
"o 	c #32FF2E",
"p 	c #26FF22",
"q 	c #1DFF19",
"r 	c #15FF11",
"s 	c #0BB808",
"t 	c #5EFF59",
"u 	c #61FF5D",
"v 	c #5FFF5B",
"w 	c #58FF54",
"x 	c #31B82F",
"y 	c #21FF1D",
"z 	c #19FF15",
"A 	c #13FF0F",
"B 	c #0AB807",
"C 	c #47FF43",
"D 	c #48FF44",
"E 	c #49FF45",
"F 	c #45FF41",
"G 	c #1A9918",
"H 	c #24FF20",
"I 	c #1DFF18",
"J 	c #11FF0D",
"K 	c #09B806",
"L 	c #34FF30",
"M 	c #36FF32",
"N 	c #37FF33",
"O 	c #139911",
"P 	c #18FF14",
"Q 	c #0FFF0B",
"R 	c #08B805",
"S 	c #28FF24",
"T 	c #27FF23",
"U 	c #0E990D",
"V 	c #10FF0C",
"W 	c #0DFF09",
"X 	c #07B804",
"Y 	c #1BFF17",
"Z 	c #1EFF19",
"` 	c #0B9909",
" .	c #0BFF07",
"..	c #06B803",
"+.	c #16FF11",
"@.	c #089906",
"#.	c #0AFE06",
"$.	c #05B603",
"%.	c #09A106",
"&.	c #017200",
"*.	c #0CFF08",
"=.	c #09FE05",
"-.	c #08FA04",
";.	c #039601",
">.	c #057D03",
",.	c #07B805",
"'.	c #069804",
").	c #049003",
"!.	c #049802",
"~.	c #049702",
"{.	c #017100",
"].	c #004700",
"^.	c #015700",
"                                                  ",
"                                                  ",
"                                                  ",
"                                                  ",
"                                                  ",
"                                                  ",
"          . + @ # $     % & * = -                 ",
"          ; > , ' ) !   ~ { ] ^ / !               ",
"          ( _ : < [ !   } | 1 2 3 !               ",
"          4 5 6 7 8 !   9 0 1 2 3 !               ",
"          a b c d e f   g h ] i / !               ",
"          j k l m n f   o p q r s !               ",
"          t u v w x f   { y z A B !               ",
"          C D E F G f   H I ^ J K !               ",
"          L M N L O f   q P A Q R !               ",
"          p S S T U f   P = V W X f               ",
"          Y q Z q ` f   A V W  ...f               ",
"          A r +.r @.    Q W  .#.$.f               ",
"        %.Q Q V V &.    *. .=.-.;.f               ",
"        >.,.R R '.&.    ).!.~.;.{.f               ",
"          ].^.^.^.^.    ].^.^.^.^.                ",
"                                                  ",
"                                                  ",
"                                                  ",
"                                                  "};
