/* XPM */
static char * resetButton_xpm[] = {
"25 25 127 2 ",
"   c None",
".  c #652900",
"X  c #672900",
"o  c #712E00",
"O  c #722E00",
"+  c #722F00",
"@  c #722F01",
"#  c #723001",
"$  c #733102",
"%  c #753101",
"&  c #743102",
"*  c #763102",
"=  c #743202",
"-  c #743203",
";  c #743303",
":  c #753403",
">  c #753505",
",  c #763504",
"<  c #753507",
"1  c #793100",
"2  c #7B3401",
"3  c #743609",
"4  c #763608",
"5  c #773A0C",
"6  c #B34900",
"7  c #B25509",
"8  c #C55200",
"9  c #C65702",
"0  c #D65A00",
"q  c #DB5C00",
"w  c #DE5D00",
"e  c #DE5E00",
"r  c #E05E00",
"t  c #E25F00",
"y  c #D76507",
"u  c #DF6001",
"i  c #E16101",
"p  c #E36000",
"a  c #E36101",
"s  c #E26404",
"d  c #E46604",
"f  c #E56604",
"g  c #E66704",
"h  c #EA6300",
"j  c #EC6400",
"k  c #E46906",
"l  c #E76B06",
"z  c #E86C06",
"x  c #E76E09",
"c  c #E96F09",
"v  c #F06701",
"b  c #E6740D",
"n  c #E7750D",
"m  c #EA7009",
"M  c #EB7009",
"N  c #E9730B",
"B  c #E9760D",
"V  c #EC750C",
"C  c #ED750C",
"Z  c #EE760C",
"A  c #ED780E",
"S  c #EE780E",
"D  c #EF790E",
"F  c #F87307",
"G  c #F0790E",
"H  c #F07A0E",
"J  c #F87B0C",
"K  c #EE7C10",
"L  c #F17D11",
"P  c #F27E11",
"I  c #F37F11",
"U  c #EF8013",
"Y  c #F38213",
"T  c #F68111",
"R  c #F78212",
"E  c #F58412",
"W  c #F28516",
"Q  c #FB8412",
"!  c #F88613",
"~  c #FA8713",
"^  c #FF8712",
"/  c #FB8715",
"(  c #F68816",
")  c #FB8815",
"_  c #F88A17",
"`  c #FA8B16",
"'  c #FE8A14",
"]  c #FC8B17",
"[  c #FB8C16",
"{  c #FF8D15",
"}  c #FF8E16",
"|  c #F58A18",
" . c #F98C18",
".. c #F88E1A",
"X. c #FF8E18",
"o. c #FF8F19",
"O. c #FB911B",
"+. c #FF9219",
"@. c #FF911A",
"#. c #FF961C",
"$. c #FA9420",
"%. c #FD9721",
"&. c #FF9B22",
"*. c #FA9A2C",
"=. c #FD9D2E",
"-. c #FFA22F",
";. c #FAA038",
":. c #FDA339",
">. c #FFA93C",
",. c #FAA744",
"<. c #FDAB46",
"1. c #FFB049",
"2. c #FAAD50",
"3. c #FDB152",
"4. c #FFB756",
"5. c #F9B35B",
"6. c #FDB85F",
"7. c #FFBE62",
"8. c #FEBD6A",
"9. c #FDBE6C",
"0. c #FFC36F",
"q. c #FDC477",
"w. c #FFC577",
"e. c #FFCF7E",
"r. c #FDCC84",
"t. c #FFD288",
"y. c #FFD391",
"                                                  ",
"                                                  ",
"                                                  ",
"                                                  ",
"                                                  ",
"                                                  ",
"          y.t.w.                    E             ",
"          r.e.8.5                 ~ ~ 2           ",
"          w.0.5.3               ~ ^ B ;           ",
"          9.7.2.3           ) ) T H m #           ",
"          6.4.,.<         ) } P D C x o           ",
"          3.1.;.<       [ } P D C m l o           ",
"          <.>.*.<   +.X.) P H C m z s o           ",
"          :.-.$.:   X.' T D C m l f u o           ",
"          =.&...;     7 b J c l f p e o           ",
"          %.#.| ;         y F f p r e o           ",
"          O.+.W ;           9 v p r e o           ",
"          ..' U #             6 r h q o           ",
"          ( / K ;                 0 j o           ",
"          Y P b #                   8 1           ",
"            ; ; .                     .           ",
"                                                  ",
"                                                  ",
"                                                  ",
"                                                  "
};
