/* XPM */
static char * robotLarge_xpm[] = {
"32 32 257 2",
"  	c None",
". 	c #003297",
"+ 	c #172F5E",
"@ 	c #3366CC",
"# 	c #2E5DB9",
"$ 	c #244890",
"% 	c #1A3468",
"& 	c #3366CB",
"* 	c #3263C6",
"= 	c #2A53A7",
"- 	c #1B366B",
"; 	c #203F7E",
"> 	c #1D3971",
", 	c #1B356A",
"' 	c #003366",
") 	c #003264",
"! 	c #003161",
"~ 	c #99CCFF",
"{ 	c #83AFDB",
"] 	c #7BA4CD",
"^ 	c #749BC2",
"/ 	c #6C90B4",
"( 	c #3399CC",
"_ 	c #3297CA",
": 	c #3297C9",
"< 	c #3194C6",
"[ 	c #3194C5",
"} 	c #3193C4",
"| 	c #3091C2",
"1 	c #3091C1",
"2 	c #2F8EBD",
"3 	c #2E8AB8",
"4 	c #2D88B6",
"5 	c #2D87B4",
"6 	c #2C85B2",
"7 	c #2B82AE",
"8 	c #27769E",
"9 	c #267298",
"0 	c #216485",
"a 	c #1D5774",
"b 	c #184860",
"c 	c #3398CB",
"d 	c #3295C6",
"e 	c #3192C3",
"f 	c #308FBE",
"g 	c #2F8CBB",
"h 	c #2C83AF",
"i 	c #2B80AA",
"j 	c #2A7DA7",
"k 	c #297AA2",
"l 	c #28779E",
"m 	c #27749B",
"n 	c #267096",
"o 	c #246B8F",
"p 	c #64C9FB",
"q 	c #62C5F6",
"r 	c #5AB5E2",
"s 	c #4081A1",
"t 	c #63C6F8",
"u 	c #62C3F4",
"v 	c #61C2F2",
"w 	c #5EBCEB",
"x 	c #5CB8E6",
"y 	c #5AB3E0",
"z 	c #57AED9",
"A 	c #55AAD4",
"B 	c #52A3CC",
"C 	c #4E9AC1",
"D 	c #CCFFFF",
"E 	c #B6E3E3",
"F 	c #FFFF00",
"G 	c #FCFC00",
"H 	c #F8F800",
"I 	c #F2F200",
"J 	c #EBEB00",
"K 	c #C99600",
"L 	c #B28500",
"M 	c #FECB33",
"N 	c #F3C231",
"O 	c #3B2D1E",
"P 	c #2F2418",
"Q 	c #CB6500",
"R 	c #CC9966",
"S 	c #CA9865",
"T 	c #C99764",
"U 	c #BD8E5E",
"V 	c #B6895B",
"W 	c #B28659",
"X 	c #AA8055",
"Y 	c #9E774F",
"Z 	c #6A5035",
"` 	c #CB9866",
" .	c #C59463",
"..	c #57422C",
"+.	c #493725",
"@.	c #74583C",
"#.	c #7B6045",
"$.	c #FFCC99",
"%.	c #FECB98",
"&.	c #FDCA98",
"*.	c #FCCA97",
"=.	c #F8C695",
"-.	c #F7C694",
";.	c #F5C493",
">.	c #F4C392",
",.	c #F2C291",
"'.	c #EEBE8F",
").	c #EBBC8D",
"!.	c #EABB8C",
"~.	c #E8BA8B",
"{.	c #E3B688",
"].	c #DFB386",
"^.	c #D9AE82",
"/.	c #D4AA7F",
"(.	c #CCA37A",
"_.	c #C39C75",
":.	c #BD9771",
"<.	c #B6926D",
"[.	c #B18E6A",
"}.	c #AA8866",
"|.	c #987A5B",
"1.	c #937658",
"2.	c #8C7054",
"3.	c #FBC997",
"4.	c #E7B98B",
"5.	c #97795B",
"6.	c #634A32",
"7.	c #9E7E5F",
"8.	c #997A5C",
"9.	c #856A50",
"0.	c #BE5900",
"a.	c #946B48",
"b.	c #17110C",
"c.	c #8C5B3C",
"d.	c #FE9866",
"e.	c #FA9664",
"f.	c #C3754E",
"g.	c #AD6845",
"h.	c #855035",
"i.	c #FB3200",
"j.	c #B42400",
"k.	c #711700",
"l.	c #FFFFFF",
"m.	c #FCFCFC",
"n.	c #F8F8F8",
"o.	c #F2F2F2",
"p.	c #E9E9E9",
"q.	c #E2E2E2",
"r.	c #DDDDDD",
"s.	c #DADADA",
"t.	c #D9D9D9",
"u.	c #D6D6D6",
"v.	c #D5D5D5",
"w.	c #D3D3D3",
"x.	c #D1D1D1",
"y.	c #CFCFCF",
"z.	c #CCCCCC",
"A.	c #CBCBCB",
"B.	c #C9C9C9",
"C.	c #C6C6C6",
"D.	c #C3C3C3",
"E.	c #C0C0C0",
"F.	c #BFBFBF",
"G.	c #BBBBBB",
"H.	c #B9B9B9",
"I.	c #B7B7B7",
"J.	c #B4B4B4",
"K.	c #B3B3B3",
"L.	c #B1B1B1",
"M.	c #AFAFAF",
"N.	c #ADADAD",
"O.	c #AAAAAA",
"P.	c #A8A8A8",
"Q.	c #A6A6A6",
"R.	c #A5A5A5",
"S.	c #A3A3A3",
"T.	c #A0A0A0",
"U.	c #9F9F9F",
"V.	c #9C9C9C",
"W.	c #9B9B9B",
"X.	c #989898",
"Y.	c #969696",
"Z.	c #959595",
"`.	c #929292",
" +	c #909090",
".+	c #8F8F8F",
"++	c #8D8D8D",
"@+	c #8A8A8A",
"#+	c #888888",
"$+	c #878787",
"%+	c #858585",
"&+	c #828282",
"*+	c #818181",
"=+	c #7F7F7F",
"-+	c #7C7C7C",
";+	c #7A7A7A",
">+	c #787878",
",+	c #777777",
"'+	c #757575",
")+	c #727272",
"!+	c #717171",
"~+	c #6E6E6E",
"{+	c #6C6C6C",
"]+	c #6A6A6A",
"^+	c #696969",
"/+	c #666666",
"(+	c #646464",
"_+	c #636363",
":+	c #606060",
"<+	c #5E5E5E",
"[+	c #5D5D5D",
"}+	c #5A5A5A",
"|+	c #595959",
"1+	c #565656",
"2+	c #555555",
"3+	c #525252",
"4+	c #515151",
"5+	c #4F4F4F",
"6+	c #4D4D4D",
"7+	c #4B4B4B",
"8+	c #484848",
"9+	c #474747",
"0+	c #444444",
"a+	c #434343",
"b+	c #414141",
"c+	c #3F3F3F",
"d+	c #3C3C3C",
"e+	c #3B3B3B",
"f+	c #393939",
"g+	c #363636",
"h+	c #343434",
"i+	c #323232",
"j+	c #303030",
"k+	c #2E2E2E",
"l+	c #2D2D2D",
"m+	c #2A2A2A",
"n+	c #292929",
"o+	c #262626",
"p+	c #252525",
"q+	c #222222",
"r+	c #212121",
"s+	c #1F1F1F",
"t+	c #1C1C1C",
"u+	c #1B1B1B",
"v+	c #181818",
"w+	c #161616",
"x+	c #151515",
"y+	c #131313",
"z+	c #111111",
"A+	c #0E0E0E",
"B+	c #0C0C0C",
"C+	c #0B0B0B",
"D+	c #090909",
"E+	c #060606",
"F+	c #040404",
"G+	c #020202",
"H+	c #000000",
"  x+                      H+H+H+H+H+H+                      x+  ",
"  k.                    H+j.0.X.0.j.j.H+                    k.  ",
"  k.                H+H+H+H+H+H+H+H+H+H+H+H+                k.  ",
"  k.          H+H+H+T.N./ ^ ] ] ] A.D.G.L.0 H+H+H+          k.  ",
"  H+    H+H+H+s s o n l j 7 6 5 5 6 7 j k 9 o 0 a H+H+H+_+  H+  ",
"  H+  H+a a s K.C B j h 5 3 2 f f 2 g 4 6 i k m o 0 a a H+  H+  ",
"  H+  H+; 0 G.B.A h 4 g f | } < < [ e 1 2 3 6 i k 9 o a H+  H+  ",
"  H+  H+$ 9 B 7 4 g f e [ d : _ _ : : < e 1 2 3 h j 9 / H+  H+  ",
"  H+  H+$ k z 3 f e < d : c c c c c c _ : d e f 3 h k / H+  H+  ",
"  H+  H+$ j r w e d : c c c ( ( ( ( c c c _ d } f 4 j ^ H+  H+  ",
"  H+  H+= 7 x v n.m.' c ( ( ( ( ( ( ( ( ( l.& * | g 7 ^ H+  H+  ",
"  H+  H+= 6 w ! r+q+q+' ( ( ( ( ( ( ( ( l.q+q+r+! 2 6 ] H+  H+  ",
"  H+  H+= 4 ! r+a+0+0+q+' ( ( ( ( ( ( ' q+0+q+r+r+! 4 ] H+  H+  ",
"  H+H+H+= 3 ! r+a+0+0+q+' @ ( ( ( ( ( ' q+0+q+q+r+! # { H+H+H+  ",
"H+H+M.H+= g ! r+a+0+0+l.' @ ( ( ( ( ( ' q+0+q+q+m.! # { H+4+H+H+",
"H+H+2+H+# 2 q ) q+q+q+' . ( ( ~ ( ( ( ( ' q+q+q+) . 2 { H+K.H+H+",
"H+H+J.H+# f q p ' ' ' . ( ( ~ ~ ( ( ( ( ( ' ' ' . [ f { H+2+H+H+",
"H+H+2+H+# 2 q p c @ @ ( ( ( ~ ~ ( ( ( ( ( ( @ & : [ 2 { H+2+H+H+",
"H+H+4+H+= g u p c c ( ( ( ~ ~ ~ ( ( ( ( ( ( c c : e g { H+4+H+H+",
"H+H+6+H+= 3 v t _ c ( ( ( ~ ~ ~ ( ( ( ( ( ( c _ d 1 3 { H+6+H+H+",
"  H+H+H+= 5 w q : c ( ( ~ ~ ~ ~ ( ( ( ( ( ( c : [ f 5 ] H+H+H+  ",
"      H+= h w u : c ( ( @ @ @ @ @ @ @ ( ( ( c : e g h ^ H+      ",
"      H+$ i x v : c ( ( ( ( ( ( ( ( ( ( ( ( c : | 3 i ^ H+      ",
"      H+$ j r v d c ( ( ( ( ( ( ( ( ( ( ( ( c d 1 4 j / H+      ",
"      H+$ k y w t : c c l.& & & & & & c c c : < 2 6 k o H+      ",
"      H+$ 8 z w v t : : & r+r+r+r+r+& : : : d e g z 8 0 H+      ",
"      H+H+9 A r w v u } * r+r+r+r+r+n.} } e | 2 r A 9 H+H+      ",
"      H+a H+l A y x w w # # # # # # # g g g x y A l H+; H+      ",
"      H+a 0 H+l j A z z z z z 7 7 7 7 7 7 z A B l H+; > H+      ",
"      H+b a 0 H+n 9 m m m m C C C m m m m m 9 n H+; > + H+      ",
"        H+H+H+H+H+H+H+H+H+H+H+H+H+H+H+H+H+H+H+H+H+H+H+H+        ",
"          H+b b b % , - - - - - - - - - - , % % + + H+          "};
