/* XPM */
static char * sensor_C_xpm[] = {
"16 15 12 1",
" 	c None",
".	c #FFFFFF",
"+	c #E5E5E5",
"@	c #E7CBB3",
"#	c #E8BD99",
"$	c #E6D8CC",
"%	c #EB8933",
"&	c #ED6E00",
"*	c #EC7C1A",
"=	c #E9A366",
"-	c #E9B080",
";	c #EA964C",
"................",
"++++++@#@+@@++++",
"++++$%&&&%%&++++",
"++++*&=##%&&++++",
"+++-&#++++*&++++",
"+++**+++++=;++++",
"+++&;+++++++++++",
"+++&;+++++++++++",
"+++**+++++++++++",
"+++=&@+++++--+++",
"+++$**-++#%&;+++",
"++++#*&&&&&=++++",
"+++++$-;;-$+++++",
"++++++++++++++++",
"++++++++++++++++"};
