/* XPM */
static char * simulationParameterLarge_xpm[] = {
/* columns rows colors chars-per-pixel */
"32 32 148 2 ",
"   c None",
".  c #33374E",
"X  c #383C56",
"o  c #3C3F58",
"O  c #3F4561",
"+  c #414662",
"@  c #444A65",
"#  c #464D69",
"$  c #494E6A",
"%  c #4C526E",
"&  c #50546F",
"*  c #4E5570",
"=  c #505774",
"-  c #545A74",
";  c #575F7A",
":  c #5A5E79",
">  c #5D627B",
",  c #5E6682",
"<  c #4F6A95",
"1  c #546D98",
"2  c #5C739D",
"3  c #626680",
"4  c #656A84",
"5  c #696D89",
"6  c #6C738B",
"7  c #72748C",
"8  c #6D7491",
"9  c #60769F",
"0  c #707693",
"q  c #757C94",
"w  c #667AA2",
"e  c #6B7DA5",
"r  c #6F80A8",
"t  c #7383AA",
"y  c #7987AE",
"u  c #7A89AF",
"i  c #7C8BB0",
"p  c #7F92B2",
"a  c #87889F",
"s  c #8C8EA4",
"d  c #8C91A4",
"f  c #8F92A9",
"g  c #9295AB",
"h  c #909AAF",
"j  c #999AAE",
"k  c #828DB3",
"l  c #8694B6",
"z  c #8893B7",
"x  c #8C94B9",
"c  c #8C9BB9",
"v  c #969BB1",
"b  c #9A9DB2",
"n  c #9197BC",
"m  c #939ABD",
"M  c #97A0B5",
"N  c #A3A3B8",
"B  c #A6ABBA",
"V  c #ABABBD",
"C  c #9A9EC1",
"Z  c #96A4C0",
"A  c #9DA3C4",
"S  c #9EAAC3",
"D  c #A2A3C6",
"F  c #A1ACC6",
"G  c #AEAFC1",
"H  c #A6A6C9",
"J  c #A8A7C9",
"K  c #A5AAC8",
"L  c #ACABCC",
"P  c #B1ADCE",
"I  c #A2B0C7",
"U  c #AAB2C5",
"Y  c #A6B2C9",
"T  c #ABB3CC",
"R  c #ADB9CE",
"E  c #B3B4C4",
"W  c #B0B4CD",
"Q  c #B3BACD",
"!  c #BBBBCD",
"~  c #B3AFD0",
"^  c #B5B2D2",
"/  c #BBB5D5",
"(  c #B4BCD1",
")  c #BCBDD4",
"_  c #C3BDDA",
"`  c #C9BFDD",
"'  c #BCC1CD",
"]  c #B5C0D3",
"[  c #BBC3D5",
"{  c #BFC4D8",
"}  c #C4C5D5",
"|  c #C3C8D4",
" . c #C1C6D9",
".. c #C2C7D8",
"X. c #C1C7DA",
"o. c #C5C7DB",
"O. c #C5C2DB",
"+. c #CAC2DE",
"@. c #C3C8DB",
"#. c #C4CAD9",
"$. c #C5C9DB",
"%. c #C7CCD8",
"&. c #C5C9DC",
"*. c #C6C9DC",
"=. c #C5CCDC",
"-. c #C9CBDB",
";. c #C8CED9",
":. c #C9CDDE",
">. c #CACCDF",
",. c #C9CFDF",
"<. c #CACFDF",
"1. c #CCCCDB",
"2. c #D1CFDF",
"3. c #CBD0DB",
"4. c #C9D1DF",
"5. c #D3D0DF",
"6. c #CCCEE0",
"7. c #CECFE1",
"8. c #D2CCE3",
"9. c #CCD1E1",
"0. c #CDD3E1",
"q. c #CED1E1",
"w. c #D1D5E3",
"e. c #D3D6E4",
"r. c #D4D3E4",
"t. c #D9D6E6",
"y. c #D3D9E5",
"u. c #D4DAE5",
"i. c #D5DBE5",
"p. c #D7D9E7",
"a. c #D5DBE6",
"s. c #D7D8E7",
"d. c #D8DAE7",
"f. c #D8DCE5",
"g. c #DADCE5",
"h. c #D9D8E7",
"j. c #DBD7E9",
"k. c #DBDFE8",
"l. c #DBDFE9",
"z. c #DCDAE9",
"x. c #E1DDEC",
"c. c #E0E4EB",
"v. c #E3E1EE",
"b. c #E7E4F0",
"n. c #E9E5F1",
"m. c #E5E8F0",
"M. c #E8E9F1",
"N. c #EEEBF4",
/* pixels */
"                          O O + O O                             ",
"                          @ T ] U @                             ",
"                          $ I 2 R @                             ",
"            +             ; c < Z =             O               ",
"          % d $         O q p 1 c 6 O       @ * v $             ",
"        @ 3.u.%.> + @ 6 M [ t 2 u [ h , + O q R F Q +           ",
"        % k.R ] u.B ;.y.] l 2 2 9 e l W W U S e t { $           ",
"        $ d ,.R ( 4.[ R Y c w w w w e e z l e r R 6 @           ",
"          $ ' [ ( ( ( F w w e e e e e r t t t S v @             ",
"          + 6 u.( ( ( c e e t i t t t t t t u ,.- O             ",
"          @ | =.( ( ( ( Z ( #.W #.[ c y u u i S U @             ",
"          6 k.[ [ [ F { .., + @ + , { S k k k k @.,             ",
"        O B 9.[ [ T l ..% @       @ % #.m l T m T E O % #       ",
"@ + - 6 g c.@.{ { F ( 8 @           @ 0 ) C &.&.&.M.f.! d > +   ",
"+ f.k.w.,.#.{ W ( [ 9.$               $ w.n ^ ,.,.,.W K ) -.@   ",
"O m.,.......T l z n e.+               + h.C o.6.,.L D L ) u.+   ",
"O B 1.l.9.e.T x x x ,.%               * e.{ 9.9.L e.-.G f q O   ",
"  % $ @ % w.K n m m ( h @           @ v r.r.r.) W -.O $ @       ",
"        @ v W m m C A e.5 @       @ 5 u.>.r.6.J O.b $           ",
"          3 6.C C A A L e.v > % > v h.^ r.e._ L h.3             ",
"          @ ! ( D D H H J O.r.h.r.O.^ _ t.t.^ O.} +             ",
"          O 4 e.H J J J L L L L P O.j.h.j.r./ _ ! O             ",
"          @ ) / L L L P P P ~ ^ ^ _ 8.z.z.8./ / 8.g $           ",
"        $ j o.P / e.o.^ ^ ^ / / / / / j.b.N.z.` _ x.>           ",
"      @ - x.^ o.2.s ) x.8.O./ / _ +.8.N.1.: 7 z.8.j.G O         ",
"        # 1.v.V $ O @ 4 N t.x._ +.n.V 6 # X + & } 5.$           ",
"          $ > $         + O x.` 8.V O           @ O             ",
"            +             @ 1.` r.a .                           ",
"                          @ E 8.z.3                             ",
"                          o j n.l.@                             ",
"                            O O + +                             ",
"                                                                "
};
