/* XPM */
static char * simulationParameterSmall_xpm[] = {
/* columns rows colors chars-per-pixel */
"24 24 248 2 ",
"   c None",
".  c #22426C",
"X  c #284D7E",
"o  c #4D5575",
"O  c #2C5285",
"+  c #2C568B",
"@  c #2D578F",
"#  c #3A5A8A",
"$  c #2F5B95",
"%  c #2F5C96",
"&  c #305A92",
"*  c #325C93",
"=  c #335E97",
"-  c #3D5E92",
";  c #3B5F94",
":  c #305E98",
">  c #345F99",
",  c #375F98",
"<  c #385F9A",
"1  c #33609B",
"2  c #376099",
"3  c #35609A",
"4  c #35619C",
"5  c #36629D",
"6  c #34619E",
"7  c #3F6599",
"8  c #3462A0",
"9  c #3463A1",
"0  c #3364A3",
"q  c #3464A2",
"w  c #3464A3",
"e  c #3465A4",
"r  c #3E68A4",
"t  c #4A5D84",
"y  c #405E8D",
"u  c #4D638C",
"i  c #456290",
"p  c #466594",
"a  c #5A6D93",
"s  c #5B729D",
"d  c #5D739D",
"f  c #5E749E",
"g  c #5E769E",
"h  c #6D7C9C",
"j  c #6F7F9E",
"k  c #747B9A",
"l  c #476CA0",
"z  c #436EA7",
"x  c #476DA4",
"c  c #496BA0",
"v  c #446DA8",
"b  c #466FA8",
"n  c #5F76A2",
"m  c #5274A8",
"M  c #5175AD",
"N  c #537BAE",
"B  c #5D7DB2",
"V  c #6377A1",
"C  c #6378A1",
"Z  c #6578A2",
"A  c #6679A3",
"S  c #687BA3",
"D  c #687AA4",
"F  c #6A7BA5",
"G  c #697CA5",
"H  c #6C7DA6",
"J  c #6D7EA7",
"K  c #657EAC",
"L  c #5C83B6",
"P  c #6683AC",
"I  c #7786A5",
"U  c #7484A6",
"Y  c #7F86A0",
"T  c #7A87A4",
"R  c #7183AA",
"E  c #7283AA",
"W  c #7383AA",
"Q  c #7584AB",
"!  c #7988AC",
"~  c #7A89AF",
"^  c #798AAE",
"/  c #7D89B0",
"(  c #7E8FB0",
")  c #7F92B2",
"_  c #7796C1",
"`  c #8389A7",
"'  c #858FA9",
"]  c #888EAB",
"[  c #8C92AD",
"{  c #808CB1",
"}  c #848FB4",
"|  c #858EB5",
" . c #8794B1",
".. c #8490B4",
"X. c #8C93B3",
"o. c #8E95B1",
"O. c #8992B7",
"+. c #8A94B5",
"@. c #8793B9",
"#. c #8B93B8",
"$. c #8C94B9",
"%. c #8E97BA",
"&. c #8A9BB8",
"*. c #8A9BBA",
"=. c #899DBB",
"-. c #9395B0",
";. c #929BB3",
":. c #9299B7",
">. c #9698B4",
",. c #939DB4",
"<. c #969FB5",
"1. c #9A9BB7",
"2. c #9A9DB7",
"3. c #969BB8",
"4. c #909DBB",
"5. c #9398BD",
"6. c #9499BE",
"7. c #919FBC",
"8. c #949CBE",
"9. c #969EBE",
"0. c #94A0BE",
"q. c #99A2BB",
"w. c #9EA1BE",
"e. c #9DA7BC",
"r. c #A2A1BB",
"t. c #A1A1BC",
"y. c #A0A7BD",
"u. c #A2A7BE",
"i. c #A2ABBF",
"p. c #989BC0",
"a. c #999CC1",
"s. c #9A9EC1",
"d. c #9B9DC2",
"f. c #9C9FC2",
"g. c #98A0C0",
"h. c #9BA3C2",
"j. c #9EA0C3",
"k. c #9CA6C3",
"l. c #9DA6C3",
"z. c #9EA3C4",
"x. c #9DA5C4",
"c. c #9FA7C4",
"v. c #9DA9C4",
"b. c #9FABC5",
"n. c #A4A4C7",
"m. c #A4A6C7",
"M. c #A7A8C3",
"N. c #A2A9C5",
"B. c #A2AAC6",
"V. c #A7AAC7",
"C. c #A3ACC7",
"Z. c #A3AFC7",
"A. c #ADACC6",
"S. c #A6A5C8",
"D. c #A7A6C9",
"F. c #A5AEC9",
"G. c #ABAACB",
"H. c #AAACCA",
"J. c #ACA9CC",
"K. c #ADABCC",
"L. c #ADABCD",
"P. c #AEAACD",
"I. c #AFABCE",
"U. c #B1ADCF",
"Y. c #B2AECF",
"T. c #ACB0C7",
"R. c #AAB2CB",
"E. c #ACB1CA",
"W. c #AAB4CB",
"Q. c #ABB2CC",
"!. c #AEB0CD",
"~. c #ABB7CC",
"^. c #ACB5CD",
"/. c #ACB6CD",
"(. c #ADB7CD",
"). c #AFB9CF",
"_. c #B0B7C8",
"`. c #B2B1CF",
"'. c #B1B6CD",
"]. c #B0B7CF",
"[. c #B9B3CD",
"{. c #BAB5CF",
"}. c #B0B8CF",
"|. c #B3AED0",
" X c #B3AFD0",
".X c #B4AFD0",
"XX c #ADB1D2",
"oX c #B7B5D3",
"OX c #B8B2D2",
"+X c #B8B2D3",
"@X c #B8B4D3",
"#X c #BAB4D4",
"$X c #BBB4D4",
"%X c #BCB5D5",
"&X c #BDB5D5",
"*X c #BEB6D6",
"=X c #B2BBD0",
"-X c #B7B9D3",
";X c #B2BCD1",
":X c #B6BFD3",
">X c #BEBBD6",
",X c #BFBAD8",
"<X c #C2BCD6",
"1X c #C4BAD9",
"2X c #C4BBD9",
"3X c #C0BCD8",
"4X c #C7BED9",
"5X c #C7BDDC",
"6X c #C8BEDC",
"7X c #C9BEDD",
"8X c #B6C2D7",
"9X c #BBC3D3",
"0X c #B9C1D5",
"qX c #BDC0D7",
"wX c #BFC1D7",
"eX c #BFC7D5",
"rX c #BFC6D6",
"tX c #BEC7D7",
"yX c #BFC3D8",
"uX c #BFC6D8",
"iX c #BEC7D8",
"pX c #C3C8D5",
"aX c #C6C9D7",
"sX c #C0C0D8",
"dX c #C3C3DA",
"fX c #C0C5D9",
"gX c #C6C0DC",
"hX c #CCC1DE",
"jX c #C7CBD8",
"kX c #C7CBD9",
"lX c #C5CBDB",
"zX c #C6CDDC",
"xX c #CCCEDE",
"cX c #CFC5E0",
"vX c #CFCCE1",
"bX c #CECFE0",
"nX c #D2D0E3",
"mX c #D1D4E3",
"MX c #D7D3E5",
"NX c #D7D3E6",
"BX c #DADBE8",
"VX c #DBDAE9",
"CX c #DED9EA",
"ZX c #DDDCEA",
"AX c #DCDDEA",
"SX c #DEDEEA",
"DX c #E0E0EB",
"FX c #E0E2EC",
/* pixels */
"                                                ",
"                    # e e e e                   ",
"                    e &.) ! e       e           ",
"          > N       e &.g U e     2 n e         ",
"        p 9Xe.e e e _ v.s  .e e e U 3.! e       ",
"      6 =.~.iXeXpXZ.7.d g C ! h ( S +.t.v       ",
"        - eXeX).(.W V A A F F H H { ..r         ",
"          l zX;Xv.W 4.=X=XW.0.W Q 8.c           ",
"          P kX:X(.}.y.h T q.k.R./ | ] 9         ",
"  e e e L 8X0X(.F.<.2       ;.c.N.h.].e e e e   ",
"  e i._.kXiXZ.k.kXy         o E.mXyXqXV.w.2.e   ",
"  e fXQ.].h.$.| aX6           y.FX-Xp.s.s.H.e   ",
"  e o.:.c.O.#.$.kX;           xXVXj.n.M.1.-.e   ",
"  q e e e z.5.6.qX' q       Y AXdXD.`.t e e e   ",
"          m s.f.j.vX,.u a [ AXDXG.L.>.>         ",
"        q K !.n.D.D.dXVXAXnXvXvX|.@X` q         ",
"      0 z T.L.L.L.L.Y.|..X+XMXMX#X*X{.X.e       ",
"      9 N.oXY.>X3X+X+X#X*X*XgXCX[.7X5Xr.6       ",
"      1 x ,XA.e i G <X2X2X4X8.< = @.XXk &       ",
"        * v M %   X e cX7X7XB .   + 7 O         ",
"            :       e AXhXAXe                   ",
"                    e AXAXAXe                   ",
"                    @ e e e $                   ",
"                                                "
};
