/* XPM */
static char * startButton_xpm[] = {
"25 25 83 1",
" 	c None",
".	c #8CC688",
"+	c #77A174",
"@	c #A7E4A3",
"#	c #BFFFBA",
"$	c #A5E4A1",
"%	c #A2E49E",
"&	c #BAFFB5",
"*	c #B3FFAE",
"=	c #A2FF9D",
"-	c #6EC66B",
";	c #94E490",
">	c #AAFFA5",
",	c #A4FFA0",
"'	c #96FF91",
")	c #81FF7D",
"!	c #6BFF66",
"~	c #43C640",
"{	c #8DFF88",
"]	c #92FF8E",
"^	c #8FFF8A",
"/	c #84FF7F",
"(	c #73FF6F",
"_	c #60FF5B",
":	c #4DFF48",
"<	c #35E431",
"[	c #1DA11A",
"}	c #78FF74",
"|	c #76FF72",
"1	c #6EFF6A",
"2	c #61FF5D",
"3	c #52FF4E",
"4	c #43FF3F",
"5	c #35FF31",
"6	c #29FF24",
"7	c #1BE418",
"8	c #0FA10C",
"9	c #5AFF56",
"0	c #5FFF5A",
"a	c #5EFF5A",
"b	c #59FF54",
"c	c #4FFF4B",
"d	c #44FF40",
"e	c #38FF34",
"f	c #2DFF29",
"g	c #23FF1F",
"h	c #1BFF17",
"i	c #15FF11",
"j	c #0EE40B",
"k	c #48FF44",
"l	c #45FF41",
"m	c #3FFF3A",
"n	c #37FF32",
"o	c #2EFF2A",
"p	c #26FF21",
"q	c #1EFF1A",
"r	c #18FF14",
"s	c #0CBD09",
"t	c #017E00",
"u	c #016200",
"v	c #33FF2E",
"w	c #36FF31",
"x	c #36FF32",
"y	c #34FF30",
"z	c #30FF2C",
"A	c #2BFF27",
"B	c #25FF21",
"C	c #1FFF1B",
"D	c #10BD0E",
"E	c #015000",
"F	c #27FF23",
"G	c #28FF24",
"H	c #24FF20",
"I	c #21FF1D",
"J	c #13BD11",
"K	c #1DFF18",
"L	c #1DFF19",
"M	c #11BD0E",
"N	c #13FF0F",
"O	c #0EBD0C",
"P	c #0EFF0A",
"Q	c #0ABD08",
"R	c #017100",
"                         ",
"                         ",
"                         ",
"                         ",
"                         ",
"                         ",
"     .+                  ",
"     @#$                 ",
"     %&*=-               ",
"     ;>,')!~             ",
"     {]^/(_:<[           ",
"     (}|12345678         ",
"     90abcdefghij        ",
"     dkklmnopqrstu       ",
"     vwxyzABCDtttE       ",
"     BFGFHIJtttE         ",
"     hKLLhMttE           ",
"     NiiOttE             ",
"     PQttu               ",
"     RttE                ",
"     EE                  ",
"                         ",
"                         ",
"                         ",
"                         "};
