/* XPM */
static char * stepButton_xpm[] = {
"25 25 120 2 ",
"   c None",
".  c #001344",
"X  c #001246",
"o  c #001347",
"O  c #001348",
"+  c #001349",
"@  c #00154A",
"#  c #00154B",
"$  c #00164C",
"%  c #001850",
"&  c #001851",
"*  c #001853",
"=  c #021C58",
"-  c #011C5F",
";  c #011C60",
":  c #011D60",
">  c #011D61",
",  c #021D60",
"<  c #021F60",
"1  c #031F60",
"2  c #032062",
"3  c #042063",
"4  c #07266D",
"5  c #092C79",
"6  c #0D368A",
"7  c #1040A4",
"8  c #1447AC",
"9  c #1A57CC",
"0  c #0D43D3",
"q  c #0C44D7",
"w  c #0D44D7",
"e  c #0D44D8",
"r  c #0E47D8",
"t  c #0C45DB",
"y  c #0D45DB",
"u  c #0C46DB",
"i  c #0D47DD",
"p  c #0D48DB",
"a  c #124DDB",
"s  c #124EDE",
"d  c #1553DE",
"f  c #2165DF",
"g  c #0D47E1",
"h  c #0D48E1",
"j  c #0D48E2",
"k  c #0F4BE2",
"l  c #1655E3",
"z  c #1351E5",
"x  c #1959E1",
"c  c #1C5FE3",
"v  c #195BE5",
"b  c #1758E9",
"n  c #1B5EEC",
"m  c #1F64E4",
"M  c #1E61E8",
"N  c #1E64EF",
"B  c #2167EB",
"V  c #236BE9",
"C  c #246DEE",
"Z  c #246DEF",
"A  c #246EEF",
"S  c #226AF1",
"D  c #256FF2",
"F  c #236BF5",
"G  c #2672F7",
"H  c #2873F0",
"J  c #2973F2",
"K  c #2874F1",
"L  c #2975F3",
"P  c #2876F5",
"I  c #2C7AF4",
"U  c #2C7AF5",
"Y  c #2D7AF5",
"T  c #2C7AF6",
"R  c #2C7BF6",
"E  c #2D7BF6",
"W  c #2773F9",
"Q  c #2773FA",
"!  c #2472FF",
"~  c #2774FC",
"^  c #2978F8",
"/  c #2A78F9",
"(  c #2D7CF8",
")  c #2D7EFA",
"_  c #2B7AFE",
"`  c #3080F8",
"'  c #3080F9",
"]  c #3081F9",
"[  c #3286FB",
"{  c #3386FB",
"}  c #3387FB",
"|  c #3183FE",
" . c #3487FD",
".. c #3389FF",
"X. c #348AFD",
"o. c #358AFF",
"O. c #398EFF",
"+. c #3A8EFF",
"@. c #3B91FF",
"#. c #3F9AFF",
"$. c #439AFF",
"%. c #4498FF",
"&. c #4499FF",
"*. c #469CFF",
"=. c #4EA2FF",
"-. c #4FA2FF",
";. c #51A6FF",
":. c #53ABFF",
">. c #58ADFF",
",. c #5BB0FF",
"<. c #5BB1FF",
"1. c #63B7FF",
"2. c #64B9FF",
"3. c #66BCFF",
"4. c #6EC1FF",
"5. c #77CFFF",
"6. c #78CBFF",
"7. c #7DD2FF",
"8. c #85D8FF",
"9. c #8CDEFF",
"                                                  ",
"                                                  ",
"                                                  ",
"                                                  ",
"                                                  ",
"                                                  ",
"            9.                    T / A           ",
"            8.7.                  H W B 2         ",
"            6.5.3.                A S c ;         ",
"            4.2.,.:.$.            B N x ;         ",
"            1.,.=.%.#.X.          M n d ;         ",
"            >.;.%.+.[ ..)         v b a ;         ",
"            =.*.+. .] T / G !     l z t ;         ",
"            %.@.[ ] T K D F 7 .   s j w ;         ",
"            +.X.] T H W m 5 . $   p g w ;         ",
"            [ | T K ~ 9 3 .       t j w ;         ",
"            ] ) K W 8 % @         t j w ;         ",
"            T _ A 6 O %           t j w ;         ",
"            P f 4 .               t j t ;         ",
"            V = O                 t i 0 -         ",
"              @                     ; ; %         ",
"                                                  ",
"                                                  ",
"                                                  ",
"                                                  "
};
