/* XPM */
static char * videoallow_xpm[] = {
"25 25 146 2",
"  	c None",
". 	c #A1A1A1",
"+ 	c #838383",
"@ 	c #8E8E8E",
"# 	c #B2B2B2",
"$ 	c #7A7A7A",
"% 	c #A8A8A8",
"& 	c #B5B5B5",
"* 	c #646464",
"= 	c #171717",
"- 	c #090909",
"; 	c #101010",
"> 	c #404040",
", 	c #9B9B9B",
"' 	c #949494",
") 	c #303030",
"! 	c #0B0B0B",
"~ 	c #0A0A0A",
"{ 	c #232323",
"] 	c #727272",
"^ 	c #C8C8C8",
"/ 	c #464646",
"( 	c #040404",
"_ 	c #000000",
": 	c #1A1A1A",
"< 	c #9E9E9E",
"[ 	c #858585",
"} 	c #131313",
"| 	c #080808",
"1 	c #5F5F5F",
"2 	c #656565",
"3 	c #3C3C3C",
"4 	c #909090",
"5 	c #242424",
"6 	c #070707",
"7 	c #888888",
"8 	c #C6C6C6",
"9 	c #353535",
"0 	c #0E0E0E",
"a 	c #333333",
"b 	c #020202",
"c 	c #505050",
"d 	c #B4B4B4",
"e 	c #202020",
"f 	c #313131",
"g 	c #C3C3C3",
"h 	c #B9B9B9",
"i 	c #1D1D1D",
"j 	c #010101",
"k 	c #BEBEBE",
"l 	c #272727",
"m 	c #787878",
"n 	c #CCCCCC",
"o 	c #060606",
"p 	c #676767",
"q 	c #BDBDBD",
"r 	c #585858",
"s 	c #030303",
"t 	c #8A8A8A",
"u 	c #D7D7D7",
"v 	c #CFCFCF",
"w 	c #616161",
"x 	c #474747",
"y 	c #D3D3D3",
"z 	c #B7B7B7",
"A 	c #BBBBBB",
"B 	c #C7C7C7",
"C 	c #535353",
"D 	c #222222",
"E 	c #141414",
"F 	c #151515",
"G 	c #3E3E3E",
"H 	c #7B7B7B",
"I 	c #DEDEDE",
"J 	c #6F6F6F",
"K 	c #B0B0B0",
"L 	c #ACACAC",
"M 	c #AAAAAA",
"N 	c #939393",
"O 	c #252525",
"P 	c #636363",
"Q 	c #A2A2A2",
"R 	c #414141",
"S 	c #0D100B",
"T 	c #848E7D",
"U 	c #919191",
"V 	c #111111",
"W 	c #030502",
"X 	c #1D3B0B",
"Y 	c #7BC94D",
"Z 	c #D2D2D2",
"` 	c #050505",
" .	c #081202",
"..	c #3F8914",
"+.	c #72EE29",
"@.	c #74F32A",
"#.	c #737373",
"$.	c #373737",
"%.	c #4D4F4D",
"&.	c #2B4819",
"*.	c #5DC91D",
"=.	c #75F12C",
"-.	c #020501",
";.	c #040802",
">.	c #747573",
",.	c #BAC2B6",
"'.	c #7FBF5A",
").	c #6EEA24",
"!.	c #81E644",
"~.	c #757575",
"{.	c #060C01",
"].	c #234C0B",
"^.	c #2F650F",
"/.	c #7C8F72",
"(.	c #CFE4C3",
"_.	c #7BF136",
":.	c #73F128",
"<.	c #98DE6F",
"[.	c #878787",
"}.	c #2C2C2C",
"|.	c #2D3B24",
"1.	c #54A723",
"2.	c #66DC21",
"3.	c #80CA54",
"4.	c #90ED59",
"5.	c #71F424",
"6.	c #75F32B",
"7.	c #C1E7AB",
"8.	c #6B6B6B",
"9.	c #0D0D0D",
"0.	c #757C71",
"a.	c #8EC46E",
"b.	c #77ED31",
"c.	c #75F02C",
"d.	c #76F32D",
"e.	c #BCBCBC",
"f.	c #262626",
"g.	c #333433",
"h.	c #A7AEA2",
"i.	c #7EF239",
"j.	c #B1B1B1",
"k.	c #515151",
"l.	c #A7A8A7",
"m.	c #C1C1C1",
"n.	c #B6B6B6",
"o.	c #B8B8B8",
"                                                  ",
"          . + + @             # + @ $ %           ",
"      & * = - - ; > ,       ' ) ! - ~ { ]         ",
"    ^ / ( _ _ _ _ _ : <   [ } _ _ _ _ _ | 1       ",
"    2 ( _ _ _ _ _ _ _ 3 4 5 _ _ _ _ _ _ _ 6 7     ",
"  8 9 _ _ _ _ _ _ _ _ 0 a ( _ _ _ _ _ _ _ b c     ",
"  d e _ _ _ _ _ _ _ _ _ b _ _ _ _ _ _ _ _ _ f g   ",
"  h { _ _ _ _ _ _ _ _ | i b _ _ _ _ _ _ _ j 9 k   ",
"    / j _ _ _ _ _ _ _ l m ! _ _ _ _ _ _ _ b c n   ",
"    [ 0 _ _ _ _ _ _ o p q r s _ _ _ _ _ _ } t u   ",
"    v w ! _ _ _ _ _ x 8 y z f _ _ _ _ j } w A     ",
"      B C ( _ _ _ _ = 5 5 D E _ _ _ F G H d I     ",
"        J o _ _ _ _ _ _ _ _ _ _ _ j w K L 1 M     ",
"      N O j _ _ _ _ _ _ _ _ _ _ _ j P Q R S T     ",
"      U 5 b _ _ _ _ _ _ _ _ _ _ _ _ V E W X Y     ",
"      Z 1 ` _ _ _ _ _ _ _ _ _ _ _ _ j b  ...+.@.  ",
"        #.o _ _ _ _ _ _ _ _ _ _ _ j $.%.&.*.=.    ",
"        $ 6 _ _ _ _ _ _ _ _ _ _ -.;.>.,.'.).!.    ",
"        ~.o _ _ _ _ _ _ _ _ _ {.].^./.(._.:.<.    ",
"        [.}.{ { | _ _ _ _ _ 0 |.1.2.3.4.5.6.7.    ",
"          K % 8.9._ _ _ _ _ F 0.a.b.c.d.5.5.      ",
"            e.f.b j j j j j b g.h.i.5.5.5.        ",
"            j.1 k.k.k.k.k.k.k.r l.  5.5.5.        ",
"              m.n.n.n.n.n.n.n.o.v                 ",
"                                                  "};
