/* XPM */
static char * eyefinal_xpm[] = {
"48 48 496 2",
"  	c None",
". 	c #FFFFFF",
"+ 	c #FDF9F9",
"@ 	c #F8E1E1",
"# 	c #F2CCCC",
"$ 	c #F8E4E4",
"% 	c #FDFAFA",
"& 	c #FDFDFD",
"* 	c #FAF1F1",
"= 	c #F6E4E4",
"- 	c #F9EDED",
"; 	c #EEBEBE",
"> 	c #E08E8E",
", 	c #FFFCFC",
"' 	c #FDFBFB",
") 	c #F6E2E2",
"! 	c #EDBFBF",
"~ 	c #F1CACA",
"{ 	c #F9ECEC",
"] 	c #FBF1F1",
"^ 	c #F9F9FD",
"/ 	c #C5CEEB",
"( 	c #9DACDE",
"_ 	c #8093D4",
": 	c #6E84CE",
"< 	c #697FCD",
"[ 	c #FCF7F7",
"} 	c #FCF6F6",
"| 	c #FBF4F4",
"1 	c #FCFCFE",
"2 	c #B2BDE5",
"3 	c #7588D0",
"4 	c #7084CF",
"5 	c #FAEEEE",
"6 	c #F2D3D3",
"7 	c #EFC5C5",
"8 	c #EEC2C2",
"9 	c #EEC0C0",
"0 	c #EDBCBC",
"a 	c #ECB6B6",
"b 	c #D9DFF2",
"c 	c #8496D5",
"d 	c #7387D0",
"e 	c #768AD0",
"f 	c #F6E0E0",
"g 	c #EAB0B0",
"h 	c #E39494",
"i 	c #E08C8C",
"j 	c #DC7979",
"k 	c #D66060",
"l 	c #D45A5A",
"m 	c #D96E6E",
"n 	c #D1D7EF",
"o 	c #7286CF",
"p 	c #778AD1",
"q 	c #7A8CD1",
"r 	c #7C8FD2",
"s 	c #E7A7A7",
"t 	c #DB7676",
"u 	c #D04949",
"v 	c #D04B4B",
"w 	c #D86969",
"x 	c #E28F8F",
"y 	c #E4E8F6",
"z 	c #7487D0",
"A 	c #778BD1",
"B 	c #7D8FD2",
"C 	c #7F91D3",
"D 	c #8293D3",
"E 	c #788BD1",
"F 	c #FFFDFD",
"G 	c #F7E1E1",
"H 	c #E9ABAB",
"I 	c #DA7171",
"J 	c #D96F6F",
"K 	c #E59C9C",
"L 	c #ECBABA",
"M 	c #F2D1D1",
"N 	c #EAD5D5",
"O 	c #94A4DB",
"P 	c #7B8DD2",
"Q 	c #8092D3",
"R 	c #8495D4",
"S 	c #8797D5",
"T 	c #535B78",
"U 	c #31333B",
"V 	c #252525",
"W 	c #8192D3",
"X 	c #F6DEDE",
"Y 	c #E6A2A2",
"Z 	c #DF8787",
"` 	c #E9AFAF",
" .	c #EFEEEE",
"..	c #D4DAF0",
"+.	c #8B9AD6",
"@.	c #363A49",
"#.	c #191919",
"$.	c #8C9BD6",
"%.	c #8898D5",
"&.	c #8394D4",
"*.	c #7E90D2",
"=.	c #F2D0D0",
"-.	c #F8E8E8",
";.	c #FEFEFE",
">.	c #EEEEEE",
",.	c #DFDFDF",
"'.	c #A0AEDF",
").	c #555C78",
"!.	c #0E0E0E",
"~.	c #0A0A0A",
"{.	c #131313",
"].	c #535A75",
"^.	c #909ED7",
"/.	c #8D9CD6",
"(.	c #8999D5",
"_.	c #8596D4",
":.	c #8091D3",
"<.	c #7A8DD1",
"[.	c #7488D0",
"}.	c #A4B0E0",
"|.	c #FBFBFB",
"1.	c #ECECEC",
"2.	c #DCDCDC",
"3.	c #7D90D3",
"4.	c #060606",
"5.	c #020202",
"6.	c #070707",
"7.	c #101010",
"8.	c #292A31",
"9.	c #909FD7",
"0.	c #8E9DD6",
"a.	c #8A9AD5",
"b.	c #8696D4",
"c.	c #7C8ED2",
"d.	c #7689D0",
"e.	c #8294D5",
"f.	c #F8F8F8",
"g.	c #E9E9E9",
"h.	c #DADADA",
"i.	c #CACACA",
"j.	c #6B81CD",
"k.	c #000000",
"l.	c #010101",
"m.	c #919FD7",
"n.	c #7285CF",
"o.	c #F5F5F5",
"p.	c #E6E6E6",
"q.	c #D6D6D6",
"r.	c #C7C7C7",
"s.	c #F0EFEF",
"t.	c #E2E2E2",
"u.	c #D3D3D3",
"v.	c #C4C4C4",
"w.	c #555C76",
"x.	c #F3D3D3",
"y.	c #F0C5C5",
"z.	c #F0CDCD",
"A.	c #E8D7D7",
"B.	c #DCD4D4",
"C.	c #CDC7C7",
"D.	c #C0BBBB",
"E.	c #B0AEAE",
"F.	c #FDFCFC",
"G.	c #373B49",
"H.	c #383B49",
"I.	c #8F9ED7",
"J.	c #F5DDDD",
"K.	c #E7A8A8",
"L.	c #E08B8B",
"M.	c #E08989",
"N.	c #DD9090",
"O.	c #D99E9E",
"P.	c #D1A2A2",
"Q.	c #C69999",
"R.	c #BB9696",
"S.	c #AD9898",
"T.	c #F8E5E5",
"U.	c #282A31",
"V.	c #FBF2F2",
"W.	c #F4D7D7",
"X.	c #E7A6A6",
"Y.	c #DF8686",
"Z.	c #D67575",
"`.	c #CE6767",
" +	c #C86B6B",
".+	c #C26666",
"++	c #B96060",
"@+	c #B07676",
"#+	c #EBB2B2",
"$+	c #E08888",
"%+	c #E7A3A3",
"&+	c #8595D4",
"*+	c #8A99D5",
"=+	c #7185CF",
"-+	c #92A1DB",
";+	c #FAEFEF",
">+	c #EAB2B2",
",+	c #E39797",
"'+	c #DC8383",
")+	c #D37474",
"!+	c #CD7070",
"~+	c #C78282",
"{+	c #BF7A7A",
"]+	c #B75F5F",
"^+	c #B16C6C",
"/+	c #DD7C7C",
"(+	c #EBB5B5",
"_+	c #F8EAEA",
":+	c #E49797",
"<+	c #E69F9F",
"[+	c #EBB4B4",
"}+	c #E6B9B9",
"|+	c #DBAEAE",
"1+	c #D0ACAC",
"2+	c #C7B2B2",
"3+	c #BAA6A6",
"4+	c #AD8A8A",
"5+	c #AC8C8C",
"6+	c #E7A2A2",
"7+	c #F7E4E4",
"8+	c #7F90D3",
"9+	c #D2D8F0",
"0+	c #F3D4D4",
"a+	c #F0C7C7",
"b+	c #F1CECE",
"c+	c #F5E8E8",
"d+	c #E8E0E0",
"e+	c #DCD6D6",
"f+	c #CFCACA",
"g+	c #C1BFBF",
"h+	c #B3B1B1",
"i+	c #AAA6A6",
"j+	c #AAA5A5",
"k+	c #F5DADA",
"l+	c #798CD1",
"m+	c #DBE0F2",
"n+	c #FDF5F5",
"o+	c #F9E8E8",
"p+	c #F3D1D1",
"q+	c #E7C3C3",
"r+	c #DFCCCC",
"s+	c #D5CFCF",
"t+	c #C9C7C7",
"u+	c #BBBBBB",
"v+	c #ADADAD",
"w+	c #AAAAAA",
"x+	c #7589D0",
"y+	c #E29E9E",
"z+	c #D57D7D",
"A+	c #D19090",
"B+	c #CBA4A4",
"C+	c #C0B2B2",
"D+	c #B4B2B2",
"E+	c #C7CFEC",
"F+	c #A1AEDF",
"G+	c #8597D6",
"H+	c #F5DEDE",
"I+	c #F6E6E6",
"J+	c #E1ACAC",
"K+	c #D07676",
"L+	c #C76464",
"M+	c #C27070",
"N+	c #BA9797",
"O+	c #ACA7A7",
"P+	c #F0C9C9",
"Q+	c #F7E7E7",
"R+	c #EFE8E8",
"S+	c #E2D1D1",
"T+	c #D3A9A9",
"U+	c #C67C7C",
"V+	c #BE6363",
"W+	c #B58989",
"X+	c #AAA4A4",
"Y+	c #FCF8F8",
"Z+	c #F3D2D2",
"`+	c #E29292",
" @	c #DC7A7A",
".@	c #DF8282",
"+@	c #E3ABAB",
"@@	c #E5D3D3",
"#@	c #DAD6D6",
"$@	c #CEC2C2",
"%@	c #C19090",
"&@	c #BA6666",
"*@	c #AE8282",
"=@	c #ECB7B7",
"-@	c #FBF3F3",
";@	c #F8E9E9",
">@	c #F0CACA",
",@	c #D77373",
"'@	c #D47A7A",
")@	c #D8B4B4",
"!@	c #D2CDCD",
"~@	c #C6BFBF",
"{@	c #BA8E8E",
"]@	c #B46161",
"^@	c #AE7F7F",
"/@	c #AAA2A2",
"(@	c #F1CDCD",
"_@	c #F2CFCF",
":@	c #EFC8C8",
"<@	c #F7E3E3",
"[@	c #EECFCF",
"}@	c #DA9292",
"|@	c #CF7373",
"1@	c #CFA3A3",
"2@	c #C8C1C1",
"3@	c #BDB6B6",
"4@	c #B38787",
"5@	c #B35858",
"6@	c #B06E6E",
"7@	c #AB9898",
"8@	c #AAA8A8",
"9@	c #EDBEBE",
"0@	c #DE8181",
"a@	c #E8A6A6",
"b@	c #F8E6E6",
"c@	c #FEFCFC",
"d@	c #DD7B7B",
"e@	c #E7B7B7",
"f@	c #DFAAAA",
"g@	c #D17F7F",
"h@	c #CA6868",
"i@	c #C79999",
"j@	c #BEB7B7",
"k@	c #B3ADAD",
"l@	c #AD8787",
"m@	c #B35656",
"n@	c #AE8989",
"o@	c #AAA3A3",
"p@	c #F7E5E5",
"q@	c #E6A3A3",
"r@	c #DD7D7D",
"s@	c #F8E7E7",
"t@	c #F1CBCB",
"u@	c #DE8383",
"v@	c #DA8080",
"w@	c #D68282",
"x@	c #CE6E6E",
"y@	c #C64C4C",
"z@	c #C25050",
"A@	c #BF8E8E",
"B@	c #B3ACAC",
"C@	c #AC8E8E",
"D@	c #B35D5D",
"E@	c #B45151",
"F@	c #FDF4F4",
"G@	c #F2CDCD",
"H@	c #DC7878",
"I@	c #D76868",
"J@	c #F5E2E2",
"K@	c #E7C2C2",
"L@	c #DEB1B1",
"M@	c #D6A6A6",
"N@	c #CC8787",
"O@	c #C25252",
"P@	c #BF4E4E",
"Q@	c #B78686",
"R@	c #AD8989",
"S@	c #B45A5A",
"T@	c #AF7777",
"U@	c #F0C2C2",
"V@	c #E8ACAC",
"W@	c #EFC4C4",
"X@	c #EBB7B7",
"Y@	c #E29191",
"Z@	c #F3D0D0",
"`@	c #E08A8A",
" #	c #F5EEEE",
".#	c #EEECEC",
"+#	c #E5E0E0",
"@#	c #DAD4D4",
"##	c #D2C9C9",
"$#	c #C7ADAD",
"%#	c #BE7777",
"&#	c #B95A5A",
"*#	c #AE8080",
"=#	c #AD8C8C",
"-#	c #B16D6D",
";#	c #B07070",
">#	c #DF8484",
",#	c #DF8585",
"'#	c #E18F8F",
")#	c #E18D8D",
"!#	c #E08F8F",
"~#	c #E2ABAB",
"{#	c #E5D4D4",
"]#	c #E2E0E0",
"^#	c #D9D9D9",
"/#	c #D0D0D0",
"(#	c #C5C3C3",
"_#	c #BDA8A8",
":#	c #B67272",
"<#	c #AF8282",
"[#	c #AA9E9E",
"}#	c #AC9191",
"|#	c #E8A7A7",
"1#	c #DD7E7E",
"2#	c #D25555",
"3#	c #D35757",
"4#	c #DE8080",
"5#	c #F7F4F4",
"6#	c #ECD8D8",
"7#	c #DDA5A5",
"8#	c #D58E8E",
"9#	c #D7B6B6",
"0#	c #D3CECE",
"a#	c #CCCCCC",
"b#	c #C3C3C3",
"c#	c #B9B4B4",
"d#	c #B48F8F",
"e#	c #B35959",
"f#	c #A9A8A8",
"g#	c #FAEBEB",
"h#	c #E6A0A0",
"i#	c #D66262",
"j#	c #F6F6F6",
"k#	c #F1F1F1",
"l#	c #EBEBEB",
"m#	c #E3DBDB",
"n#	c #D6A8A8",
"o#	c #CC7A7A",
"p#	c #CA9B9B",
"q#	c #C6BBBB",
"r#	c #BEBCBC",
"s#	c #B6B6B6",
"t#	c #ADA6A6",
"u#	c #B16F6F",
"v#	c #ECBBBB",
"w#	c #DC8181",
"x#	c #ECC6C6",
"y#	c #F2EBEB",
"z#	c #EDEDED",
"A#	c #E8E8E8",
"B#	c #DDDDDD",
"C#	c #D4CECE",
"D#	c #CCA0A0",
"E#	c #C36868",
"F#	c #BF7575",
"G#	c #BA9090",
"H#	c #B3A0A0",
"I#	c #ACA0A0",
"J#	c #B26262",
"K#	c #AE8181",
"L#	c #F2F2F2",
"M#	c #EFEAEA",
"N#	c #E6C1C1",
"O#	c #D67A7A",
"P#	c #D26E6E",
"Q#	c #DBA0A0",
"R#	c #E2CDCD",
"S#	c #E0DADA",
"T#	c #DEDCDC",
"U#	c #D4D4D4",
"V#	c #CECECE",
"W#	c #C7C2C2",
"X#	c #C19E9E",
"Y#	c #BC6A6A",
"Z#	c #B85555",
"`#	c #B45858",
" $	c #B06F6F",
".$	c #AD8080",
"+$	c #AD8888",
"@$	c #B07474",
"#$	c #AD8B8B",
"$$	c #DCCBCB",
"%$	c #D49C9C",
"&$	c #CD7373",
"*$	c #CD7D7D",
"=$	c #CE9797",
"-$	c #CEACAC",
";$	c #CDC1C1",
">$	c #C9C8C8",
",$	c #C5C5C5",
"'$	c #C0C0C0",
")$	c #BAB8B8",
"!$	c #B4A6A6",
"~$	c #B08989",
"{$	c #B26363",
"]$	c #CCB7B7",
"^$	c #C9A3A3",
"/$	c #C69090",
"($	c #C48080",
"_$	c #C28989",
":$	c #BFA8A8",
"<$	c #BBB8B8",
"[$	c #B1B1B1",
"}$	c #ABABAB",
"|$	c #AB9999",
"1$	c #AF7A7A",
"2$	c #AF7070",
"3$	c #B88686",
"4$	c #B58E8E",
"5$	c #B2A4A4",
"6$	c #ABAAAA",
"7$	c #A9A7A7",
"                                                                                                ",
"                                                                                                ",
"                                                                                                ",
"                                                                                                ",
"                                      . + @ # $ % . . . .                                       ",
"                                . . . . & * = * & . . . . & - ; >                               ",
"                          . . . . . . . . & , & . . . . . ' ) ! ~ { '                           ",
"                        . . . . . . . . . . . . . . . . . & ] ) - ' . .                         ",
"                    . . . . . . . . . . . . . . . . . . . . & , & . . . . .                     ",
"                  . . . . ^ / ( _ : < : _ ( / ^ . . . . . . . . . & + [ } } |                   ",
"                . . . 1 2 3 4 4 4 4 4 4 4 4 4 3 2 1 . . . . . . & 5 6 7 8 9 0 a                 ",
"              . . . b c d e e e e e e e e e e e d c b . . . . . ' f g h i j k l m               ",
"            . . . n o p q r r r r r r r r r r r q p o n . . . . & 5 6 9 s t u v w x             ",
"          . . . y z A B C D D D D D D D D D D D C B E z y . . . . F } G H I J K L M N           ",
"          . . . O 3 P Q R S S T U V U T S S S S R W P 3 O . . . . . ' X Y Z ` G | +  .          ",
"        . . . ..4 e r D S +.@.#.#.#.#.#.@.+.+.$.%.&.*.E o ... . . . & 5 6 =.-.% . ;.>.,.        ",
"        . . . '.4 e r D S ).#.!.!.!.!.~.{.].^./.(._.:.<.[.}.. . . . . & + + & . . |.1.2.        ",
"      . . . . 3.4 e r D S U #.!.4.4.5.6.7.8.9.0.a.b.W c.d.e.. . . . . . . . . . . f.g.h.i.      ",
"      . . . . j.4 e r D S V #.!.4.k.l.4.!.#.m.0.+.S D r e n.. . . . . . . . . . . o.p.q.r.      ",
"      . . . . j.4 e r D S U #.!.5.l.5.6.7.8.m.0.+.S D r e n.. . . . . . & + [ [ + s.t.u.v.      ",
"    . . . . . 3.4 e r D S ).#.~.6.4.6.~.{.w.9.0.a.b.W c.d.e.. . . . . & 5 x.y.y.z.A.B.C.D.E.    ",
"    F.+ + & . '.4 e r D S +.G.{.7.!.7.{.H.^.I./.(._.:.<.[.}.. . . . . ' J.K.L.M.N.O.P.Q.R.S.    ",
"    T.=.6 5 & ..4 e r D S +.$.].U.#.U.].0./.$.+.%.&.*.E o ... . . & + V.W.X.L.Y.Z.`. +.+++@+    ",
"    #+$+%+X ' . O 3 P Q &+S %.*+a.+.+.+.a.*+%.S &+B E =+-+. . . & ;+6 8 >+,+M.'+)+!+~+{+]+^+    ",
"    $+/+(+_+& . y z A B C D R _.b.S S S b._.R D C B E z y . . . ' f g :+<+[+9 }+|+1+2+3+4+5+    ",
"    6+(+7+% . . . n o p q B 8+Q W D D D W Q 8+B q p e 9+. . . . & ;+0+a+b+G c+d+e+f+g+h+i+j+    ",
"    k+_+% . . . . . b c d p l+<.c.c.r c.c.<.l+p d c m+. . . . . . & + n+o+p+q+r+s+t+u+v+w+w+    ",
"    + & . . . . . . . 1 2 x+o [.x+d.e d.x+[.o x+2 1 . . . . . & ' & . ' X y+z+A+B+C+D+w+w+w+    ",
"    . . . . . . . . . . . ^ E+F+G+3 4 3 G+F+E+^ . . . . . . & 5 H+-.} % I+J+K+L+M+N+O+w+w+w+    ",
"      . . . . . & ' & . . . . . . . . . . . . . . . . . . . + 0+%+H P+Q+R+S+T+U+V+W+X+w+w+      ",
"      . . . . % _+H+5 & . . . . . . . . . . . . . . . & ' & Y+Z+`+ @.@+@@@#@$@%@&@*@X+w+w+      ",
"      . . . F -.=@%+x.+ . . . . . . . . . . . . . . & 5 H+-.-@;@>@%+,@'@)@!@~@{@]@^@/@w+w+      ",
"        . . Y+(@Z $+_@+ . . . . . . . . . . . . . . + 0+%+H :@<@_+[@}@|@1@2@3@4@5@6@7@8@        ",
"        . . | 9@0@a@b@c@. . . . . & ' & . . . . & ' } M `+d@.@a@e@f@g@h@i@j@k@l@m@5@n@o@        ",
"          c@p@q@r@0 -@. . . & ' % 5 f ;+& . . & 5 H+-.s@t@X.u@v@w@x@y@z@A@B@i+C@D@E@*@          ",
"          F@G@H@I@0 } . . & ;+f -.M ` 0++ . . + x.%+=@p@-@J@K@L@M@N@O@P@Q@o@j+R@S@S@T@          ",
"            U@H@w 0 } . . + x.V@W@X@Y@y.} . . + Z@`@$+t@ #.#+#@###$#%#&#*#o@j+=#-#;#            ",
"              <+>#8 } . . [ 7 ,#'#)#0@8 } . . F -.[+!#~#{#]#^#/#(#_#:#5@<#X+8@[#}#              ",
"                |#x.+ . . Y+G@1#2#3#4#(@Y+. . . 5#6#7#8#9#0#a#b#c#d#e#e#R@j+w+f#                ",
"                  g#& . . c@p@h#3#i#H s@c@|.j#k#l#m#n#o#p#q#r#s#t#*@5@u#7@8@w+                  ",
"                    . . . . | v#I w#x#y#k#z#A#t.B#C#D#E#F#G#H#/@I#*@J#K#/@w+                    ",
"                        L#L#M#N#O#P#Q#R#S#T#^#U#V#W#X#Y#Z#`# $.$+$*@@$#$                        ",
"                          t.]#$$%$&$*$=$-$;$>$,$'$)$!$~$u#5@S@{$@$n@K#                          ",
"                                ]$^$/$($_$:$<$s#[$}$8@X+|$+$K#1$2$                              ",
"                                      3$4$5$6$w+w+w+w+w+7$                                      ",
"                                                                                                ",
"                                                                                                ",
"                                                                                                "};
