/* XPM */
static char *magick[] = {
/* columns rows colors chars-per-pixel */
"16 16 20 1",
"  c #000000",
". c #02464d",
"X c #034d54",
"o c #035961",
"O c #05656d",
"+ c #056d76",
"@ c #056f79",
"# c #05707a",
"$ c #2c8a93",
"% c #45989f",
"& c #808080",
"* c #a0a0a0",
"= c #7e7e7e",
"- c #c3c3c3",
"; c #cfcfcf",
": c #dbdbdb",
"> c #dbebed",
", c #ebeaeb",
"< c #ffffff",
"1 c None",
/* pixels */
"111         11& ",
"111 <<<:::: 11& ",
"111 <o%$@.- 11& ",
"111 <$>%$O- 11& ",
"111 <o%$#X= 11& ",
"111 :------ 11& ",
"           111& ",
" <<<::;: :- &&< ",
" <o%$+.- **   & ",
" <$>%$#-    11& ",
" <o%$+.= 11111& ",
" :------ 11111& ",
"1       111111& ",
" <,,,::- &&&&&< ",
" ,******       1",
"         1111111"
};
