/* XPM */
static char * addIndividualsLarge_xpm[] = {
"40 40 113 2",
"  	c None",
". 	c #4AE822",
"+ 	c #2C8B14",
"@ 	c #2D8D14",
"# 	c #37AE19",
"$ 	c #3BBB1B",
"% 	c #42D01E",
"& 	c #319C16",
"* 	c #2E9115",
"= 	c #298213",
"- 	c #44D61F",
"; 	c #47DE20",
"> 	c #309616",
", 	c #000000",
"' 	c #0F0B01",
") 	c #85670E",
"! 	c #987610",
"~ 	c #392C06",
"{ 	c #131313",
"] 	c #0F0F0F",
"^ 	c #2C2819",
"/ 	c #C39817",
"( 	c #E5B218",
"_ 	c #F4BE1A",
": 	c #6A530B",
"< 	c #151102",
"[ 	c #030200",
"} 	c #050505",
"| 	c #A7A7A7",
"1 	c #ACACAC",
"2 	c #8B8B8B",
"3 	c #CBCBC9",
"4 	c #36301E",
"5 	c #735A0C",
"6 	c #E0AF17",
"7 	c #C09514",
"8 	c #1A1402",
"9 	c #060606",
"0 	c #BFBFBF",
"a 	c #C5C5C5",
"b 	c #9F9F9F",
"c 	c #E5E5E5",
"d 	c #1F1F1F",
"e 	c #614C0A",
"f 	c #DBAB17",
"g 	c #1E1703",
"h 	c #060400",
"i 	c #0C0A06",
"j 	c #BBBBBA",
"k 	c #C2C1C0",
"l 	c #9D9D9B",
"m 	c #E0E0DF",
"n 	c #24231F",
"o 	c #654E0A",
"p 	c #F2BC19",
"q 	c #EDB919",
"r 	c #F1BC19",
"s 	c #DCAB17",
"t 	c #231B03",
"u 	c #72590C",
"v 	c #B78E13",
"w 	c #B48C14",
"x 	c #5D5334",
"y 	c #5A5135",
"z 	c #6C5D2F",
"A 	c #4B473B",
"B 	c #A88419",
"C 	c #CFA116",
"D 	c #CA9D15",
"E 	c #3D2F06",
"F 	c #AF8812",
"G 	c #BE9414",
"H 	c #6D550B",
"I 	c #EFBA19",
"J 	c #664F0A",
"K 	c #614B0A",
"L 	c #7D610D",
"M 	c #493907",
"N 	c #DEAC17",
"O 	c #BD9314",
"P 	c #9E7B10",
"Q 	c #362A05",
"R 	c #AD8612",
"S 	c #92720F",
"T 	c #5B4709",
"U 	c #E4B218",
"V 	c #6E560B",
"W 	c #574409",
"X 	c #C59915",
"Y 	c #1B1502",
"Z 	c #090701",
"` 	c #1D1703",
" .	c #0C0901",
"..	c #554209",
"+.	c #D6A616",
"@.	c #ECB819",
"#.	c #3A2D06",
"$.	c #A88311",
"%.	c #94730F",
"&.	c #050400",
"*.	c #B28A13",
"=.	c #2D2304",
"-.	c #292004",
";.	c #2A2104",
">.	c #9A7810",
",.	c #DDAC17",
"'.	c #DFAD17",
").	c #151002",
"!.	c #70570B",
"~.	c #BA9113",
"{.	c #E1AF18",
"].	c #0E0B01",
"^.	c #80630D",
"                                              . . . . +                         ",
"                                              . . . . +                         ",
"                                              . . . . +                         ",
"                                              . . . . +                         ",
"                                              . . . . @                         ",
"                                  # # # # # $ . . . . % # # # # # &             ",
"                                * . . . . . . . . . . . . . . . . %             ",
"                                * . . . . . . . . . . . . . . . . %             ",
"                                * . . . . . . . . . . . . . . . . %             ",
"                                = % % % % % - . . . . ; % % % % % $             ",
"                                              . . . . >                         ",
"                                              . . . . +                         ",
"                                              . . . . +                         ",
"                                              . . . . +                         ",
"                                              . . . . +                         ",
"                , , , , , , , , , ,           . . . . +                         ",
"                , ' ) ! ! ! ! ! ~ , ,                                           ",
"          { {   ] ^ / ( _ _ _ _ : < [ ,                                         ",
"        } | 1 , 2 3 4 5 _ _ _ _ 6 7 8 ,                                         ",
"      , 9 0 a , b c d e _ _ _ _ _ f g ,                                         ",
"[ h h h i j k h l m n o _ _ p q r s t [ ,                                       ",
"u v v v w x y v z A B C _ _ D E F q G H ,                                       ",
"! _ _ _ I J K _ L M s N O O P Q R _ _ S ,                                       ",
"! _ _ _ _ _ _ _ _ _ _ S , , Q _ _ _ _ S ,                                       ",
"~ T T ! _ _ _ _ _ U V Q [ u R _ _ _ _ S ,                                       ",
", , , W f f f f f X Y Z ` O _ _ _ _ _ S ,                                       ",
"    ,  .g g g g g Y [ ..+.@._ _ _ _ _ S ,                                       ",
"    , , , , , , , , , #.S S $._ _ _ _ S ,                                       ",
"                        , , Q _ _ _ _ %.&.                                      ",
"                          , Q _ _ _ _ f *.=.,                                   ",
"                          -.K _ _ _ _ _ I J ;.                                  ",
"                        h v _ _ _ _ _ _ _ _ O ,                                 ",
"                    , E >.,._ _ _ _ _ _ _ _ '.!                                 ",
"                    ).!._ _ _ _ _ _ _ _ _ _ _ _                                 ",
"                , ).~.{._ _ _ _ _ _ _ _ _ _ _ _                                 ",
"                  ].^.S S S S S S S S S S S S S                                 ",
"                                                                                ",
"                                                                                ",
"                                                                                ",
"                                                                                "};
