/* XPM */
static char * balloonSmall_xpm[] = {
"25 25 95 2",
"  	c None",
". 	c #080808",
"+ 	c #111010",
"@ 	c #272626",
"# 	c #1F1F1F",
"$ 	c #2C2B2B",
"% 	c #403F3F",
"& 	c #595757",
"* 	c #474545",
"= 	c #464444",
"- 	c #232222",
"; 	c #020101",
"> 	c #0C0C0C",
", 	c #3F3D3D",
"' 	c #898686",
") 	c #D4CFCF",
"! 	c #E0DBDB",
"~ 	c #DFDADA",
"{ 	c #B7B3B3",
"] 	c #2A2929",
"^ 	c #070606",
"/ 	c #6B6969",
"( 	c #CAC6C6",
"_ 	c #E0DADA",
": 	c #CAC5C5",
"< 	c #353434",
"[ 	c #0A0A0A",
"} 	c #AEAAAA",
"| 	c #DFDBDB",
"1 	c #D3CECE",
"2 	c #181818",
"3 	c #817E7E",
"4 	c #797777",
"5 	c #020202",
"6 	c #CCC7C7",
"7 	c #C8C3C3",
"8 	c #888585",
"9 	c #777575",
"0 	c #6D6B6B",
"a 	c #5F5D5D",
"b 	c #4E4D4D",
"c 	c #575555",
"d 	c #4D4B4B",
"e 	c #B1ADAD",
"f 	c #C7C2C2",
"g 	c #040404",
"h 	c #C6C2C2",
"i 	c #A4A0A0",
"j 	c #B0ACAC",
"k 	c #B5B1B1",
"l 	c #CBC6C6",
"m 	c #CDC9C9",
"n 	c #282727",
"o 	c #D8D3D3",
"p 	c #DCD7D7",
"q 	c #B2AEAE",
"r 	c #9C9898",
"s 	c #A3A0A0",
"t 	c #B7B2B2",
"u 	c #ACA8A8",
"v 	c #161515",
"w 	c #C9C5C5",
"x 	c #B3AFAF",
"y 	c #9D9999",
"z 	c #827F7F",
"A 	c #CCC8C8",
"B 	c #605D5D",
"C 	c #4E4C4C",
"D 	c #9E9B9B",
"E 	c #000000",
"F 	c #7E7B7B",
"G 	c #A19D9D",
"H 	c #0A0909",
"I 	c #010101",
"J 	c #6A6767",
"K 	c #DBD6D6",
"L 	c #090909",
"M 	c #1B1B1B",
"N 	c #747272",
"O 	c #BBB7B7",
"P 	c #696767",
"Q 	c #181717",
"R 	c #060606",
"S 	c #2F2E2E",
"T 	c #D6D1D1",
"U 	c #686565",
"V 	c #212020",
"W 	c #C2BDBD",
"X 	c #D6D2D2",
"Y 	c #282828",
"Z 	c #A09D9D",
"` 	c #868383",
" .	c #A8A4A4",
"..	c #726F6F",
"+.	c #050505",
"                                                  ",
"                . + @ # $ % & * = $ - ;           ",
"          > , ' ) ! ! ! ! ! ~ ! ! ! ! { ]         ",
"      ^ / ( ! _ ! ! ! ! ! ! ~ ! ! ! _ _ : <       ",
"    [ } ! | ! ~ ! | ! | ! | ~ | ! | ~ ~ ! 1 2     ",
"    3 ~ ! | ! ~ ! ~ ! | ! | ~ ! | ! _ ~ | _ 4     ",
"  5 6 | ! 7 8 8 9 0 0 0 a & & b c & d e ! ! f g   ",
"  + ! | ! h i j k l l l m ! ~ ! ! ! ! ! ! ! ! n   ",
"  + ~ ~ ~ ~ ~ ~ ~ ~ ~ ~ ~ ~ ~ ~ ~ ~ ~ ~ ~ ~ ~ ]   ",
"  . o ~ ~ ~ ~ ~ ~ ~ ~ ~ ~ ~ ~ ~ ~ ~ ~ ~ ~ ~ p [   ",
"    8 ~ ~ ~ q r s t t t t t u r 6 ~ ~ ~ ~ ~ e     ",
"    v w ~ ~ x y ' z z z z z z r A ~ ~ ~ ~ ~ B     ",
"      C ~ ~ ~ ~ ~ ~ ~ ~ | ~ ~ ~ ~ ~ ~ ~ ~ D 5     ",
"      E F ~ ~ ~ ~ ~ ~ ~ ~ ~ ~ ~ ~ ~ ~ ~ G H       ",
"        I J K ~ ~ ~ ~ ~ ~ ~ ~ ~ ~ ~ o F L         ",
"            M N w ~ _ ~ ~ ~ ~ ~ O P Q             ",
"                R S T | | | U V E                 ",
"                    W ~ ~ } I                     ",
"                    { ~ X Y                       ",
"                    Z ~ U                         ",
"                    `  .I                         ",
"                    ..2                           ",
"                    +.                            ",
"                                                  ",
"                                                  "};
