/* XPM */
static char * deleteExperimentSmall_xpm[] = {
"25 25 198 2",
"  	c None",
". 	c #8F8F8F",
"+ 	c #8E8E8E",
"@ 	c #969696",
"# 	c #A5A5A5",
"$ 	c #919191",
"% 	c #A0A0A0",
"& 	c #C0C0C0",
"* 	c #959595",
"= 	c #303030",
"- 	c #636363",
"; 	c #676767",
"> 	c #222222",
", 	c #1E1E1E",
"' 	c #1C1C1C",
") 	c #9D9D9D",
"! 	c #FDFDFD",
"~ 	c #FBFBFB",
"{ 	c #BFBFBF",
"] 	c #868686",
"^ 	c #2A2A2A",
"/ 	c #989898",
"( 	c #4D4D4D",
"_ 	c #DEDEDE",
": 	c #CCCCCC",
"< 	c #C7C7C7",
"[ 	c #C1C1C1",
"} 	c #7D7D7D",
"| 	c #F7F7F7",
"1 	c #BDBDBD",
"2 	c #9E9E9E",
"3 	c #D2D2D2",
"4 	c #6D6D6D",
"5 	c #040404",
"6 	c #565656",
"7 	c #C9C9C9",
"8 	c #464646",
"9 	c #F9F9F9",
"0 	c #E7E7E7",
"a 	c #E1E1E1",
"b 	c #F6F6F6",
"c 	c #7B7B7B",
"d 	c #797979",
"e 	c #858585",
"f 	c #2E2E2E",
"g 	c #0F0F0F",
"h 	c #4C4C4C",
"i 	c #979797",
"j 	c #4A4A4A",
"k 	c #E8E8E8",
"l 	c #939393",
"m 	c #A2A2A2",
"n 	c #F3F3F3",
"o 	c #ACACAC",
"p 	c #8D8D8D",
"q 	c #D7D7D7",
"r 	c #CACACA",
"s 	c #616161",
"t 	c #535353",
"u 	c #484848",
"v 	c #A9A9A9",
"w 	c #444444",
"x 	c #161616",
"y 	c #696969",
"z 	c #E3E3E3",
"A 	c #B9B9B9",
"B 	c #7E7E7E",
"C 	c #666666",
"D 	c #545454",
"E 	c #575757",
"F 	c #202020",
"G 	c #EEEEEE",
"H 	c #9C9C9C",
"I 	c #626262",
"J 	c #2C2C2C",
"K 	c #2B2B2B",
"L 	c #282828",
"M 	c #393939",
"N 	c #808080",
"O 	c #6B6B6B",
"P 	c #343434",
"Q 	c #656565",
"R 	c #7A7A7A",
"S 	c #C8C8C8",
"T 	c #E9E9E9",
"U 	c #E6E6E6",
"V 	c #BABABA",
"W 	c #A6A6A6",
"X 	c #3D3D3D",
"Y 	c #262626",
"Z 	c #1A1A1A",
"` 	c #5B5B5B",
" .	c #323232",
"..	c #D0D0D0",
"+.	c #E2E2E2",
"@.	c #B8B8B8",
"#.	c #9B9B9B",
"$.	c #8A8A8A",
"%.	c #363636",
"&.	c #6F6F6F",
"*.	c #878787",
"=.	c #727272",
"-.	c #898989",
";.	c #6C6C6C",
">.	c #5C5C5C",
",.	c #5D5D5D",
"'.	c #3E3E3E",
").	c #D3D3D3",
"!.	c #B1B1B1",
"~.	c #CFCFCF",
"{.	c #383838",
"].	c #3C3C3C",
"^.	c #999999",
"/.	c #B3B3B3",
"(.	c #B2B2B2",
"_.	c #B5B5B5",
":.	c #DDDDDD",
"<.	c #EBEBEB",
"[.	c #C4C4C4",
"}.	c #404040",
"|.	c #BCBCBC",
"1.	c #CBCBCB",
"2.	c #E4E4E4",
"3.	c #DCDCDC",
"4.	c #C5C5C5",
"5.	c #252525",
"6.	c #E5E5E5",
"7.	c #E0E0E0",
"8.	c #F8F8F8",
"9.	c #4B4B4B",
"0.	c #AAAAAA",
"a.	c #DBDBDB",
"b.	c #DFDFDF",
"c.	c #B7B7B7",
"d.	c #242424",
"e.	c #C3C3C3",
"f.	c #F4F4F4",
"g.	c #F5F5F5",
"h.	c #929292",
"i.	c #787878",
"j.	c #373737",
"k.	c #B6B6B6",
"l.	c #B4B4B4",
"m.	c #CECECE",
"n.	c #ADADAD",
"o.	c #686868",
"p.	c #838383",
"q.	c #A8A8A8",
"r.	c #D9D9D9",
"s.	c #BEBEBE",
"t.	c #A4A4A4",
"u.	c #DADADA",
"v.	c #111111",
"w.	c #737373",
"x.	c #3F3F3F",
"y.	c #8B8B8B",
"z.	c #ABABAB",
"A.	c #2D2D2D",
"B.	c #D6D6D6",
"C.	c #5F5F5F",
"D.	c #434343",
"E.	c #BBBBBB",
"F.	c #D8D8D8",
"G.	c #9A9A9A",
"H.	c #CDCDCD",
"I.	c #5E5E5E",
"J.	c #2F2F2F",
"K.	c #606060",
"L.	c #474747",
"M.	c #C6C6C6",
"N.	c #8C8C8C",
"O.	c #A1A1A1",
"P.	c #414141",
"Q.	c #9F9F9F",
"R.	c #A7A7A7",
"S.	c #3B3B3B",
"T.	c #5A5A5A",
"U.	c #424242",
"V.	c #333333",
"W.	c #828282",
"X.	c #949494",
"Y.	c #505050",
"Z.	c #AFAFAF",
"`.	c #494949",
" +	c #646464",
".+	c #C2C2C2",
"++	c #848484",
"@+	c #353535",
"#+	c #454545",
"$+	c #525252",
"%+	c #888888",
"&+	c #909090",
"*+	c #7F7F7F",
"=+	c #7C7C7C",
"-+	c #747474",
";+	c #272727",
">+	c #212121",
",+	c #181818",
"          .             +                         ",
"        @ # $         % & *                       ",
"      = - ; = > , ' ) ! ~ { ]                     ",
"  ^ / ( _ : < [ } % | 1 2 3 @ 4                   ",
"5 6 7 8 9 0 a / # b & c ) d e f                   ",
"g h i j k _ l m n o p q r s t u                   ",
"= v w x y l o z v d A B C D d E                   ",
"F 1 G H I ^ J K ^ L M 6 B N O P                   ",
"Q R S T U 7 r 1 V o W B C X Y Z `                 ",
"   .c @ ..+.z @.o #.$.` %.&.*.D =.C               ",
"  8 m v -.;.4 >.,.( j '.+ ).!.~.S {.              ",
"  ].+ ^./.& (.A o _.] ; _ A :.n <.[.}.            ",
"  X l |.1.2.+.3.4.H 5.: 6.m 7.8.! 7.6             ",
"  9.0.a.b.~.(.c.% p d.+.a e.f.~ ! g.h.i.          ",
"  j.] m /.{ k.k.# !.^ b.l...b | ~ ; ` L           ",
"  ].l k.[ :.3._ S m L m.n.r G ~ b.j o.%.p.        ",
"  j q.:.7.r.s.|.t.-.d.l./ { u.k q h.v.w.X m.      ",
"  x.y.z._.& !.W m /.A.v y.o B.y.>.C.j -.D.W ).    ",
"  {.. _.E.F._ b.< W > -.=.G.H.I.J.i.i K.I.. k.7   ",
"  L.t.u.b.2.M.e.q.-.F &.O N.7 - Y x.` ^ c + O.k.7 ",
"  P.Q.q.[ |.0.R.m v N S.T.; < 4 U.V.F X N.y.l n._.",
"  P W.z.q.B.a F.[.z.X.' u Y.Z.[ - u  .`.N.*.#.n.  ",
"  s  +.+k T 1.3 W h.++@+#+$+N V Q.C.d.%+&+#.M.    ",
"      E s *+% z.m m m d K h j c =+#+I p X.        ",
"          -+;+5.d.^ S.P >+,+v.x ,+` h.s.          "};
