/* XPM */
static char * deleteIndividualsSmall_xpm[] = {
"25 25 5 1",
" 	c None",
".	c #ED071A",
"+	c #000000",
"@	c #F4BE1A",
"#	c #FFFFFF",
"                         ",
"                         ",
"                         ",
"                         ",
"            ..........   ",
"            ..........   ",
"            ..........   ",
"                         ",
"                         ",
"                         ",
"      ++++++             ",
"    + +@@@@++            ",
"   +#+#+@@@@+            ",
" +++#+#+@@@@++           ",
"+@@@+@+@@@+@@+           ",
"+@@@@@@@++@@@+           ",
"+++@@@@++@@@@+           ",
"  ++++++@@@@@+           ",
"        ++@@@+           ",
"         +@@@@+          ",
"        +@@@@@@+         ",
"       +@@@@@@@@         ",
"      +@@@@@@@@@         ",
"                         ",
"                         "};
