/* XPM */
static char * dnaLarge_xpm[] = {
"19 48 426 2",
"  	c None",
". 	c #EAE0D2",
"+ 	c #D7CDC1",
"@ 	c #D6CBBD",
"# 	c #B5A491",
"$ 	c #978B7C",
"% 	c #89837D",
"& 	c #F5D8B7",
"* 	c #D7BD9E",
"= 	c #9A8772",
"- 	c #595046",
"; 	c #D2C6B8",
"> 	c #A6927A",
", 	c #877662",
"' 	c #50463A",
") 	c #F1EED0",
"! 	c #EFD2B0",
"~ 	c #C1AA8F",
"{ 	c #6E6051",
"] 	c #827C77",
"^ 	c #AA967E",
"/ 	c #95836D",
"( 	c #685C4D",
"_ 	c #7E8A73",
": 	c #C9F9C8",
"< 	c #B6F6B5",
"[ 	c #9DED9C",
"} 	c #85DB84",
"| 	c #82D97F",
"1 	c #82D681",
"2 	c #94D187",
"3 	c #F4DBB4",
"4 	c #D8BD9E",
"5 	c #8B7965",
"6 	c #4F483E",
"7 	c #BAAB99",
"8 	c #A58E77",
"9 	c #887764",
"0 	c #566C46",
"a 	c #9CC59B",
"b 	c #FCE3C5",
"c 	c #E2C7A7",
"d 	c #998671",
"e 	c #4A4037",
"f 	c #B7B4B2",
"g 	c #A7917A",
"h 	c #A28D76",
"i 	c #796A58",
"j 	c #96928B",
"k 	c #E79190",
"l 	c #DD726D",
"m 	c #FBCAAD",
"n 	c #E8CEAB",
"o 	c #9D8974",
"p 	c #4B4137",
"q 	c #A19D99",
"r 	c #C5BCAF",
"s 	c #A7937B",
"t 	c #A18D76",
"u 	c #97564B",
"v 	c #BA5C59",
"w 	c #C88684",
"x 	c #D7B8B6",
"y 	c #F0D6BB",
"z 	c #E9CFAE",
"A 	c #9C8772",
"B 	c #483F34",
"C 	c #938F88",
"D 	c #B2A493",
"E 	c #B19C81",
"F 	c #A18D77",
"G 	c #7B7467",
"H 	c #FEEECF",
"I 	c #E8D0AD",
"J 	c #928069",
"K 	c #443C32",
"L 	c #9A9693",
"M 	c #AF9C88",
"N 	c #BBA589",
"O 	c #B09587",
"P 	c #E4D4B7",
"Q 	c #E1CCAB",
"R 	c #857561",
"S 	c #41382F",
"T 	c #9A9793",
"U 	c #BDA990",
"V 	c #F4E5C5",
"W 	c #DAC8AD",
"X 	c #7B6B5A",
"Y 	c #413930",
"Z 	c #9C9795",
"` 	c #F8F3D5",
" .	c #D4C3A9",
"..	c #736654",
"+.	c #3E352C",
"@.	c #6A655D",
"#.	c #FCF2D4",
"$.	c #D0BDA1",
"%.	c #6F6352",
"&.	c #6C6150",
"*.	c #5C5143",
"=.	c #908D87",
"-.	c #FBF1D7",
";.	c #D3BC9E",
">.	c #726655",
",.	c #3C342B",
"'.	c #4C4F42",
").	c #505D3F",
"!.	c #848062",
"~.	c #837562",
"{.	c #97908B",
"].	c #FCF3E1",
"^.	c #D8C2A1",
"/.	c #7D6D5C",
"(.	c #615B56",
"_.	c #89876B",
":.	c #605947",
"<.	c #A19077",
"[.	c #A59F96",
"}.	c #DFCAA9",
"|.	c #8A7965",
"1.	c #433A30",
"2.	c #3A312A",
"3.	c #5A3F3D",
"4.	c #7A6260",
"5.	c #94807E",
"6.	c #A08981",
"7.	c #987866",
"8.	c #604F42",
"9.	c #9A8770",
"0.	c #A69E97",
"a.	c #EED8BC",
"b.	c #A18D75",
"c.	c #54493D",
"d.	c #393129",
"e.	c #A6A29F",
"f.	c #9B8887",
"g.	c #5B483E",
"h.	c #443B31",
"i.	c #979591",
"j.	c #BEA88C",
"k.	c #6F6151",
"l.	c #3D352C",
"m.	c #3F3533",
"n.	c #A198A2",
"o.	c #B5ADB5",
"p.	c #BEB5BC",
"q.	c #C6BFC6",
"r.	c #CEC9CD",
"s.	c #D5CFD3",
"t.	c #857A7A",
"u.	c #39302A",
"v.	c #3A3229",
"w.	c #3D352D",
"x.	c #DECCB6",
"y.	c #92806B",
"z.	c #53483C",
"A.	c #7F7A79",
"B.	c #A29AA5",
"C.	c #9B919C",
"D.	c #968C98",
"E.	c #928794",
"F.	c #8B7D8B",
"G.	c #837583",
"H.	c #7C6D7B",
"I.	c #4A4242",
"J.	c #605548",
"K.	c #897965",
"L.	c #746A5E",
"M.	c #BCA78F",
"N.	c #786958",
"O.	c #433B31",
"P.	c #3E362E",
"Q.	c #CCCCCC",
"R.	c #C2BDB8",
"S.	c #F3E4BF",
"T.	c #E3CAA8",
"U.	c #9A8771",
"V.	c #A7A39E",
"W.	c #A5907B",
"X.	c #6C5F4F",
"Y.	c #41392E",
"Z.	c #3A342D",
"`.	c #52556B",
" +	c #54566A",
".+	c #54576E",
"++	c #626489",
"@+	c #6F71A3",
"#+	c #7D7FBF",
"$+	c #7D81C2",
"%+	c #7A7DC0",
"&+	c #7F81C1",
"*+	c #F6ECCB",
"=+	c #F2D7B4",
"-+	c #B7A086",
";+	c #776E64",
">+	c #9B8974",
",+	c #695C4E",
"'+	c #423A30",
")+	c #453D36",
"!+	c #FDF2CD",
"~+	c #F6DBB8",
"{+	c #C4AC90",
"]+	c #6B5F50",
"^+	c #A19182",
"/+	c #706151",
"(+	c #494136",
"_+	c #39332A",
":+	c #679266",
"<+	c #8AD989",
"[+	c #8DDD8A",
"}+	c #8BDB89",
"|+	c #8BDA89",
"1+	c #8ADA89",
"2+	c #90DB8B",
"3+	c #F7EEC4",
"4+	c #F6DCB8",
"5+	c #C3AC90",
"6+	c #675C4E",
"7+	c #C1B8AF",
"8+	c #786957",
"9+	c #594F42",
"0+	c #979792",
"a+	c #FCECC6",
"b+	c #F2D7B3",
"c+	c #B9A287",
"d+	c #655B4E",
"e+	c #887A69",
"f+	c #4D4439",
"g+	c #7A4D47",
"h+	c #EA908F",
"i+	c #ED9090",
"j+	c #EB8F8F",
"k+	c #EC9393",
"l+	c #ED9797",
"m+	c #E99694",
"n+	c #ED9B9D",
"o+	c #F6CEB9",
"p+	c #FEEAC4",
"q+	c #E7CBAA",
"r+	c #9C8871",
"s+	c #7F7973",
"t+	c #CBC5BE",
"u+	c #7A6C5A",
"v+	c #4F4035",
"w+	c #907774",
"x+	c #DAB3B2",
"y+	c #F7DEBB",
"z+	c #F9E2BD",
"A+	c #CCB497",
"B+	c #6C5F51",
"C+	c #AAA295",
"D+	c #7F6E5C",
"E+	c #736554",
"F+	c #79596D",
"G+	c #E9C0E8",
"H+	c #F4CFF4",
"I+	c #FCEFDC",
"J+	c #FEEBC5",
"K+	c #EACEAC",
"L+	c #94816C",
"M+	c #77716A",
"N+	c #A49A90",
"O+	c #887664",
"P+	c #8C6E6B",
"Q+	c #765267",
"R+	c #BF99BC",
"S+	c #D3A9D4",
"T+	c #D19FD2",
"U+	c #DDA7CD",
"V+	c #FDEBC9",
"W+	c #F5DDB9",
"X+	c #B39E84",
"Y+	c #61584D",
"Z+	c #A79A8E",
"`+	c #98856E",
" @	c #8B7B73",
".@	c #7B788E",
"+@	c #FEEFCE",
"@@	c #FAE5C0",
"#@	c #C7AF92",
"$@	c #5F5347",
"%@	c #ADA193",
"&@	c #A49287",
"*@	c #76749C",
"=@	c #7C7CBC",
"-@	c #ECE3D1",
";@	c #FCEAC4",
">@	c #D0B89A",
",@	c #665A4C",
"'@	c #9D9995",
")@	c #B2A696",
"!@	c #BDA78A",
"~@	c #DECFAB",
"{@	c #FDF1CC",
"]@	c #D1BB9D",
"^@	c #675A4B",
"/@	c #97928E",
"(@	c #E9DCBC",
"_@	c #FBF3D9",
":@	c #CBB79D",
"<@	c #615546",
"[@	c #7F7A72",
"}@	c #FEF7DB",
"|@	c #F9F0D4",
"1@	c #BFAB92",
"2@	c #5A4E41",
"3@	c #42392F",
"4@	c #7E7367",
"5@	c #FEF4D6",
"6@	c #F3E6C1",
"7@	c #AF9B83",
"8@	c #52493E",
"9@	c #4B3E35",
"0@	c #55453A",
"a@	c #554A3E",
"b@	c #7F776D",
"c@	c #FEF3D6",
"d@	c #EED9B7",
"e@	c #9D8B73",
"f@	c #4C4237",
"g@	c #8F8986",
"h@	c #73675A",
"i@	c #AC9881",
"j@	c #504639",
"k@	c #827C75",
"l@	c #FCEFD4",
"m@	c #E4CFAD",
"n@	c #8D7D67",
"o@	c #433A31",
"p@	c #81777A",
"q@	c #A693A6",
"r@	c #5A4858",
"s@	c #988485",
"t@	c #C4B197",
"u@	c #4D4338",
"v@	c #A5A39D",
"w@	c #FBECD6",
"x@	c #DAC2A3",
"y@	c #7F705E",
"z@	c #3F362D",
"A@	c #493E40",
"B@	c #786179",
"C@	c #998A9B",
"D@	c #968E86",
"E@	c #E9D8C1",
"F@	c #857562",
"G@	c #464036",
"H@	c #FAEBD8",
"I@	c #CFB899",
"J@	c #796A57",
"K@	c #3E362D",
"L@	c #69645E",
"M@	c #8F8F99",
"N@	c #4C4745",
"O@	c #3A332A",
"P@	c #393229",
"Q@	c #6F6964",
"R@	c #CCB599",
"S@	c #796B59",
"T@	c #41382E",
"U@	c #36302B",
"V@	c #535469",
"W@	c #5C5D71",
"X@	c #535669",
"Y@	c #616379",
"Z@	c #767687",
"`@	c #888A99",
" #	c #656162",
".#	c #393329",
"+#	c #3D362D",
"@#	c #D4C4B0",
"##	c #867562",
"$#	c #473E34",
"%#	c #9A9895",
"&#	c #ADABA8",
"*#	c #473F34",
"=#	c #51463C",
"-#	c #9A9591",
";#	c #A08E78",
">#	c #574E40",
",#	c #383229",
"'#	c #5F705B",
")#	c #687A65",
"!#	c #5D705A",
"~#	c #576A54",
"{#	c #52654F",
"]#	c #4C6249",
"^#	c #4F624B",
"/#	c #51664D",
"(#	c #4F634B",
"_#	c #8F846F",
":#	c #E1CAAA",
"<#	c #C0A98D",
"[#	c #807568",
"}#	c #7D6F5D",
"|#	c #473E33",
"1#	c #383328",
"2#	c #423D33",
"3#	c #CCD1CC",
"4#	c #F8F1CD",
"5#	c #FBE5C0",
"6#	c #D1B799",
"7#	c #736757",
"8#	c #7C726B",
"9#	c #423B31",
"0#	c #3B352D",
"a#	c #433B33",
"b#	c #664C4B",
"c#	c #715755",
"d#	c #856464",
"e#	c #AE7877",
"f#	c #D48886",
"g#	c #E49895",
"h#	c #EAA09F",
"i#	c #EAAAA7",
"j#	c #EFB7B3",
"k#	c #FDF1CB",
"l#	c #FCE6C1",
"m#	c #D2B99B",
"n#	c #756858",
"o#	c #D09E9E",
"p#	c #F2E8D8",
"q#	c #FBECD3",
"r#	c #DCCAB7",
"s#	c #AEA69E",
"                                      ",
"                                      ",
"                              . +     ",
"  @ # $ %                   & * = -   ",
"  ; > , '                 ) ! ~ { ]   ",
"    ^ / ( _ : < [ } | 1 2 3 4 5 6     ",
"    7 8 9 0 a           b c d e f     ",
"      g h i j     k l m n o p q       ",
"      r s t u v w x y z A B C         ",
"        D E F G   H I J K L           ",
"          M N O P Q R S T             ",
"            U V W X Y Z               ",
"            `  ...+.@.                ",
"          #.$.%.+.&.*.=.              ",
"        -.;.>.,.'.).!.~.{.            ",
"      ].^./.+.(.    _.:.<.[.          ",
"      }.|.1.2.3.4.5.6.7.8.9.0.        ",
"    a.b.c.d.e.        f.g.h.S i.      ",
"    j.k.l.m.n.o.p.q.r.s.t.u.v.w.      ",
"  x.y.z.d.A.B.C.D.E.F.G.H.I.J.K.L.    ",
"  M.N.O.P.Q.              R.S.T.U.V.  ",
"  W.X.Y.Z.`. +.+++@+#+$+%+&+*+=+-+;+  ",
"  >+,+'+)+                  !+~+{+]+  ",
"  ^+/+(+_+:+<+[+}+|+1+1+1+2+3+4+5+6+  ",
"  7+8+9+l.0+                a+b+c+d+  ",
"    e+X.f+g+h+i+j+k+l+m+n+o+p+q+r+s+  ",
"    t+u+X.v+w+          x+y+z+A+B+    ",
"      C+D+E+F+G+H+      I+J+K+L+M+    ",
"        N+O+P+Q+R+S+T+U+V+W+X+Y+      ",
"          Z+`+ @.@    +@@@#@$@        ",
"            %@&@*@=@-@;@>@,@'@        ",
"              )@!@~@{@]@^@/@          ",
"                (@_@:@<@[@            ",
"              }@|@1@2@3@4@            ",
"            5@6@7@8@9@0@a@b@          ",
"          c@d@e@f@g@  h@i@j@k@        ",
"        l@m@n@o@p@  q@r@s@t@u@v@      ",
"      w@x@y@z@A@B@C@    D@E@F@G@      ",
"    H@I@J@K@L@          M@N@O@P@Q@    ",
"    R@S@T@U@V@W@X@Y@Z@`@   #P@.#+#    ",
"  @###$#d.%#              &#.#*#=#-#  ",
"  ;#>#v.,#'#)#!#~#{#]#^#/#(#_#:#<#[#  ",
"  }#|#1#2#3#                4#5#6#7#  ",
"  8#9#0#a#b#c#d#e#f#g#h#i#j#k#l#m#n#  ",
"                          o#p#q#r#s#  ",
"                                      ",
"                                      ",
"                                      "};
