/* XPM */
static char * dnaSmall_xpm[] = {
"9 25 111 2",
"  	c None",
". 	c #D5C6B3",
"+ 	c #94826D",
"@ 	c #98998C",
"# 	c #E7DDBB",
"$ 	c #95836E",
"% 	c #B09F8C",
"& 	c #7E7F65",
"* 	c #E7D8BE",
"= 	c #B6A287",
"- 	c #958E87",
"; 	c #A28B76",
"> 	c #B3837B",
", 	c #E4BEB1",
"' 	c #C0A68C",
") 	c #898076",
"! 	c #CCC0B2",
"~ 	c #C0AD97",
"{ 	c #BFAF96",
"] 	c #82796F",
"^ 	c #BFB198",
"/ 	c #63594B",
"( 	c #D1C2AB",
"_ 	c #665D50",
": 	c #71715E",
"< 	c #8F8779",
"[ 	c #E4D7C4",
"} 	c #6D6051",
"| 	c #726561",
"1 	c #AB9F99",
"2 	c #847162",
"3 	c #998E82",
"4 	c #998772",
"5 	c #534A45",
"6 	c #BBB4B9",
"7 	c #A29698",
"8 	c #473E37",
"9 	c #8F8A84",
"0 	c #5F5346",
"a 	c #837E7D",
"b 	c #A39A93",
"c 	c #A8967E",
"d 	c #C7BCB0",
"e 	c #52483C",
"f 	c #818083",
"g 	c #BEC1DE",
"h 	c #D4D2D6",
"i 	c #DDC6A6",
"j 	c #B4ADA6",
"k 	c #5D5244",
"l 	c #6F7D67",
"m 	c #BAE5B9",
"n 	c #D2E7BB",
"o 	c #DDC6A5",
"p 	c #ADA79F",
"q 	c #85796B",
"r 	c #70554C",
"s 	c #DA9F9E",
"t 	c #E4A9A9",
"u 	c #E3A8A8",
"v 	c #F5D4BA",
"w 	c #BAA58A",
"x 	c #827064",
"y 	c #AE8BA3",
"z 	c #E3BFE1",
"A 	c #EED1DC",
"B 	c #EBD6B5",
"C 	c #978C7E",
"D 	c #928280",
"E 	c #BAB3CB",
"F 	c #F3E0C8",
"G 	c #A3927E",
"H 	c #D2C9BF",
"I 	c #D7CAB4",
"J 	c #AD9E86",
"K 	c #F5EED8",
"L 	c #A79984",
"M 	c #5F5347",
"N 	c #F4EBD8",
"O 	c #A5967F",
"P 	c #918784",
"Q 	c #84756E",
"R 	c #847A6E",
"S 	c #9D8D78",
"T 	c #6F6563",
"U 	c #B0A4B0",
"V 	c #AEA6AB",
"W 	c #978A7B",
"X 	c #8D8882",
"Y 	c #A1907B",
"Z 	c #524B45",
"` 	c #92939D",
" .	c #A4A5B0",
"..	c #AAABB5",
"+.	c #615D5B",
"@.	c #433C33",
"#.	c #CFC6BB",
"$.	c #4E4438",
"%.	c #6B6F64",
"&.	c #A0AA9F",
"*.	c #A1AB9F",
"=.	c #9FAA9D",
"-.	c #86897A",
";.	c #A08F78",
">.	c #BAB4AE",
",.	c #4D473E",
"'.	c #807672",
").	c #B3A19F",
"!.	c #F3DACB",
"~.	c #EAD4B3",
"{.	c #B5AEA5",
"                  ",
"              .   ",
"  + @       # $   ",
"  % &     * = -   ",
"    ; > , ' )     ",
"    ! ~ { ]       ",
"      ^ /         ",
"    ( _ : <       ",
"  [ } | 1 2 3     ",
"  4 5 6   7 8 9   ",
"  0 a       b c   ",
"d e f     g h i j ",
"  k l m m m n o p ",
"  q r s t u v w   ",
"    x y z A B C   ",
"      D E F G     ",
"      H I J       ",
"      K L M       ",
"    N O P Q R     ",
"    S T U V W X   ",
"  Y Z `  ...+.@.  ",
"#.$.%.&.*.=.-.;.  ",
">.,.'.).    !.~.{.",
"                  ",
"                  "};
