/* XPM */
static char * worldSmall_xpm[] = {
"25 25 253 2",
"  	c None",
". 	c #4A4A73",
"+ 	c #4A4A7B",
"@ 	c #4A4A84",
"# 	c #4A527B",
"$ 	c #4A5284",
"% 	c #525273",
"& 	c #52527B",
"* 	c #525284",
"= 	c #52528C",
"- 	c #525A7B",
"; 	c #525A84",
"> 	c #525A8C",
", 	c #5A525A",
"' 	c #5A5263",
") 	c #5A5A73",
"! 	c #5A5A84",
"~ 	c #5A5A8C",
"{ 	c #5A6384",
"] 	c #5A638C",
"^ 	c #635A63",
"/ 	c #635A6B",
"( 	c #63637B",
"_ 	c #636384",
": 	c #63638C",
"< 	c #636B84",
"[ 	c #6B5A52",
"} 	c #6B5A5A",
"| 	c #6B6363",
"1 	c #6B637B",
"2 	c #73634A",
"3 	c #736352",
"4 	c #7B6352",
"5 	c #846B52",
"6 	c #7B6B5A",
"7 	c #8C735A",
"8 	c #736363",
"9 	c #847363",
"0 	c #947B63",
"a 	c #948463",
"b 	c #9C8463",
"c 	c #7B736B",
"d 	c #947B6B",
"e 	c #9C846B",
"f 	c #7B7373",
"g 	c #6B6B84",
"h 	c #6B7384",
"i 	c #736B7B",
"j 	c #736B84",
"k 	c #737384",
"l 	c #7B737B",
"m 	c #7B738C",
"n 	c #7B7B8C",
"o 	c #847B7B",
"p 	c #847B84",
"q 	c #84848C",
"r 	c #8C7B73",
"s 	c #8C7B7B",
"t 	c #90847F",
"u 	c #9C847B",
"v 	c #4A529C",
"w 	c #525A94",
"x 	c #525A9C",
"y 	c #525AA5",
"z 	c #526394",
"A 	c #52639C",
"B 	c #5A639C",
"C 	c #5A63A5",
"D 	c #5A63AD",
"E 	c #5A63B5",
"F 	c #5A6BAD",
"G 	c #5A6BB5",
"H 	c #5A6BBD",
"I 	c #636394",
"J 	c #6363A5",
"K 	c #737394",
"L 	c #6B6FA0",
"M 	c #7E7894",
"N 	c #7373AD",
"O 	c #737BB5",
"P 	c #7B7BB5",
"Q 	c #636BBD",
"R 	c #8C848C",
"S 	c #88889C",
"T 	c #998994",
"U 	c #9494A5",
"V 	c #887FAD",
"W 	c #9890A9",
"X 	c #948CBD",
"Y 	c #9C8CBD",
"Z 	c #636BC6",
"` 	c #6373C6",
" .	c #6B73C6",
"..	c #737BC6",
"+.	c #8484C6",
"@.	c #8C8CC6",
"#.	c #948CC6",
"$.	c #5A6BCE",
"%.	c #636BCE",
"&.	c #6373CE",
"*.	c #6B73CE",
"=.	c #6B7BCE",
"-.	c #737BCE",
";.	c #7B7BCE",
">.	c #7B84CE",
",.	c #8484CE",
"'.	c #848CCE",
").	c #948CCE",
"!.	c #949CCE",
"~.	c #6B73D6",
"{.	c #6B7BD6",
"].	c #737BD6",
"^.	c #7384D6",
"/.	c #8C8CD6",
"(.	c #9494D6",
"_.	c #7B84DE",
":.	c #848CDE",
"<.	c #8494DE",
"[.	c #94A5E7",
"}.	c #A5846B",
"|.	c #A58C6B",
"1.	c #A58C73",
"2.	c #AD8C73",
"3.	c #AD9473",
"4.	c #B59473",
"5.	c #AD947B",
"6.	c #B59C7B",
"7.	c #BD9C7B",
"8.	c #C6A57B",
"9.	c #A59484",
"0.	c #AD9484",
"a.	c #BD9C84",
"b.	c #BDA584",
"c.	c #A59C94",
"d.	c #AD9494",
"e.	c #AD9C9C",
"f.	c #A594A5",
"g.	c #A594B5",
"h.	c #9C9CAD",
"i.	c #9CA5B5",
"j.	c #A9A9AD",
"k.	c #B5A5AD",
"l.	c #B5B5AD",
"m.	c #BDA594",
"n.	c #BDA59C",
"o.	c #BDA5A5",
"p.	c #BDA5AD",
"q.	c #BDADAD",
"r.	c #BDB5AD",
"s.	c #C6A584",
"t.	c #C6A58C",
"u.	c #C6AD8C",
"v.	c #C6AD94",
"w.	c #C6ADA5",
"x.	c #C6ADAD",
"y.	c #CEAD84",
"z.	c #CEAD8C",
"A.	c #CEAD94",
"B.	c #CEAD9C",
"C.	c #CEB5AD",
"D.	c #D6AD8C",
"E.	c #D6B58C",
"F.	c #D6B594",
"G.	c #D6B59C",
"H.	c #D6B5A5",
"I.	c #D6BDA5",
"J.	c #DEB58C",
"K.	c #DEB594",
"L.	c #DEBD94",
"M.	c #DEBD9C",
"N.	c #DEBDAD",
"O.	c #DEC6AD",
"P.	c #E7BD94",
"Q.	c #E7C69C",
"R.	c #EFC69C",
"S.	c #EFC6A5",
"T.	c #EFCEA5",
"U.	c #F7D6AD",
"V.	c #A5A5B5",
"W.	c #AD9CB5",
"X.	c #ADADB5",
"Y.	c #B5A5B5",
"Z.	c #B5ADB5",
"`.	c #D6C6B5",
" +	c #FFD6B5",
".+	c #9C94BD",
"++	c #AD9CBD",
"@+	c #B5A5BD",
"#+	c #B5B5BD",
"$+	c #BDADBD",
"%+	c #BDBDBD",
"&+	c #C6BDBD",
"*+	c #D6CEBD",
"=+	c #DEC6BD",
"-+	c #FFDEBD",
";+	c #9C9CC6",
">+	c #BDBDC6",
",+	c #C6C6C6",
"'+	c #CEC6C6",
")+	c #D6CEC6",
"!+	c #FFE7C6",
"~+	c #9C94CE",
"{+	c #9CA5CE",
"]+	c #B5A5CE",
"^+	c #B5B5CE",
"/+	c #B5BDCE",
"(+	c #BDBDCE",
"_+	c #C6C6CE",
":+	c #C6CECE",
"<+	c #CEC6CE",
"[+	c #D6CECE",
"}+	c #DECECE",
"|+	c #FFEFCE",
"1+	c #FFF7CE",
"2+	c #BDBDD6",
"3+	c #C6C6D6",
"4+	c #D6CED6",
"5+	c #DED6D6",
"6+	c #EFE7D6",
"7+	c #FFFFD6",
"8+	c #B5B5DE",
"9+	c #D6D6DE",
"0+	c #F7F7DE",
"a+	c #FFFFDE",
"b+	c #9CADE7",
"c+	c #B5B5E7",
"d+	c #E7E7E7",
"e+	c #EFEFE7",
"f+	c #F7F7E7",
"g+	c #BDC6EF",
"h+	c #CED6EF",
"i+	c #D6DEEF",
"j+	c #E7EFF7",
"k+	c #EFF7F7",
"l+	c #F7F7F7",
"m+	c #FFFFF7",
"n+	c #FFFFFF",
"o+	c #000000",
"p+	c #BF0000",
"q+	c #00BF00",
"r+	c #BFBF00",
"s+	c #0000BF",
"t+	c #BF00BF",
"u+	c #00BFBF",
"v+	c #C0C0C0",
"w+	c #808080",
"x+	c #FF0000",
"y+	c #00FF00",
"z+	c #FFFF00",
"A+	c #0000FF",
"B+	c #FF00FF",
"C+	c #00FFFF",
"D+	c #FFFFFF",
"                      _+(+_+                      ",
"              _+l g y V t.v.Y A.p.)+              ",
"          #+h . $ I F V z.E.E.E.E.E.w.*+_+        ",
"        S + + * w 6.6.s.E.E.A.L.z.E.E.z.C.        ",
"      U & & & & d L G W f.k.w.W.k.L.L.E.E.@+      ",
"    >+& & ; & ! d 5.S ` ......L.Q.~+Q.L.F.E.*+    ",
"    M & & & * i e 3.7.m.F.w..+L.Q.N.T.S.L.E.L.  _+",
"    ; & * & 8 4 0 |.6.s.z.F.L.@+U.)+^+;.N.E.E.)+_+",
"  S ; ; ; 2 2 2 7 |.6.s.E.F.L.I.4+a+d+b+=.Y W.G.  ",
"  & ; ; ; 2 2 2 7 e 5.s.E.L.Q.T.3+i+D+l+<.&.w.=.  ",
"  * ; ; ; ^ 2 2 0 e 3.b.E.E.L.T.|+a+D+D+c+*.X &._+",
"  ; ; # - ; ; ; > B 3.7.z.E.L.Q.<+8+j+j+[.*.*.&.(+",
",+/ ; ; ; h h ! > B 2.7.s.z.L.L.#.=.<.<.^.*.&.&.>+",
"  3 # # ! n n < ; z 5.a.z.z.L.L.*.*.^.^.-.&.%.%.>+",
"  , & ; ! q q n - w R a.u.z.M.Q.*.*.*.*.&.&.%.&.)+",
"  3 & ; ! n q n ; > 9.5.a.s.L.L.*.M.*.*.*.&.%.%.  ",
"  t ) # # { < _ ; ; h e 5.b.z.&.X +.&.&.*.&.$.=.)+",
"    - ; ; ; ; - ; ; > b 2.5.e.` +.*.&.*.&.$.$.(+_+",
"    p ; ; ; ; # # ; ; j s p G Q ` &.*.*.$.$..._+  ",
"    &+# # - ; ; ; # ; w C C G Q Q ` *.*.$.$.^+    ",
"      S - # - ; ; ; - ; w z C F E Q ` %.*.'.  )+  ",
"        U # - # ; # ; - ; w B C D G H Q +.        ",
"          >+M ; ; ; # ; # ; > w B C N #+    )+    ",
"              _+M - - # # . . + : _+_+    )+      ",
"                    )+    ,+_+                  _+"};
