/* XPM */
static char * individualLarge_xpm[] = {
"32 32 298 2",
"  	c None",
". 	c #050500",
"+ 	c #120E00",
"@ 	c #1F1700",
"# 	c #292000",
"$ 	c #2C2400",
"% 	c #2F2500",
"& 	c #322700",
"* 	c #271E00",
"= 	c #171100",
"- 	c #080600",
"; 	c #070502",
"> 	c #161303",
", 	c #3E3106",
"' 	c #67500A",
") 	c #785C0A",
"! 	c #7B5F0A",
"~ 	c #7D610C",
"{ 	c #7F630B",
"] 	c #7C610B",
"^ 	c #6A5209",
"/ 	c #3F3104",
"( 	c #141000",
"_ 	c #020100",
": 	c #000000",
"< 	c #181818",
"[ 	c #1C1C1C",
"} 	c #1E1D1A",
"| 	c #2F2918",
"1 	c #6C5817",
"2 	c #A78517",
"3 	c #BC9215",
"4 	c #C99B16",
"5 	c #CD9E16",
"6 	c #CCA017",
"7 	c #CA9D15",
"8 	c #B78E12",
"9 	c #785D0B",
"0 	c #261D01",
"a 	c #0B0600",
"b 	c #010100",
"c 	c #4A4A4A",
"d 	c #6B6B6B",
"e 	c #4B4B4B",
"f 	c #2C2C2C",
"g 	c #4B4B4A",
"h 	c #77736A",
"i 	c #7A6D44",
"j 	c #826718",
"k 	c #B28B13",
"l 	c #E0AD18",
"m 	c #ECB817",
"n 	c #EEB618",
"o 	c #EBB717",
"p 	c #E2AE17",
"q 	c #B48C12",
"r 	c #7A5F0D",
"s 	c #3D2F06",
"t 	c #161616",
"u 	c #737373",
"v 	c #BDBDBD",
"w 	c #787878",
"x 	c #292929",
"y 	c #797978",
"z 	c #C6C4C0",
"A 	c #7E7970",
"B 	c #3D3617",
"C 	c #87690F",
"D 	c #DDAB17",
"E 	c #F1BA18",
"F 	c #F3BC18",
"G 	c #F1BB18",
"H 	c #EEB918",
"I 	c #ECB919",
"J 	c #E6B419",
"K 	c #795E0D",
"L 	c #020200",
"M 	c #171615",
"N 	c #7B7B7B",
"O 	c #7F7F7F",
"P 	c #292928",
"Q 	c #7E7E7C",
"R 	c #7F7C7B",
"S 	c #332D19",
"T 	c #7C610F",
"U 	c #DBAB17",
"V 	c #F0BB18",
"W 	c #F2BC19",
"X 	c #F3BD19",
"Y 	c #F4BE19",
"Z 	c #F3BE19",
"` 	c #EEB91A",
" .	c #050400",
"..	c #030200",
"+.	c #100D01",
"@.	c #211E13",
"#.	c #7C7A72",
"$.	c #D7D5D2",
"%.	c #7E7E76",
"&.	c #312D25",
"*.	c #7D7B74",
"=.	c #C6C4BE",
"-.	c #7E7B71",
";.	c #392F16",
">.	c #86670E",
",.	c #E2B119",
"'.	c #F0BC19",
").	c #EFB918",
"!.	c #E9B518",
"~.	c #E8B618",
"{.	c #EEBA19",
"].	c #EDB919",
"^.	c #0E0A00",
"/.	c #060500",
"(.	c #795F0D",
"_.	c #7A6216",
":.	c #7C6F44",
"<.	c #807B6C",
"[.	c #7D6F46",
"}.	c #7A6422",
"|.	c #7C6E44",
"1.	c #7E7869",
"2.	c #866917",
"3.	c #B78E13",
"4.	c #E7B519",
"5.	c #EEBB18",
"6.	c #E5B316",
"7.	c #8C6D0D",
"8.	c #B88F13",
"9.	c #EAB619",
"0.	c #795E0C",
"a.	c #3C2E06",
"b.	c #0B0700",
"c.	c #F4BE1A",
"d.	c #ECB91A",
"e.	c #E4B219",
"f.	c #D7A817",
"g.	c #CCA11A",
"h.	c #866A18",
"i.	c #433714",
"j.	c #856A18",
"k.	c #C99F1C",
"l.	c #846917",
"m.	c #342C0E",
"n.	c #846814",
"o.	c #DCAB1A",
"p.	c #DDAC17",
"q.	c #DBAB15",
"r.	c #D8AA17",
"s.	c #382C04",
"t.	c #8A6A0D",
"u.	c #E8B619",
"v.	c #EDB819",
"w.	c #DBA917",
"x.	c #71570C",
"y.	c #130F00",
"z.	c #F2BD19",
"A.	c #DDAE16",
"B.	c #B68E13",
"C.	c #937210",
"D.	c #B58C13",
"E.	c #E1B019",
"F.	c #87690E",
"G.	c #E1B119",
"H.	c #B48D12",
"I.	c #86660D",
"J.	c #7A5F0C",
"K.	c #7B600C",
"L.	c #85670D",
"M.	c #EBB818",
"N.	c #E6B318",
"O.	c #161200",
"P.	c #E9B519",
"Q.	c #E1AF17",
"R.	c #DFAD14",
"S.	c #E2B015",
"T.	c #E3B016",
"U.	c #EEB919",
"V.	c #ECB81A",
"W.	c #E9B61A",
"X.	c #E2B219",
"Y.	c #D1A316",
"Z.	c #322602",
"`.	c #2C2102",
" +	c #3C2D04",
".+	c #86670D",
"++	c #D7A616",
"@+	c #EAB618",
"#+	c #84660D",
"$+	c #B18910",
"%+	c #DBA913",
"&+	c #EDB716",
"*+	c #F0BB19",
"=+	c #F3BD1A",
"-+	c #EAB61A",
";+	c #B58D12",
">+	c #413106",
",+	c #201900",
"'+	c #423306",
")+	c #B68D12",
"!+	c #E7B417",
"~+	c #F3BD18",
"{+	c #E9B619",
"]+	c #181300",
"^+	c #1D1701",
"/+	c #BF9413",
"(+	c #D6A516",
"_+	c #DFAE17",
":+	c #E2B018",
"<+	c #E2B117",
"[+	c #E0AF18",
"}+	c #D0A116",
"|+	c #2D2103",
"1+	c #211800",
"2+	c #2D2302",
"3+	c #CC9E15",
"4+	c #E6B317",
"5+	c #F2BC18",
"6+	c #1D1600",
"7+	c #030300",
"8+	c #3C2E05",
"9+	c #6E550A",
"0+	c #775C0B",
"a+	c #795E0B",
"b+	c #7C610C",
"c+	c #6F560B",
"d+	c #403105",
"e+	c #E9B418",
"f+	c #1E1700",
"g+	c #040300",
"h+	c #0A0700",
"i+	c #0C0900",
"j+	c #100E00",
"k+	c #161100",
"l+	c #1B1500",
"m+	c #0F0C00",
"n+	c #141100",
"o+	c #68500A",
"p+	c #C59915",
"q+	c #E7B419",
"r+	c #EFBA1A",
"s+	c #DDAC18",
"t+	c #1F1600",
"u+	c #423205",
"v+	c #765C0C",
"w+	c #7C610D",
"x+	c #DAA917",
"y+	c #191500",
"z+	c #070500",
"A+	c #0D0A00",
"B+	c #80620D",
"C+	c #E4B218",
"D+	c #E2B017",
"E+	c #82650D",
"F+	c #231C00",
"G+	c #100D00",
"H+	c #DDAD17",
"I+	c #F1BC18",
"J+	c #EBB819",
"K+	c #7E620C",
"L+	c #483705",
"M+	c #231C03",
"N+	c #86680D",
"O+	c #DFAD16",
"P+	c #ECB819",
"Q+	c #DAA717",
"R+	c #80630C",
"S+	c #302502",
"T+	c #221800",
"U+	c #463705",
"V+	c #7F620C",
"W+	c #B68E12",
"X+	c #E9B617",
"Y+	c #EAB519",
"Z+	c #503E05",
"`+	c #281B00",
" @	c #1E1702",
".@	c #7F620D",
"+@	c #D5A416",
"@@	c #E7B517",
"#@	c #F1BB19",
"$@	c #EFBA18",
"%@	c #E8B517",
"&@	c #CC9F15",
"*@	c #83650C",
"=@	c #4A3903",
"-@	c #060400",
";@	c #423305",
">@	c #7D610D",
",@	c #EAB418",
"'@	c #F4BD19",
")@	c #E5B117",
"!@	c #B58C10",
"~@	c #8F6E0D",
"{@	c #070600",
"]@	c #E4B117",
"^@	c #D6A714",
"/@	c #F1BC1A",
"                                                                ",
"                                                                ",
"                                                                ",
"                                                                ",
"                                                                ",
"                      . + @ # $ % & % * = -                     ",
"                    ; > , ' ) ! ~ { ] ^ / ( _ :                 ",
"              < [   } | 1 2 3 4 5 6 7 8 9 0 a b                 ",
"            c d e f g h i j k l m n o p q r s _                 ",
"          t u v w x y z A B C D E F G H I J K L                 ",
"  : : : b M N : O P Q : R S T U V W X Y Z ` Y  .:               ",
": : ..- +.@.#.$.%.&.*.=.-.;.>.,.'.).!.~.{.].Y ^./...            ",
"s r r r (._.:.<.[.}.|.1.:.2.3.4.5.6.8 7.8.9.Y 0.a.b.            ",
"r c.d.e.f.g.h.i.j.k.l.m.n.o.p.q.r.: : s.t.u.v.w.x.y.            ",
"r c.c.z.o A.B.C.D.E.3.F.3.G.H.I.J.: K.L.3.M.z.N.0.O.            ",
"r c.P.Q.R.S.T.e.P.U.V.W.X.Y.J.Z.`. +.+++@+V X 4.r =             ",
"s r r #+$+%+&+*+z.X =+-+;+0.>+,+'+J.)+!+~+=+c.{+J.]+            ",
": : - ^+9 /+(+_+:+<+[+}+J.|+1+2+K.3+4+5+Y c.c.J r 6+            ",
": : : 7+8+9+0+a+J.b+J.c+d+6+d+a+q e+W Y c.c.=+E.J.f+            ",
"    : : g+- h+i+j+k+l+]+m+n+o+p+U q+r+c.c.=+W s+0.t+            ",
"      : : : : :           m+u+v+r w+3.` =+X G x+a+y+            ",
"                            z+g+g+A+B+C+W X 5+D+E+F+]+          ",
"                              : : G+J.H+I+X Y J+3.K+L+          ",
"                                ^.M+N+O+W X c.=+P+Q+R+S+T+      ",
"                              m+U+V+W+X+Y c.c.Z Y Y+W+R+Z+`+: : ",
"                               @.@+@@@#@c.c.=+Z z.$@%@&@*@=@: : ",
"                          -@;@>@)+,@c.X Y Y Y Y X X '@)@!@~@r r ",
"                        _ {@K.]@v.=+X Y Y Y Y Y Y Y X ).S.^@c.c.",
"                      : s r 3./@c.c.Y Y Y Y Y Y Y c.Y F 5+G c.c.",
"                    : : r =+=+c.c.c.=+=+c.Y c.c.c.Y c.Y X Y c.c.",
"                    : : r c.c.c.c.c.c.c.c.c.c.c.c.c.c.c.c.c.c.c.",
"                    : : r c.c.c.c.c.c.c.c.c.c.c.c.c.c.c.c.c.c.c."};
