/* XPM */
static char * joints_T_xpm[] = {
"16 15 10 1",
" 	c None",
".	c #FFFFFF",
"+	c #E5E5E5",
"@	c #BED7B1",
"#	c #70BC48",
"$	c #8AC56B",
"%	c #97CA7C",
"&	c #CBDCC3",
"*	c #D8E1D4",
"=	c #A4CE8E",
"................",
"++++++++++++++++",
"++@#########@+++",
"++@#$%$#$%$#@+++",
"++@#@+@#@+@#@+++",
"++@#&+@#@+@#@+++",
"++&%++@#@+&%&+++",
"++++++@#@+++++++",
"++++++@#@+++++++",
"++++++@#@+++++++",
"++++*@=#=@*+++++",
"++++@#####@+++++",
"++++*@@@@@*+++++",
"++++++++++++++++",
"++++++++++++++++"};
