/* XPM */
static char * motor_A_xpm[] = {
"16 15 12 1",
" 	c None",
".	c #FFFFFF",
"+	c #E5E5E5",
"@	c #ABC1E3",
"#	c #3878E0",
"$	c #BFCDE4",
"%	c #729CE2",
"&	c #5F90E1",
"*	c #D2D9E4",
"=	c #85A9E2",
"-	c #4C84E1",
";	c #98B5E3",
"................",
"++++++++++++++++",
"+++@####@+++++++",
"+++$%%##&+++++++",
"+++++$#&#*++++++",
"+++++=-*#=++++++",
"++++*#;+&-++++++",
"++++=#;@%#;+++++",
"++++######&+++++",
"+++;#=@@@&#$++++",
"++@--@*+$;#%$+++",
"++####@+%###%+++",
"++@@@@*+$@@@$+++",
"++++++++++++++++",
"++++++++++++++++"};
