/* XPM */
static char * motor_S_xpm[] = {
"16 15 12 1",
" 	c None",
".	c #FFFFFF",
"+	c #E5E5E5",
"@	c #ABC1E3",
"#	c #D2D9E4",
"$	c #4C84E1",
"%	c #3878E0",
"&	c #729CE2",
"*	c #BFCDE4",
"=	c #98B5E3",
"-	c #85A9E2",
";	c #5F90E1",
"................",
"++++++@@##@#++++",
"++++@$%%%&%@++++",
"+++*%$=@-%%@++++",
"+++&%#+++=%@++++",
"+++&%@+++@&*++++",
"+++#$%;&-*++++++",
"++++#-;%%%&+++++",
"+++#@#++#&%*++++",
"+++@%@+++@%@++++",
"+++@%$#+#$%#++++",
"+++@%%%%%%@+++++",
"+++*&@-&-*++++++",
"++++++++++++++++",
"++++++++++++++++"};
