/* XPM */
static char* mt_autostop[] = {
"25 25 4 1",
"  c None",
"! c #000000",
"# c #FF0000",
"$ c #FFFFFF",
"          !!!!!          ",
"       !!!!!!!!!!!       ",
"     !!!!!!!!!!!!!!!     ",
"    !!!!!!$$###!!!!!!    ",
"   !!!!!$$$$!####!!!!!   ",
"  !!!!$$$$$$!######!!!!  ",
"  !!!$$$$!$$!#######!!!  ",
" !!!!$$$$$$$######!$!!!! ",
" !!!$$$$$$$$#####!!$$!!! ",
" !!!$$!$$$$$###!!!$$$!!! ",
"!!!$$$$$$$$$##!!!$$$$$!!!",
"!!!$$$$$$$$$#!!$$$$$$$!!!",
"!!!$!!!$$$$$!!$$$$!!!$!!!",
"!!!$$$$$$$$$!$$$$$$$$$!!!",
"!!!$$$$$$$$$$$$$$$$$$$!!!",
" !!!$$!$$$$$$$$$$$!$$!!! ",
" !!!$$$$$$$$$$$$$$$$$!!! ",
" !!!!$$$$$$$$$$$$$$$!!!! ",
"  !!!$$$$!$$!$$!$$$$!!!  ",
"  !!!!$$$$$$!$$$$$$!!!!  ",
"   !!!!!$$$$!$$$$!!!!!   ",
"    !!!!!!$$$$$!!!!!!    ",
"     !!!!!!!!!!!!!!!     ",
"       !!!!!!!!!!!       ",
"          !!!!!          "};