/* XPM */
static char* mt_ExpIndSmall[] = {
"25 25 6 1",
"  c None",
"! c #000000",
"# c #999933",
"$ c #FFCC33",
"% c #E3E3E3",
"& c #FFFFFF",
"                         ",
"                         ",
"              !!!!!!     ",
"            ! !$$$$!!    ",
"           !&!&!$$$$!    ",
"         !!!&!&!$$$$!!   ",
"        !$$$!$!$$$!$$!   ",
"        !$$$$$$$!!$$$!   ",
"        !!!$$$$!!$$$$!   ",
"          !!!!!!$$$$$!   ",
"                !!$$$!   ",
"  !!!!!!!!!!!!!  !$$$$!  ",
"  !##!%%%%%!# ! !$$$$$$! ",
"  !##!%%%%%!##!!$$$$$$$$ ",
"  !##!%%%%%!##!$$$$$$$$$ ",
"  !##!%%%%%!##!          ",
"  !##!!!!!!!##!          ",
"  !###########!          ",
"  !###########!          ",
"  !##!!!!!!!##!          ",
"  !##!!!!!%!##!          ",
"  !##!!!!!%!##!          ",
"   !!!!!!!!!!!           ",
"                         ",
"                         "};