/* XPM */
static char* mt_ImpIndSmall[] = {
"25 25 6 1",
"  c None",
"! c #000000",
"# c #999933",
"$ c #FFCC33",
"% c #FFFF00",
"& c #FFFFFF",
"                         ",
"              !!!!!!     ",
"            ! !$$$$!!    ",
"           !&!&!$$$$!    ",
"         !!!&!&!$$$$!!   ",
"        !$$$!$!$$$!$$!   ",
"        !$$$$$$$!!$$$!   ",
"        !!!$$$$!!$$$$!   ",
"          !!!!!!$$$$$!   ",
"                !!$$$!   ",
"   !!!!          !$$$$!  ",
"  !%%%!!!!!!!!  !$$$$$$! ",
"  !%%%%%%%%%%! !$$$$$$$$ ",
"  !%%%%%%%%%%!!$$$$$$$$$ ",
"  !%%%%%%%%%%!           ",
"  !%%%%!!!!!!!!!!!!!!    ",
"  !%%%!#############!    ",
"  !%%%!############!     ",
"  !%%!#############!     ",
"  !%%!############!      ",
"  !%!#############!      ",
"  !%!############!       ",
"   !!!!!!!!!!!!!!!       ",
"                         ",
"                         "};