/* XPM */
static char* mt_StartSmall[] = {
"25 25 8 1",
"  c None",
"! c #000000",
"# c #800000",
"$ c #808000",
"% c #C0C0C0",
"& c #808080",
"' c #00FF00",
"( c #FFFF00",
" !!!!!&!########&!!!!!!  ",
" !!!!!!&########!&!!!!!  ",
"  !!!!&!########&!!!!!   ",
"   !!!!&!######&!&!!!    ",
"     !&!&!####&!&!!      ",
"      !&!&!&!&!&!&       ",
" !!!!!&!&!$$$$&!&!!!!!!  ",
" !&!&!!&!$$$$$$&!&!&!&!! ",
" !!!!!&!$$$$$$$$&!!!!!!! ",
" !!!!!!&$$$$$$$$!&!!!!!  ",
" !!!!!&!$$$$$$$$&!!!!!!  ",
"  !!!!!&$$$$$$$$!&!!!!   ",
"   !!!&!&$$$$$$!&!!!!    ",
"     !!&!&$$$$!&!&!      ",
"      &!&!%%%%&!&!       ",
" !!!!!!&!%('''%&!&!!!!!  ",
" !&!&!&!%'''(''%&!!&!&!! ",
" !!!!!!%''('''('%&!!!!!! ",
" !!!!!&%('''('''%!!!!!!  ",
" !!!!!!%''('''('%&!!!!!  ",
"  !!!!&%('''('''%!!!!!   ",
"   !!!!&%'('''(%!&!!!    ",
"     !&!&%''('%!&!!      ",
"      !&!&%%%%!&!!       ",
"       !&!&!&!&!!        "};