/* XPM */
static char* mt_Stat[] = {
"25 25 3 1",
"  c None",
"! c #000000",
"# c #FF6666",
"                         ",
"           !             ",
"          !!!            ",
"         ! ! !           ",
"           !             ",
"           !             ",
"          ###            ",
"         ##!##           ",
"        ## ! ##          ",
"        #  !  #          ",
"       ##  !  ##         ",
"       #   !   #         ",
"      #    !    #        ",
"      #    !    #        ",
"     #     !     #       ",
"    ##     !     ##  !   ",
" ###       !       ## !  ",
"!!!!!!!!!!!!!!!!!!!!!!!! ",
"           !          !  ",
"           !         !   ",
"           !             ",
"           !             ",
"                         ",
"                         ",
"                         "};