/* XPM */
static char* mt_StopSmall[] = {
"25 25 7 1",
"  c None",
"! c #000000",
"# c #008000",
"$ c #808000",
"% c #C0C0C0",
"& c #808080",
"' c #FF0000",
"                         ",
"        !!!!!!!!!!       ",
"       !!&!%%%%&!&!      ",
"   !!!!!&!%''''%&!&!!!!  ",
"  !&!&!&!%''''''%&!!&!&! ",
"  !!!!!!%''''''''%&!!!!! ",
"  !!!!!&%''''''''%!!!!!! ",
"  !!!!!!%''''''''%&!!!!! ",
"   !!!!&%''''''''%!!!!!  ",
"    !!!!&%''''''%!&!!!   ",
"      !&!&%''''%!&!!     ",
"       !&!&%%%%!&!&      ",
"   !!!!&!&!$$$$&!&!!!!!  ",
"  !&!&!!&!$$$$$$&!&!&!&! ",
"  !!!!!&!$$$$$$$$&!!!!!! ",
"  !!!!!!&$$$$$$$$!&!!!!! ",
"  !!!!!&!$$$$$$$$&!!!!!! ",
"   !!!!!&$$$$$$$$!&!!!!  ",
"    !!!&!&$$$$$$!&!!!!   ",
"      !!&!&$$$$!&!&!     ",
"       &!&!&!&!&!&!      ",
"   !!!!!&!&####!&!&!!!!  ",
"  !&!&!&!&######!&!!&!&! ",
"  !!!!!!&########!&!!!!! ",
"  !!!!!&!########&!!!!!! "};