/* XPM */
static char* mt_UseSmall[] = {
"25 25 4 1",
"  c None",
"! c #000000",
"# c #808000",
"$ c #FFFF00",
"                         ",
"           !$$$$$$$$$#!  ",
"          !$$$$$$$$$#!   ",
"          !$$$$$$$$#!    ",
"         !$$$$$$$$#!     ",
"         !$$$$$$$#!      ",
"        !$$$$$$$#!       ",
"        !$$$$$$#!        ",
"       !$$$$$$#!!!!!     ",
"       !$$$$$$####!      ",
"      !$$$$$$$$$#!       ",
"      !!!$$$$$$#!        ",
"        !$$$$$#!         ",
"       !$$$$$#!          ",
"       !$$$$#!           ",
"      !$$$$#!            ",
"      !$$$#!             ",
"     !$$$#!              ",
"     !$$#!               ",
"    !$$#!                ",
"    !$#!                 ",
"   !$#!                  ",
"   !#!                   ",
"  !#!                    ",
"  !!                     "};