/* XPM */
static char* mt_UpdateSmall[] = {
"25 25 3 1",
"  c None",
"! c #000000",
"# c #008000",
"                         ",
"        #########        ",
"      #############      ",
"     ###############     ",
"    #################    ",
"   ###################   ",
"  #######       #######  ",
"  ######         ######  ",
" ######           #####  ",
" #####            ####   ",
" ####              ##  # ",
" ###               #  ## ",
" ##                  ### ",
" #  ##              #### ",
"   ###             ##### ",
"  #####           ###### ",
" ######           ###### ",
"  ######         ######  ",
"  #######       #######  ",
"   ###################   ",
"    #################    ",
"     ###############     ",
"      #############      ",
"        #########        ",
"                         "};