/* XPM */
static char * quitApplicationSmall_xpm[] = {
"24 24 170 2",
"  	c None",
". 	c #000000",
"+ 	c #FFFBF0",
"@ 	c #C0C0C0",
"# 	c #A0A0A4",
"$ 	c #808080",
"% 	c #FFF0D4",
"& 	c #FBEDD2",
"* 	c #F7EAD0",
"= 	c #F4E7CE",
"- 	c #F0E4CC",
"; 	c #EDE1CB",
"> 	c #E9DEC9",
", 	c #E5DBC7",
"' 	c #E2D8C5",
") 	c #DED5C3",
"! 	c #DBD2C2",
"~ 	c #BA7B00",
"{ 	c #B47700",
"] 	c #F3E7CE",
"^ 	c #ECE1CA",
"/ 	c #E1D8C5",
"( 	c #DAD2C1",
"_ 	c #BE7D00",
": 	c #B77900",
"< 	c #7C5000",
"[ 	c #F8EAD0",
"} 	c #EDE1CA",
"| 	c #E9DEC8",
"1 	c #E6DBC7",
"2 	c #DBD2C1",
"3 	c #C38000",
"4 	c #BC7B00",
"5 	c #774C00",
"6 	c #734A00",
"7 	c #E3D8C6",
"8 	c #DFD5C4",
"9 	c #C68300",
"0 	c #C07F00",
"a 	c #FFC800",
"b 	c #F1E4CC",
"c 	c #CB8600",
"d 	c #C48100",
"e 	c #6D4600",
"f 	c #FFBA00",
"g 	c #FFB300",
"h 	c #DFD5C3",
"i 	c #DCD3C2",
"j 	c #CF8900",
"k 	c #C88400",
"l 	c #694300",
"m 	c #815400",
"n 	c #744B00",
"o 	c #FFAD00",
"p 	c #FFA600",
"q 	c #FF9F00",
"r 	c #E3D8C5",
"s 	c #DCD2C2",
"t 	c #D9D0C1",
"u 	c #CD8800",
"v 	c #865700",
"w 	c #7A4F00",
"x 	c #FFA000",
"y 	c #FF9900",
"z 	c #FF9200",
"A 	c #FF8C00",
"B 	c #D8CFC0",
"C 	c #D5CDBF",
"D 	c #7F5200",
"E 	c #664100",
"F 	c #FF8B00",
"G 	c #FF8400",
"H 	c #FF7E00",
"I 	c #FF7700",
"J 	c #D5CCBE",
"K 	c #D2CABD",
"L 	c #C17F00",
"M 	c #774D00",
"N 	c #6B4400",
"O 	c #5E3C00",
"P 	c #FFBB00",
"Q 	c #FFB400",
"R 	c #FF8500",
"S 	c #FF7100",
"T 	c #FF6A00",
"U 	c #FF6300",
"V 	c #CFC8BC",
"W 	c #BF7E00",
"X 	c #704800",
"Y 	c #633F00",
"Z 	c #FFAE00",
"` 	c #FFA700",
" .	c #FF9300",
"..	c #FF7F00",
"+.	c #FF7800",
"@.	c #FF6400",
"#.	c #FF5D00",
"$.	c #FF5600",
"%.	c #FF5000",
"&.	c #C38100",
"*.	c #BC7C00",
"=.	c #CBC5BA",
"-.	c #BA7A00",
";.	c #FF5C00",
">.	c #FF4F00",
",.	c #FF4800",
"'.	c #CBC4B9",
").	c #C8C2B8",
"!.	c #BE7E00",
"~.	c #FF4900",
"{.	c #FF4200",
"].	c #C8C1B7",
"^.	c #C5BFB6",
"/.	c #B57700",
"(.	c #845500",
"_.	c #FF3B00",
":.	c #C7C1B7",
"<.	c #C4BEB5",
"[.	c #C1BCB4",
"}.	c #B37600",
"|.	c #FFFFB1",
"1.	c #573700",
"2.	c #FF3400",
"3.	c #CBC5B9",
"4.	c #C8C2B7",
"5.	c #C4BFB6",
"6.	c #BEB9B3",
"7.	c #B07400",
"8.	c #FFFF8E",
"9.	c #5C3A00",
"0.	c #FF2D00",
"a.	c #CCC5BA",
"b.	c #BEB9B2",
"c.	c #BBB6B1",
"d.	c #AE7200",
"e.	c #8F5D00",
"f.	c #FF2700",
"g.	c #BDB9B2",
"h.	c #BAB6B0",
"i.	c #B7B3AF",
"j.	c #B27600",
"k.	c #AB7100",
"l.	c #794E00",
"m.	c #6C4500",
"n.	c #B7B3AE",
"o.	c #B4B0AD",
"p.	c #A96F00",
"q.	c #623E00",
"r.	c #C2BDB5",
"s.	c #BEBAB3",
"t.	c #BBB7B1",
"u.	c #B7B4AF",
"v.	c #B4B1AD",
"w.	c #B1AEAC",
"x.	c #A76D00",
"y.	c #A46C00",
"z.	c #DC9200",
"A.	c #FFB848",
"B.	c #FFE2B1",
"C.	c #A26A00",
"D.	c #A06800",
"E.	c #9D6700",
"F.	c #714800",
"G.	c #9B6500",
"H.	c #996300",
"I.	c #966200",
"J.	c #744A00",
"K.	c #946000",
"L.	c #996400",
"M.	c #925F00",
"                + + + + + + + + + + + + + @     ",
"              # + . & * = ; > , ) ! . { . @     ",
"              # + . * ] - > , / ( . _ < . @     ",
"              # + . = - } 1 ' ) . 3 4 6 . @     ",
"              a . . } | 1 8 ! . d e 6 6 . @     ",
"              f g . > 1 ' i . j l 6 m 6 . @     ",
"              o p q 1 r 8 t . u 6 v w 6 . @     ",
"  . . . . . . z F G I . B K . k 6 M N 6 . @     ",
"  P Q o x y z R H I T U . V . 9 6 X Y < . @     ",
"  Z ` x  .A R +.S T #.$.%.V . &.6 l 6 n . @     ",
"  x y z R H I T U ;.>.,.. ).. !.6 D 6 E . @     ",
"  . . . . . . #.$.>.{.. '.^.. *.(.. . O . @     ",
"    # # # # # >.,.{.. '.:.[.. ~ . |.. 1.. @     ",
"              2.0.. ).^.[.c.. /.e.. . 6 . @     ",
"              f.. . 5.[.g.i.. j.l.m.6 6 . @     ",
"              . @ . [.b.h.o.. 7.q.6 m 6 . @     ",
"              # + . . . . . . k.6 D 6 6 . @     ",
"              # + . z.A.A.B.. p.6 M N 6 . @     ",
"              # + . A.B.B.A.. x.6 X Y < . @     ",
"A.B.B.A.B.B.B.A.B.B.A.A.B.B.. C.6 6 6 . z.z.A.B.",
"B.A.A.B.B.A.A.B.B.A.B.B.B.A.. D.6 l.6 z.A.A.B.B.",
"A.B.B.B.A.B.B.A.A.B.B.A.A.B.. E.J.e . A.B.B.A.A.",
"B.A.B.B.A.A.B.B.A.A.B.B.A.B.. L.. B.B.A.A.B.    ",
"    B.A.B.B.B.A.B.B.A.A.B.B.. . B.B.A.B.B.      "};
