/* XPM */
static char * sensor_R_xpm[] = {
"16 15 12 1",
" 	c None",
".	c #FFFFFF",
"+	c #E5E5E5",
"@	c #E8BD99",
"#	c #ED6E00",
"$	c #EB8933",
"%	c #E7CBB3",
"&	c #EA964C",
"*	c #EC7C1A",
"=	c #E9A366",
"-	c #E9B080",
";	c #E6D8CC",
"................",
"++++++++++++++++",
"++@######$%+++++",
"++%&#*&&&#*+++++",
"++++#&+++@#@++++",
"++++#&+++=#%++++",
"++++#*&&$#&+++++",
"++++#####-++++++",
"++++#&+-#=++++++",
"++++#&++$#@+++++",
"++;@#$@+;#*@%+++",
"++@####++-##&+++",
"++;@@@@+++@@%+++",
"++++++++++++++++",
"++++++++++++++++"};
