/* XPM */
static char * sensor_J_xpm[] = {
"16 15 12 1",
" 	c None",
".	c #FFFFFF",
"+	c #E5E5E5",
"@	c #EA964C",
"#	c #ED6E00",
"$	c #E9B080",
"%	c #EB8933",
"&	c #E8BD99",
"*	c #E9A366",
"=	c #EC7C1A",
"-	c #E7CBB3",
";	c #E6D8CC",
"................",
"++++++++++++++++",
"+++++@######@+++",
"+++++$@@%#%@$+++",
"++++++++&#&+++++",
"++++++++&#&+++++",
"++++++++&#&+++++",
"+++#@+++&#&+++++",
"+++#*+++&#&+++++",
"+++#*+++&#&+++++",
"+++#=-++@#;+++++",
"+++%#####@++++++",
"++++;$@@$+++++++",
"++++++++++++++++",
"++++++++++++++++"};
