/* XPM */
static char * simulationParameterLarge_xpm[] = {
"32 32 421 2",
"  	c None",
". 	c #525751",
"+ 	c #535A52",
"@ 	c #474C46",
"# 	c #343434",
"$ 	c #1A1A1A",
"% 	c #4C4E4B",
"& 	c #070C06",
"* 	c #9A9C99",
"= 	c #797979",
"- 	c #333333",
"; 	c #959595",
"> 	c #A4A4A4",
", 	c #0C0E0B",
"' 	c #B1B3B0",
") 	c #D6D6D6",
"! 	c #A6A6A6",
"~ 	c #A0A0A0",
"{ 	c #070707",
"] 	c #848484",
"^ 	c #999999",
"/ 	c #969696",
"( 	c #2A2A2A",
"_ 	c #C3C1C4",
": 	c #ACAAAD",
"< 	c #111111",
"[ 	c #3F3D40",
"} 	c #6B6B6B",
"| 	c #686868",
"1 	c #494949",
"2 	c #BEBEBE",
"3 	c #A3A3A3",
"4 	c #989699",
"5 	c #636164",
"6 	c #3C3A3D",
"7 	c #99979A",
"8 	c #2D2B2E",
"9 	c #C9C7CA",
"0 	c #9D9B9E",
"a 	c #898989",
"b 	c #E9E9E9",
"c 	c #BDBDBD",
"d 	c #7B7B7B",
"e 	c #747474",
"f 	c #272727",
"g 	c #929292",
"h 	c #9D9D9D",
"i 	c #A4A2A5",
"j 	c #A7A2A8",
"k 	c #9D989E",
"l 	c #79747A",
"m 	c #FAF5FB",
"n 	c #FFFDFF",
"o 	c #5D5B5E",
"p 	c #A19FA2",
"q 	c #9B9B9B",
"r 	c #676767",
"s 	c #FAFAFA",
"t 	c #E3E3E3",
"u 	c #5A5A5A",
"v 	c #818181",
"w 	c #4E4E4E",
"x 	c #9A9A9A",
"y 	c #9F9DA0",
"z 	c #C7C2C8",
"A 	c #D6D1D7",
"B 	c #FBF6FC",
"C 	c #CAC5CB",
"D 	c #161417",
"E 	c #505050",
"F 	c #565656",
"G 	c #777777",
"H 	c #313131",
"I 	c #626262",
"J 	c #A5A5A5",
"K 	c #A8A6A9",
"L 	c #CDCBCE",
"M 	c #DBD9DC",
"N 	c #FBF9FC",
"O 	c #CCCACD",
"P 	c #232124",
"Q 	c #4B4B4B",
"R 	c #727272",
"S 	c #707070",
"T 	c #353535",
"U 	c #040404",
"V 	c #979797",
"W 	c #A1A1A1",
"X 	c #C1C1C1",
"Y 	c #DFDFDF",
"Z 	c #FFFFFF",
"` 	c #434343",
" .	c #151515",
"..	c #545454",
"+.	c #B5B5B5",
"@.	c #C3C3C3",
"#.	c #CFD1CE",
"$.	c #D9DBD8",
"%.	c #9EA09D",
"&.	c #515350",
"*.	c #4F4F4F",
"=.	c #AFAFAF",
"-.	c #0E0E0E",
";.	c #ACACAC",
">.	c #9F9F9F",
",.	c #CDCFCC",
"'.	c #E4E9E3",
").	c #DBE2DA",
"!.	c #1F261E",
"~.	c #D8DFD7",
"{.	c #B0B0B0",
"].	c #000000",
"^.	c #666666",
"/.	c #ADADAD",
"(.	c #D6D8D5",
"_.	c #E8F2E7",
":.	c #697567",
"<.	c #8E9A8C",
"[.	c #F8FFF6",
"}.	c #3B3B3B",
"|.	c #BFBFBF",
"1.	c #E2E2E2",
"2.	c #DDE2DC",
"3.	c #95A193",
"4.	c #3A4B38",
"5.	c #EEFFEC",
"6.	c #F3FFF0",
"7.	c #131313",
"8.	c #C7C7C7",
"9.	c #D5D5D5",
"0.	c #DCE1DB",
"a.	c #1E2C1B",
"b.	c #3A4D37",
"c.	c #F0FFED",
"d.	c #8FA08D",
"e.	c #0D1E0B",
"f.	c #92A08F",
"g.	c #404040",
"h.	c #6D6D6D",
"i.	c #CBCBCB",
"j.	c #CDCDCD",
"k.	c #434842",
"l.	c #5E6C5B",
"m.	c #D2ECCF",
"n.	c #3F683C",
"o.	c #31632E",
"p.	c #538A50",
"q.	c #457A42",
"r.	c #C3ECC0",
"s.	c #E3FFE1",
"t.	c #D1D1D1",
"u.	c #292929",
"v.	c #C9C9C9",
"w.	c #DDDDDD",
"x.	c #A9A9A9",
"y.	c #4D4F4A",
"z.	c #9BA698",
"A.	c #466B42",
"B.	c #1E6D1C",
"C.	c #34A533",
"D.	c #31B52E",
"E.	c #048300",
"F.	c #278922",
"G.	c #D6FFD1",
"H.	c #5D805F",
"I.	c #95A69C",
"J.	c #717171",
"K.	c #0C0C0C",
"L.	c #282828",
"M.	c #ABABAB",
"N.	c #BBBBBB",
"O.	c #EAEAEA",
"P.	c #F9FEF8",
"Q.	c #83A980",
"R.	c #2D832C",
"S.	c #37B236",
"T.	c #21B51F",
"U.	c #22B91E",
"V.	c #007700",
"W.	c #005C00",
"X.	c #3E7B3F",
"Y.	c #12391A",
"Z.	c #5C7669",
"`.	c #636363",
" +	c #9E9E9E",
".+	c #C4C4C4",
"++	c #D8D8D8",
"@+	c #6A6A6A",
"#+	c #F9FFF9",
"$+	c #F2FFF3",
"%+	c #001700",
"&+	c #5A945A",
"*+	c #186716",
"=+	c #003D00",
"-+	c #138B0F",
";+	c #30AF2C",
">+	c #32AA2F",
",+	c #389C3A",
"'+	c #135F17",
")+	c #023009",
"!+	c #2C4734",
"~+	c #C4D5CB",
"{+	c #F5FFFA",
"]+	c #ECFFEE",
"^+	c #F1FFF1",
"/+	c #575757",
"(+	c #696969",
"_+	c #DEDEDE",
":+	c #C2C2C2",
"<+	c #4A4A4A",
"[+	c #F7FEF7",
"}+	c #C2D9C5",
"|+	c #C3E4C7",
"1+	c #486747",
"2+	c #8BB488",
"3+	c #A9E7A4",
"4+	c #005000",
"5+	c #2AA129",
"6+	c #26A927",
"7+	c #003C00",
"8+	c #094C07",
"9+	c #123B11",
"0+	c #1F3520",
"a+	c #738376",
"b+	c #455C48",
"c+	c #E3FFE9",
"d+	c #121212",
"e+	c #595959",
"f+	c #252525",
"g+	c #FBFBFB",
"h+	c #F5F5F5",
"i+	c #FCFCFC",
"j+	c #202020",
"k+	c #E3E9E5",
"l+	c #BFD6C6",
"m+	c #CBE2D0",
"n+	c #DFEADC",
"o+	c #9DB899",
"p+	c #225E20",
"q+	c #258E29",
"r+	c #004A00",
"s+	c #008A00",
"t+	c #1D9C1B",
"u+	c #001B00",
"v+	c #1D3D16",
"w+	c #3F523C",
"x+	c #9AB1A1",
"y+	c #A2BAAC",
"z+	c #212121",
"A+	c #454545",
"B+	c #3C3C3C",
"C+	c #FEFEFE",
"D+	c #393939",
"E+	c #F9F9F9",
"F+	c #2C2C2C",
"G+	c #C7CBCA",
"H+	c #BDCCC5",
"I+	c #C0CDC6",
"J+	c #CBC6CC",
"K+	c #CCC8C9",
"L+	c #C6CEC3",
"M+	c #2A4E28",
"N+	c #25762A",
"O+	c #239229",
"P+	c #006C00",
"Q+	c #005800",
"R+	c #1B8111",
"S+	c #0B5500",
"T+	c #001900",
"U+	c #0C2708",
"V+	c #0C1E12",
"W+	c #EAF9F6",
"X+	c #262626",
"Y+	c #B8B8B8",
"Z+	c #F7F7F7",
"`+	c #5E5E5E",
" @	c #BCBCBE",
".@	c #C6C7CC",
"+@	c #CDCCD2",
"@@	c #C1BCC2",
"#@	c #CECACB",
"$@	c #CED3CC",
"%@	c #C0D8C2",
"&@	c #497A4D",
"*@	c #07520F",
"=@	c #228324",
"-@	c #258F23",
";@	c #005D00",
">@	c #045A00",
",@	c #3C7733",
"'@	c #001100",
")@	c #3C4741",
"!@	c #FBFBFF",
"~@	c #D0D0D0",
"{@	c #C5C5C5",
"]@	c #D7D7D7",
"^@	c #A2A2A2",
"/@	c #A9A1AC",
"(@	c #A69EA9",
"_@	c #9E9C9F",
":@	c #C4C6C3",
"<@	c #C0C5BF",
"[@	c #BBC8BE",
"}@	c #CEE5D3",
"|@	c #AFD7B5",
"1@	c #3D783E",
"2@	c #003F00",
"3@	c #1B7013",
"4@	c #227219",
"5@	c #567C55",
"6@	c #E9F2EF",
"7@	c #FFFCFF",
"8@	c #CACACA",
"9@	c #E7E7E7",
"0@	c #A49FA3",
"a@	c #A397A1",
"b@	c #AAA0A8",
"c@	c #BFC4C0",
"d@	c #BDC8C0",
"e@	c #BDC6C1",
"f@	c #C5CBC9",
"g@	c #C0C1C3",
"h@	c #CACFCB",
"i@	c #C9DCC9",
"j@	c #A9CDA9",
"k@	c #2E652E",
"l@	c #003B00",
"m@	c #114612",
"n@	c #CBEECD",
"o@	c #F9FFFB",
"p@	c #BABABA",
"q@	c #AEAEAE",
"r@	c #A09E9F",
"s@	c #ABA2A5",
"t@	c #B1ABAB",
"u@	c #C0C6C2",
"v@	c #B9C4BE",
"w@	c #B8C1C0",
"x@	c #C9BDC9",
"y@	c #D4C6D3",
"z@	c #D3C9D1",
"A@	c #DEE3DF",
"B@	c #ABC4AF",
"C@	c #92B69A",
"D@	c #83A78B",
"E@	c #EAFFEF",
"F@	c #F9FFF8",
"G@	c #FFFFFB",
"H@	c #CECECE",
"I@	c #C8C8C8",
"J@	c #CCCCCC",
"K@	c #D2D2D2",
"L@	c #C0C0C0",
"M@	c #8D8D8D",
"N@	c #A9AAA5",
"O@	c #A5A59B",
"P@	c #B8BAAF",
"Q@	c #D0D6D2",
"R@	c #D0D5D8",
"S@	c #D0D0D8",
"T@	c #D5CFDB",
"U@	c #CDBDCA",
"V@	c #C9B4C3",
"W@	c #D2BDCC",
"X@	c #DFD1E0",
"Y@	c #D9D5E3",
"Z@	c #D9E0E8",
"`@	c #D1DDDD",
" #	c #F5FFFD",
".#	c #F1FFEE",
"+#	c #F4FFED",
"@#	c #E6E6E6",
"##	c #C6C6C6",
"$#	c #BCBEB9",
"%#	c #C0C4B5",
"&#	c #CDD4C4",
"*#	c #D8DAD7",
"=#	c #CFCED4",
"-#	c #CFC9D7",
";#	c #DBD0E0",
">#	c #DCCFD9",
",#	c #D8C6D2",
"'#	c #E1CCDB",
")#	c #D6C3D6",
"!#	c #D8C6E0",
"~#	c #DBCEE8",
"{#	c #E8E5F6",
"]#	c #FBFFFF",
"^#	c #F5FFEF",
"/#	c #E5E5E5",
"(#	c #CFCFCF",
"_#	c #AAAAAA",
":#	c #DEE0DB",
"<#	c #D0D9C8",
"[#	c #E0E6D8",
"}#	c #E6E4E5",
"|#	c #E0D8E3",
"1#	c #E1D5E3",
"2#	c #E9DDEB",
"3#	c #EBE1E9",
"4#	c #E0D7DA",
"5#	c #E2D9DE",
"6#	c #E0D4E0",
"7#	c #F1E2F7",
"8#	c #ECDEF7",
"9#	c #F8EFFF",
"0#	c #FDFCFF",
"a#	c #F7FFF4",
"b#	c #E4E4E4",
"c#	c #DCDED9",
"d#	c #DBE3D8",
"e#	c #F1F7ED",
"f#	c #FDF9F8",
"g#	c #FFFBFF",
"h#	c #FFFAFF",
"i#	c #FFF4FE",
"j#	c #F8F3F7",
"k#	c #E3E3E1",
"l#	c #FAF2FD",
"m#	c #FBFCFF",
"n#	c #F5F9FA",
"                                                                ",
"                                . + @                           ",
"                            # $ % & *                           ",
"                          = - ; > ,       ' )                   ",
"  ! ~                     { ] ^ / ( _   : < [                   ",
"  } | 1 2                 # 3 ! 4 5 6 7 8 9 4 0                 ",
"  a b c d e               f g h i j k l m n o p                 ",
"  q r s t u v             w x ^ y z A B n C D                   ",
"      E F G G H >         I J ~ K L M N O P M                   ",
"            Q R S T ^     U V W X Y Z ( h                       ",
"              > ` > G T  ...+.@.#.$.%.&.                        ",
"                  *.x =.-.;.>.,.'.).!.~.                        ",
"                    {.].^./.;.(._.:.<.[.                        ",
"                    g }.q |.1.2.3.4.5.6.                        ",
"                    7.q h 8.9.0.a.b.c.d.e.f.                    ",
"                  g.h./ i.j.Z k.l.m.n.o.p.q.r.s.                ",
"            t.! r u.! ! v.w.x.y.z.A.B.C.D.E.F.G.H.I.            ",
"          J. .K.L.M.x.N.O.j.7.P.[.Q.R.S.T.U.V.W.X.Y.Z.          ",
"        h ].`. + +q .+i.++@+=.#+$+%+&+*+=+-+;+>+,+'+)+!+~+{+]+^+",
"        ]./+g > (+V _+_+Z :+<+[+}+|+1+2+3+4+5+6+V.7+8+9+0+a+b+c+",
"        T >.*.d+e+f+> g+h+i+j+k+l+m+).n+o+p+q+r+s+t+7+u+v+w+x+y+",
"        z+A+B+h+C+++D+Z Z E+F+G+H+I+J+K+L+M+N+O+P+Q+R+S+T+U+V+W+",
"        >.X+Y+Z Z Z+j+C+Z x `+ @.@+@@@#@$@%@&@*@=@-@;@>@,@'@)@!@",
"      _+~@{@1.]@E+t.X+C+~@K.^@O /@(@_@:@<@[@}@|@1@2@3@4@=+5@6@7@",
"      9.8@c v.j.9@B+^ J ].d ! 0@a@b@c@d@e@f@g@h@i@j@k@l@m@n@o@7@",
"      v.p@/.c @..+/+T B+q@x.~ r@s@t@u@v@w@.@x@y@z@A@B@C@D@E@F@G@",
"      _+H@c I@J@) K@i.L@{@M@3 N@O@P@Q@R@S@T@U@V@W@X@Y@Z@`@ #.#+#",
"        @#t.~@8@##v.2 i.:+t./.$#%#&#*#=#-#;#>#,#'#)#!#~#{#]#[.^#",
"          /#w.(#) L@|.Y+{@.+_#:#<#[#}#|#1#2#3#4#5#6#7#8#9#0#o@a#",
"              b b#J@9.++j.(#w.c#d#e#f#g#h#i#j#t k#@#g#l#g#7@m#n#",
"                                                                ",
"                                                                "};
