/* XPM */
static char * stepButton_xpm[] = {
"25 25 108 2",
"  	c None",
". 	c #89C7D3",
"+ 	c #87C6CC",
"@ 	c #6DA1A1",
"# 	c #8DC7D3",
"$ 	c #8EC7D3",
"% 	c #AEFFFF",
"& 	c #8CDCE4",
"* 	c #568EA1",
"= 	c #88C7D3",
"- 	c #8CC7D3",
"; 	c #ACFFFF",
"> 	c #99F2FF",
", 	c #82DAFF",
"' 	c #5FACE4",
") 	c #7BC2D3",
"! 	c #81C7D3",
"~ 	c #A0F9FF",
"{ 	c #90E8FF",
"] 	c #7BD2FF",
"^ 	c #64BAFF",
"/ 	c #4EA3FF",
"( 	c #3580E4",
"_ 	c #5691B8",
": 	c #71B7D3",
"< 	c #8DE5FF",
"[ 	c #80D7FF",
"} 	c #6EC5FF",
"| 	c #5BB0FF",
"1 	c #489CFF",
"2 	c #378AFF",
"3 	c #287BFF",
"4 	c #1857C6",
"5 	c #4681B8",
"6 	c #6EBDEA",
"7 	c #76CDFF",
"8 	c #6CC2FF",
"9 	c #5EB4FF",
"0 	c #4FA3FF",
"a 	c #3F93FF",
"b 	c #3184FF",
"c 	c #2576FF",
"d 	c #1B6CFF",
"e 	c #1363FF",
"f 	c #093BA1",
"g 	c #3771B8",
"h 	c #58A6EA",
"i 	c #5FB5FF",
"j 	c #58ADFF",
"k 	c #4EA2FF",
"l 	c #4295FF",
"m 	c #3588FF",
"n 	c #2A7CFF",
"o 	c #2071FF",
"p 	c #1868FF",
"q 	c #1160FF",
"r 	c #0C5BFF",
"s 	c #084DE4",
"t 	c #2A63B8",
"u 	c #4391EA",
"v 	c #499EFF",
"w 	c #4599FF",
"x 	c #3D91FF",
"y 	c #3587FF",
"z 	c #2C7DFF",
"A 	c #2374FF",
"B 	c #1B6BFF",
"C 	c #1464FF",
"D 	c #0F5DFF",
"E 	c #073FBD",
"F 	c #00267E",
"G 	c #1E58B8",
"H 	c #327EEA",
"I 	c #378BFF",
"J 	c #3487FF",
"K 	c #2F82FF",
"L 	c #297BFF",
"M 	c #2273FF",
"N 	c #1C6CFF",
"O 	c #1665FF",
"P 	c #0D4ED5",
"Q 	c #001850",
"R 	c #164FB8",
"S 	c #2470EA",
"T 	c #2678FF",
"U 	c #2375FF",
"V 	c #1F70FF",
"W 	c #0C44BD",
"X 	c #1044A1",
"Y 	c #0F48B8",
"Z 	c #1C6EFF",
"` 	c #1D6EFF",
" .	c #1C6DFF",
"..	c #1A6AFF",
"+.	c #1767FF",
"@.	c #0D46BD",
"#.	c #0B3FA1",
"$.	c #063499",
"%.	c #0D45BD",
"&.	c #083AA1",
"*.	c #043299",
"=.	c #0E5DFF",
"-.	c #0943BD",
";.	c #042A7D",
">.	c #002272",
",.	c #00257C",
"'.	c #001547",
").	c #00164C",
"                                                  ",
"                                                  ",
"                                                  ",
"                                                  ",
"                                                  ",
"                                                  ",
"          . + @                                   ",
"          # $ % & *                               ",
"          = - ; > , '                             ",
"          ) ! ~ { ] ^ / (                         ",
"          _ : < [ } | 1 2 3 4                     ",
"          5 6 7 8 9 0 a b c d e f                 ",
"          g h i j k l m n o p q r s               ",
"          t u v w x y z A B C D E F F             ",
"          G H I J K L M N O P F F F Q             ",
"          R S 3 T U V B O W F F Q                 ",
"        X Y Z `  ...+.@.F F Q                     ",
"        #.$.C C C %.F F F                         ",
"        &.*.=.-.F F F Q                           ",
"        ;.>.,.F F Q                               ",
"          '.).Q                                   ",
"                                                  ",
"                                                  ",
"                                                  ",
"                                                  "};
