/* XPM */
static char * stopButton_xpm[] = {
"25 25 124 2",
"  	c None",
". 	c #E49191",
"+ 	c #E49797",
"@ 	c #E49292",
"# 	c #E48484",
"$ 	c #E47171",
"% 	c #E45C5C",
"& 	c #E44747",
"* 	c #E43535",
"= 	c #E42626",
"- 	c #FF1C1C",
"; 	c #FF1313",
"> 	c #FF0D0D",
", 	c #FF0909",
"' 	c #6B0000",
") 	c #FFAFAF",
"! 	c #FFB5B5",
"~ 	c #FFAEAE",
"{ 	c #FF9E9E",
"] 	c #FF8787",
"^ 	c #FF6D6D",
"/ 	c #FF5555",
"( 	c #FF3F3F",
"_ 	c #FF2D2D",
": 	c #FF2020",
"< 	c #FF1616",
"[ 	c #FF0F0F",
"} 	c #FF0A0A",
"| 	c #8B0000",
"1 	c #A16969",
"2 	c #FFB3B3",
"3 	c #FFB9B9",
"4 	c #FFA3A3",
"5 	c #FF8C8C",
"6 	c #FF7272",
"7 	c #FF5959",
"8 	c #FF4343",
"9 	c #FF3030",
"0 	c #FF2222",
"a 	c #FF1818",
"b 	c #FF1010",
"c 	c #FF0B0B",
"d 	c #A16666",
"e 	c #FFACAC",
"f 	c #FFB2B2",
"g 	c #FFADAD",
"h 	c #FF8989",
"i 	c #FF7171",
"j 	c #FF3131",
"k 	c #FF2323",
"l 	c #FF1111",
"m 	c #A15C5C",
"n 	c #FF9B9B",
"o 	c #FFA1A1",
"p 	c #FF9191",
"q 	c #FF7F7F",
"r 	c #FF6969",
"s 	c #FF5454",
"t 	c #FF4040",
"u 	c #A14F4F",
"v 	c #FF8484",
"w 	c #FF8A8A",
"x 	c #FF8888",
"y 	c #FF7E7E",
"z 	c #FF6F6F",
"A 	c #FF5E5E",
"B 	c #FF4B4B",
"C 	c #FF3B3B",
"D 	c #FF2C2C",
"E 	c #FF1717",
"F 	c #A14040",
"G 	c #FF6B6B",
"H 	c #FF7070",
"I 	c #FF5050",
"J 	c #FF4141",
"K 	c #FF3333",
"L 	c #FF2727",
"M 	c #FF1D1D",
"N 	c #FF1515",
"O 	c #A13232",
"P 	c #FF5353",
"Q 	c #FF5858",
"R 	c #FF4C4C",
"S 	c #FF3636",
"T 	c #FF2B2B",
"U 	c #FF2121",
"V 	c #FF1919",
"W 	c #ED0909",
"X 	c #C62C2C",
"Y 	c #FF3A3A",
"Z 	c #FF3434",
"` 	c #FF0C0C",
" .	c #ED0808",
"..	c #C62020",
"+.	c #FF2E2E",
"@.	c #FF3232",
"#.	c #FF2F2F",
"$.	c #FF2828",
"%.	c #ED0707",
"&.	c #C61717",
"*.	c #FF1E1E",
"=.	c #FF1A1A",
"-.	c #FF1212",
";.	c #FF0E0E",
">.	c #FF0808",
",.	c #ED0606",
"'.	c #C61010",
").	c #FF0707",
"!.	c #ED0505",
"~.	c #7C0000",
"{.	c #C60B0B",
"].	c #FF0505",
"^.	c #ED0404",
"/.	c #810505",
"(.	c #C10707",
"_.	c #C10808",
":.	c #C10606",
"<.	c #C10505",
"[.	c #C10404",
"}.	c #C10303",
"|.	c #A70101",
"1.	c #7A0000",
"2.	c #6A0000",
"3.	c #570000",
"                                                  ",
"                                                  ",
"                                                  ",
"                                                  ",
"                                                  ",
"                                                  ",
"          . + @ # $ % & * = - ; > , '             ",
"          ) ! ~ { ] ^ / ( _ : < [ } |             ",
"        1 2 3 2 4 5 6 7 8 9 0 a b c |             ",
"        d e f g { h i 7 8 j k a l c |             ",
"        m n o { p q r s t 9 0 a l c |             ",
"        u v w x y z A B C D : E b c |             ",
"        F G i H r A I J K L M N [ } |             ",
"        O P Q Q s R J S T U V ; > W |             ",
"        X ( 8 8 t Y Z T k - N b `  .|             ",
"        ..+.j @.#._ $.0 - < l > } %.|             ",
"        &.: k k k U *.=.< -.;.c >.,.|             ",
"        '.E a V V a < ; b ;.c , ).!.~.            ",
"        {.[ l -.-.l b ;.` } >.).].^.~.            ",
"        /.(._._._._.(.(.:.<.[.}.}.|.~.            ",
"          1.1.1.1.1.1.2.2.2.2.2.2.2.3.            ",
"                                                  ",
"                                                  ",
"                                                  ",
"                                                  "};
