/* XPM */
static char * videodisallow_xpm[] = {
"25 25 153 2",
"  	c None",
". 	c #A1A1A1",
"+ 	c #838383",
"@ 	c #8E8E8E",
"# 	c #B2B2B2",
"$ 	c #7A7A7A",
"% 	c #A8A8A8",
"& 	c #B5B5B5",
"* 	c #646464",
"= 	c #171717",
"- 	c #090909",
"; 	c #101010",
"> 	c #404040",
", 	c #9B9B9B",
"' 	c #949494",
") 	c #303030",
"! 	c #0B0B0B",
"~ 	c #0A0A0A",
"{ 	c #232323",
"] 	c #727272",
"^ 	c #C8C8C8",
"/ 	c #464646",
"( 	c #040404",
"_ 	c #000000",
": 	c #1A1A1A",
"< 	c #9E9E9E",
"[ 	c #858585",
"} 	c #131313",
"| 	c #080808",
"1 	c #5F5F5F",
"2 	c #656565",
"3 	c #3C3C3C",
"4 	c #909090",
"5 	c #242424",
"6 	c #070707",
"7 	c #888888",
"8 	c #C6C6C6",
"9 	c #353535",
"0 	c #0E0E0E",
"a 	c #333333",
"b 	c #020202",
"c 	c #505050",
"d 	c #B4B4B4",
"e 	c #202020",
"f 	c #313131",
"g 	c #C3C3C3",
"h 	c #B9B9B9",
"i 	c #1D1D1D",
"j 	c #010101",
"k 	c #BEBEBE",
"l 	c #272727",
"m 	c #787878",
"n 	c #CCCCCC",
"o 	c #060606",
"p 	c #676767",
"q 	c #BDBDBD",
"r 	c #585858",
"s 	c #030303",
"t 	c #8A8A8A",
"u 	c #D7D7D7",
"v 	c #CFCFCF",
"w 	c #616161",
"x 	c #474747",
"y 	c #D3D3D3",
"z 	c #B7B7B7",
"A 	c #BBBBBB",
"B 	c #C7C7C7",
"C 	c #535353",
"D 	c #222222",
"E 	c #141414",
"F 	c #151515",
"G 	c #3E3E3E",
"H 	c #7B7B7B",
"I 	c #DEDEDE",
"J 	c #6F6F6F",
"K 	c #B0B0B0",
"L 	c #ACACAC",
"M 	c #AAAAAA",
"N 	c #939393",
"O 	c #252525",
"P 	c #636363",
"Q 	c #A2A2A2",
"R 	c #414141",
"S 	c #878787",
"T 	c #919191",
"U 	c #111111",
"V 	c #1F1414",
"W 	c #2C0202",
"X 	c #160606",
"Y 	c #8E8D8D",
"Z 	c #D2D2D2",
"` 	c #050505",
" .	c #040000",
"..	c #190000",
"+.	c #0C0000",
"@.	c #060101",
"#.	c #5C0202",
"$.	c #C20303",
"%.	c #520707",
"&.	c #8F8D8D",
"*.	c #737373",
"=.	c #220000",
"-.	c #9A0202",
";.	c #790202",
">.	c #632222",
",.	c #CB1212",
"'.	c #BE0606",
").	c #300707",
"!.	c #180000",
"~.	c #E00303",
"{.	c #DA1818",
"].	c #F12020",
"^.	c #B05555",
"/.	c #312C2C",
"(.	c #757575",
"_.	c #010000",
":.	c #2A0000",
"<.	c #C40202",
"[.	c #F70505",
"}.	c #F81010",
"|.	c #D8CDCD",
"1.	c #A5A5A5",
"2.	c #B8B8B8",
"3.	c #2C2C2C",
"4.	c #252424",
"5.	c #481818",
"6.	c #CE0707",
"7.	c #F40B0B",
"8.	c #F80707",
"9.	c #E2E2E2",
"0.	c #6B6B6B",
"a.	c #0D0D0D",
"b.	c #7C6C6C",
"c.	c #CA4545",
"d.	c #EE1919",
"e.	c #E45555",
"f.	c #F80D0D",
"g.	c #F90404",
"h.	c #BCBCBC",
"i.	c #262626",
"j.	c #030202",
"k.	c #651F1F",
"l.	c #EC1919",
"m.	c #F71010",
"n.	c #B1B1B1",
"o.	c #515151",
"p.	c #525050",
"q.	c #834747",
"r.	c #D84F4F",
"s.	c #C1C1C1",
"t.	c #B6B6B6",
"u.	c #BAB2B2",
"v.	c #D3BFBF",
"                                                  ",
"          . + + @             # + @ $ %           ",
"      & * = - - ; > ,       ' ) ! - ~ { ]         ",
"    ^ / ( _ _ _ _ _ : <   [ } _ _ _ _ _ | 1       ",
"    2 ( _ _ _ _ _ _ _ 3 4 5 _ _ _ _ _ _ _ 6 7     ",
"  8 9 _ _ _ _ _ _ _ _ 0 a ( _ _ _ _ _ _ _ b c     ",
"  d e _ _ _ _ _ _ _ _ _ b _ _ _ _ _ _ _ _ _ f g   ",
"  h { _ _ _ _ _ _ _ _ | i b _ _ _ _ _ _ _ j 9 k   ",
"    / j _ _ _ _ _ _ _ l m ! _ _ _ _ _ _ _ b c n   ",
"    [ 0 _ _ _ _ _ _ o p q r s _ _ _ _ _ _ } t u   ",
"    v w ! _ _ _ _ _ x 8 y z f _ _ _ _ j } w A     ",
"      B C ( _ _ _ _ = 5 5 D E _ _ _ F G H d I     ",
"        J o _ _ _ _ _ _ _ _ _ _ _ j w K L 1 M     ",
"      N O j _ _ _ _ _ _ _ _ _ _ _ j P Q R ! S     ",
"      T 5 b _ _ _ _ _ _ _ _ _ _ _ _ U V W X Y     ",
"      Z 1 ` _ _ _ _ _ _ _ _ _  ...+.@.#.$.%.&.    ",
"        *.o _ _ _ _ _ _ _ _ _ =.-.;.>.,.'.).Y     ",
"        $ 6 _ _ _ _ _ _ _ _ _ !.-.~.{.].^./.4     ",
"        (.o _ _ _ _ _ _ _ _ _ _.:.<.[.}.|.1.2.    ",
"        S 3.{ { | _ _ _ _ _ 0 4.5.6.7.8.    9.    ",
"          K % 0.a._ _ _ _ _ F b.c.d.e.f.g.        ",
"            h.i.b j j j j j j.k.l.m.    g.        ",
"            n.1 o.o.o.o.o.o.p.q.r.                ",
"              s.t.t.t.t.t.t.t.u.v.                ",
"                                                  "};
