/* XPM */
static char * eyefinalsmall_xpm[] = {
"24 24 208 2",
"  	c None",
". 	c #FFFFFF",
"+ 	c #FBF1F1",
"@ 	c #F7E1E1",
"# 	c #FEFCFC",
"$ 	c #F3D2D2",
"% 	c #FEFEFE",
"& 	c #FEFDFD",
"* 	c #F5DDDD",
"= 	c #F8E7E7",
"- 	c #FEFBFB",
"; 	c #FDFAFA",
"> 	c #EFF1F9",
", 	c #C7CFEC",
"' 	c #B5C0E6",
") 	c #BBC5E8",
"! 	c #D8DDF2",
"~ 	c #FDFDFE",
"{ 	c #ECB7B7",
"] 	c #E7A2A2",
"^ 	c #E18B8B",
"/ 	c #DA7070",
"( 	c #F5F7FB",
"_ 	c #A9B5E2",
": 	c #7487D0",
"< 	c #7387D0",
"[ 	c #8495D5",
"} 	c #D6DCF1",
"| 	c #F5DBDB",
"1 	c #E18E8E",
"2 	c #D76868",
"3 	c #E6A1A1",
"4 	c #F8F9FC",
"5 	c #8B9CD8",
"6 	c #7B8ED2",
"7 	c #7F91D2",
"8 	c #7E90D2",
"9 	c #788AD1",
"0 	c #CAD2ED",
"a 	c #EBB3B3",
"b 	c #EAEAEA",
"c 	c #788CD1",
"d 	c #8394D4",
"e 	c #8998D6",
"f 	c #4B516C",
"g 	c #222224",
"h 	c #2D3039",
"i 	c #7480B2",
"j 	c #8898D5",
"k 	c #7F91D3",
"l 	c #7D8FD3",
"m 	c #F4F6FB",
"n 	c #FCFCFC",
"o 	c #E3E3E3",
"p 	c #7F92D4",
"q 	c #798CD1",
"r 	c #8495D4",
"s 	c #687298",
"t 	c #141414",
"u 	c #0A0A0A",
"v 	c #080808",
"w 	c #282A32",
"x 	c #8C9BD6",
"y 	c #788BD1",
"z 	c #C9D0ED",
"A 	c #FDFBFB",
"B 	c #F8F7F7",
"C 	c #DCDCDC",
"D 	c #C3C3C3",
"E 	c #6E82CE",
"F 	c #5B6482",
"G 	c #020202",
"H 	c #040404",
"I 	c #17181A",
"J 	c #8C9CD6",
"K 	c #B8C2E7",
"L 	c #F2D1D1",
"M 	c #E8A8A8",
"N 	c #E4B6B6",
"O 	c #D0B6B6",
"P 	c #B7A5A5",
"Q 	c #EDBBBB",
"R 	c #F2D0D0",
"S 	c #7F8CBE",
"T 	c #1B1C1F",
"U 	c #0B0B0B",
"V 	c #0D0D0D",
"W 	c #4B526A",
"X 	c #F6E0E0",
"Y 	c #EAB2B2",
"Z 	c #DF8888",
"` 	c #D27171",
" .	c #C47474",
"..	c #B56969",
"+.	c #E49797",
"@.	c #F6DFDF",
"#.	c #8494D4",
"$.	c #8A99D6",
"%.	c #7D8ABD",
"&.	c #555E7D",
"*.	c #646F95",
"=.	c #8B9AD6",
"-.	c #FBF2F2",
";.	c #EDB8B8",
">.	c #EEC0C0",
",.	c #EDD1D1",
"'.	c #D5BEBE",
").	c #BDB2B2",
"!.	c #AB9898",
"~.	c #FAEEEE",
"{.	c #8092D3",
"].	c #8293D4",
"^.	c #FEFAFA",
"/.	c #F1CCCC",
"(.	c #DBA7A7",
"_.	c #CABCBC",
":.	c #B2B2B2",
"<.	c #AAAAAA",
"[.	c #7688D0",
"}.	c #768AD0",
"|.	c #8496D6",
"1.	c #EFC5C5",
"2.	c #F8E8E8",
"3.	c #E9D2D2",
"4.	c #CC8080",
"5.	c #BC7D7D",
"6.	c #AAA7A7",
"7.	c #FCF7F7",
"8.	c #F0C8C8",
"9.	c #C9D1ED",
"0.	c #BEC7E9",
"a.	c #D9DEF2",
"b.	c #FAEFEF",
"c.	c #F9E9E9",
"d.	c #E69E9E",
"e.	c #DB8787",
"f.	c #DACBCB",
"g.	c #C3A8A8",
"h.	c #B37373",
"i.	c #AAA6A6",
"j.	c #F6DEDE",
"k.	c #FAEBEB",
"l.	c #F7E5E5",
"m.	c #E49696",
"n.	c #ECB5B5",
"o.	c #EBC6C6",
"p.	c #D07B7B",
"q.	c #C8ADAD",
"r.	c #B49C9C",
"s.	c #B25D5D",
"t.	c #AB9A9A",
"u.	c #EBB4B4",
"v.	c #F3D4D4",
"w.	c #F2D2D2",
"x.	c #E09E9E",
"y.	c #D28888",
"z.	c #C25050",
"A.	c #B69A9A",
"B.	c #B35858",
"C.	c #AD8181",
"D.	c #E6A0A0",
"E.	c #E59B9B",
"F.	c #E7A6A6",
"G.	c #E8A7A7",
"H.	c #EEBEBE",
"I.	c #E5A4A4",
"J.	c #EAE3E3",
"K.	c #DAD7D7",
"L.	c #C7B8B8",
"M.	c #B86767",
"N.	c #AC9292",
"O.	c #AB9E9E",
"P.	c #AE7A7A",
"Q.	c #F0C6C6",
"R.	c #D45A5A",
"S.	c #ECB8B8",
"T.	c #FDFCFC",
"U.	c #F9F9F9",
"V.	c #ECE4E4",
"W.	c #D49494",
"X.	c #CFB7B7",
"Y.	c #C0C0C0",
"Z.	c #B19A9A",
"`.	c #B25E5E",
" +	c #AB9B9B",
".+	c #FDFDFD",
"++	c #F0D7D7",
"@+	c #D87676",
"#+	c #E7C7C7",
"$+	c #E7E6E6",
"%+	c #DEDEDE",
"&+	c #D1CECE",
"*+	c #C38484",
"=+	c #B96C6C",
"-+	c #AE8C8C",
";+	c #AD8B8B",
">+	c #AF7979",
",+	c #AAA4A4",
"'+	c #DCD2D2",
")+	c #CE9A9A",
"!+	c #C98989",
"~+	c #C7A8A8",
"{+	c #BFBEBE",
"]+	c #B6B6B6",
"^+	c #AE9F9F",
"/+	c #AF7A7A",
"(+	c #B16E6E",
"_+	c #AF7B7B",
"                                                ",
"                                                ",
"                  . + @ # . . $                 ",
"            . . . . . % . . & * = .             ",
"          . . . . . . . . . . % % - ;           ",
"        . . . > , ' ) ! ~ . . . + { ] ^ /       ",
"      . . ( _ : < < < < [ } . . ; | 1 2 3       ",
"    . . 4 5 6 7 7 7 7 7 8 9 0 . . + a * - b     ",
"    . . ' c d e f g h i j k l m . . # . n o     ",
"  . . . p q r s t u v w x d y z . . & A B C D   ",
"  # & . E q r F t G H I J r q K . & L M N O P   ",
"  Q R & p q r S T U V W x d y z ; X Y Z `  ...  ",
"  +.@.. ' c #.$.%.&.*.=.j 8 6 m -.;.>.,.'.).!.  ",
"  ~.% . 4 5 6 {.d r #.].8 c 0 . & ^./.(._.:.<.  ",
"  . . . & ( _ [.y q q }.|.} . ~.1.2.3.4.5.6.<.  ",
"    . 7.8.~.. > 9.K 0.a.~ ; b.c.d.e.f.g.h.i.    ",
"    . j.1 k.. . . & . . & l.m.n.o.p.q.r.s.t.    ",
"      u.+.; . -.2.v.& & R | w.x.y.z.A.!.B.C.    ",
"      D.E.A - a F.G.A & H.I.J.K.L.M.N.O.P.      ",
"        Q.& & u.R.S.T.U.V.W.X.Y.Z.`. +<.        ",
"          .+U.++@+#+$+%+&+*+=+-+;+>+,+          ",
"              '+)+!+~+{+]+^+/+(+_+              ",
"                                                ",
"                                                "};
