/* XPM */
static const char* const image0_data[] = { 
"16 16 20 1",
". c None",
"# c #000000",
"h c #00444a",
"m c #004c52",
"d c #005962",
"k c #00656a",
"p c #006d73",
"g c #006d7b",
"l c #00717b",
"f c #298994",
"e c #41999c",
"n c #7b7d7b",
"a c #838183",
"q c #a4a1a4",
"i c #c5c2c5",
"o c #cdcecd",
"c c #dedade",
"j c #deeaee",
"r c #eeeaee",
"b c #ffffff",
"...#########..a#",
"...#bbbcccc#..a#",
"...#bdefghi#..a#",
"...#bfjefki#..a#",
"...#bdeflmn#..a#",
"...#ciiiiii#..a#",
"###########...a#",
"#bbbccoc#ci#aab#",
"#bdefphi#qq###a#",
"#bfjefli####..a#",
"#bdefphn#.....a#",
"#ciiiiii#.....a#",
".#######......a#",
"#brrrcci#aaaaab#",
"#rqqqqqq#######.",
"#########......."};


