/* XPM */
static const char* const image4_data[] = { 
"40 40 180 2",
".a c None",
".# c None",
"Qt c None",
"aX c #001c00",
"aV c #002000",
"aU c #002400",
"aR c #002800",
"aP c #002c00",
"aO c #003000",
"aM c #003400",
"aG c #003c00",
"aI c #004000",
"aW c #082000",
"aT c #082400",
"aS c #082800",
"aQ c #082c00",
"aN c #083000",
"#d c #083400",
"aL c #083800",
".3 c #083c00",
"aK c #083c08",
"aH c #084000",
"aJ c #084008",
"#m c #084400",
"#w c #084800",
"#l c #084c00",
".O c #085000",
"#c c #085500",
"#a c #085900",
".B c #085d00",
"#e c #086100",
".C c #086500",
".o c #086900",
".Q c #086d00",
".S c #087100",
".T c #087500",
"#x c #087900",
".c c #087d00",
".e c #088100",
".r c #088900",
".t c #088d00",
"#n c #105900",
"#b c #105d00",
".4 c #106500",
".N c #106508",
".P c #106900",
".2 c #106d00",
".R c #107100",
".5 c #107500",
".A c #107508",
".p c #107900",
".f c #107d00",
"aw c #107d08",
".b c #108100",
".q c #108500",
"#E c #108508",
".d c #108900",
".s c #108d00",
"#R c #108d08",
".g c #109100",
".E c #109108",
".h c #109500",
"ac c #109508",
".i c #109900",
".j c #109d00",
"#k c #186110",
".1 c #187508",
".0 c #187910",
"ax c #187d08",
"ay c #188108",
"aA c #188510",
"#f c #188d08",
".D c #189108",
".6 c #189110",
".l c #189508",
".z c #189908",
"#4 c #189910",
".k c #189d08",
".n c #189d10",
"ap c #18a108",
"aF c #207d18",
".Z c #208118",
"az c #208510",
".Y c #208518",
"aB c #208918",
".m c #209510",
".7 c #209910",
"#o c #209918",
".F c #209d10",
"#S c #209d18",
".u c #20a110",
".y c #20a118",
"al c #20a510",
"ao c #297d20",
"aE c #298518",
"aD c #298918",
".X c #298920",
"aC c #298d18",
"as c #299520",
"av c #299918",
".M c #29a118",
".x c #29a518",
"#M c #29a520",
".v c #29aa18",
"#9 c #29aa20",
".w c #29ae18",
"#F c #31a120",
"#p c #31a520",
".8 c #31aa20",
".L c #31ae20",
"#T c #31ae29",
"a. c #31b220",
".G c #31b229",
"at c #31b629",
"#y c #39ae29",
".U c #39b229",
"ai c #39b629",
"au c #39ba29",
"aq c #39ba31",
".H c #39be29",
"ae c #419539",
"an c #41b631",
".K c #41ba31",
".J c #41be31",
"ar c #41be39",
"#v c #4a8d41",
"ah c #4aaa41",
".W c #4ab239",
"aj c #4aba39",
"#q c #4abe39",
".I c #4ac239",
"af c #4ac639",
"#z c #4ac641",
"ak c #4aca39",
"am c #52c641",
"#g c #52ca41",
"a# c #52ce41",
"## c #5ac252",
"#G c #5ace4a",
".V c #5ad24a",
".9 c #5ad252",
"ad c #5ad64a",
"#X c #5ad652",
"#r c #62d652",
"ag c #62de52",
"aa c #62de5a",
"#h c #6ade5a",
"#A c #6ae25a",
"#. c #6ae65a",
"ab c #6ae662",
"#6 c #73d262",
"#j c #73de6a",
"#H c #73e662",
"#0 c #73ea62",
"#N c #73ea6a",
"#8 c #7be66a",
"#Y c #7bee6a",
"#7 c #7bf26a",
"#s c #7bf273",
"#5 c #7bf673",
"#3 c #83de73",
"#i c #83f673",
"#O c #8bfa7b",
"#1 c #8bff7b",
"#I c #8bff83",
"#D c #94de8b",
"#t c #94ff83",
"#2 c #94ff8b",
"#Q c #9ce28b",
"#L c #9cea94",
"#W c #9cee8b",
"#u c #9cf28b",
"#Z c #9cfa94",
"#B c #9cff8b",
"#U c #9cff94",
"#C c #a4fa94",
"#J c #a4ff94",
"#P c #acff9c",
"#V c #acffa4",
"#K c #b4ffa4",
"Qt.#Qt.#Qt.#Qt.#Qt.#Qt.#Qt.#Qt.#Qt.#Qt.#Qt.#Qt.#Qt.#Qt.#Qt.#Qt.#Qt.#Qt.#Qt.#Qt.#",
".aQt.aQt.aQt.aQt.aQt.aQt.aQt.aQt.aQt.aQt.aQt.aQt.aQt.aQt.aQt.aQt.aQt.aQt.aQt.aQt",
"Qt.#Qt.#Qt.#Qt.#Qt.#Qt.#Qt.#Qt.#Qt.#Qt.#Qt.#Qt.#Qt.#Qt.#Qt.#Qt.#Qt.#Qt.#Qt.#Qt.#",
".aQt.aQt.aQt.aQt.aQt.aQt.aQt.aQt.aQt.aQt.aQt.aQt.aQt.aQt.aQt.aQt.aQt.aQt.aQt.aQt",
"Qt.#Qt.#Qt.#Qt.#Qt.#Qt.#Qt.#Qt.#Qt.#Qt.#Qt.#Qt.#Qt.#Qt.#Qt.#Qt.#Qt.#Qt.#Qt.#Qt.#",
".aQt.aQt.aQt.aQt.aQt.aQt.aQt.aQt.a.b.c.d.e.f.aQt.aQt.aQt.aQt.aQt.aQt.aQt.aQt.aQt",
"Qt.#Qt.#Qt.#Qt.#Qt.#Qt.#Qt.#.f.f.d.g.h.h.i.j.k.l.m.nQt.#Qt.#Qt.#Qt.#Qt.#Qt.#Qt.#",
".aQt.aQt.aQt.aQt.aQt.o.p.c.q.r.s.t.g.g.h.h.k.u.v.w.w.x.y.z.A.aQt.aQt.aQt.aQt.aQt",
"Qt.#Qt.#Qt.#.B.C.f.f.b.e.q.q.d.d.s.s.D.E.F.x.G.H.I.J.K.L.M.m.D.b.N.OQt.#Qt.#Qt.#",
".aQt.aQt.B.P.Q.R.Q.R.Q.R.S.R.T.q.d.s.s.l.u.U.J.V.W.X.Y.Z.0.1.2.P.C.C.B.3.aQt.aQt",
"Qt.#Qt.#.4.C.P.C.P.C.4.C.4.C.5.q.d.s.6.7.8.J.9#.###a#b#a#a#c#a#c#c.O.O#dQt.#Qt.#",
".aQt.aQt#a.C#e.C#e.C#e.C#e.C.T.q.d#f.D.M.U#g#h#i#j#k#a#a#c#c#c#c.O.O#lQt.aQt.aQt",
"Qt.#Qt.##m.B.B.B#b.B.B#a#n.B.f.d#f.D#o#p#q#r#s#t#u#v.O#l#l#l#l#w#w#w#m.#Qt.#Qt.#",
".aQt.aQt.aQt.aQt.aQt.aQt.aQt#x.d.s.m.F#y#z#A#i#B#C#D.aQt.aQt.aQt.aQt.aQt.aQt.aQt",
"Qt.#Qt.#Qt.#Qt.#Qt.#Qt.#Qt.##E.d.D.m#F.U#G#H#I#J#K#LQt.#Qt.#Qt.#Qt.#Qt.#Qt.#Qt.#",
".aQt.aQt.aQt.aQt.aQt.aQt.a.2.d#f.D.7#M.K.V#N#O#J#P#Q.aQt.aQt.aQt.aQt.aQt.aQt.aQt",
"Qt.#Qt.#Qt.#Qt.#Qt.#Qt.#Qt.5#R#R.m#S#T.K#r#N#t#U#V#WQt.#Qt.#Qt.#Qt.#Qt.#Qt.#Qt.#",
".aQt.aQt.aQt.aQt.aQt.aQt.a.q.s.D.l.M.L#q#X#Y#O#B#J#Z.aQt.aQt.aQt.aQt.aQt.aQt.aQt",
"Qt.#Qt.#Qt.#Qt.#Qt.#Qt.##b.d.D.D.7.M.U#q#r#0#1#t#U#2#3.#Qt.#Qt.#Qt.#Qt.#Qt.#Qt.#",
".aQt.aQt.aQt.aQt.aQt.aQt.o.g.g.l#4.x#T.I.V#H#5#I#I#t#6Qt.aQt.aQt.aQt.aQt.aQt.aQt",
"Qt.#Qt.#Qt.#Qt.#Qt.#Qt.##E.g.l.l.y.x.U.J.V#A#7#i#1#i#8.#Qt.#Qt.#Qt.#Qt.#Qt.#Qt.#",
".aQt.aQt.aQt.aQt.aQt.aQt.d.D.h.z.F#9a..Ja#aa#.#7#7#YabQt.aQt.aQt.aQt.aQt.aQt.aQt",
"Qt.#Qt.#Qt.#Qt.#Qt.#Qt.#ac.g.z.z.y.x.U.Ja#ad#Aab#0ab#haeQt.#Qt.#Qt.#Qt.#Qt.#Qt.#",
".aQt.aQt.aQt.aQt.aQt.a.f.g.lac#4.F.v.L.Kaf.V#X#hagaa.9ah.aQt.aQt.aQt.aQt.aQt.aQt",
"Qt.#Qt.#Qt.#Qt.#Qt.#Qt.q.l.h.z.z.y.xa.ai.I#g.Vad#r.V#GajQt.#Qt.#Qt.#Qt.#Qt.#Qt.#",
".aQt.aQt.aQt.aQt.aQt.a.s.h.z.i.k.u.x.wai.Jafaka##g#g.I#q.aQt.aQt.aQt.aQt.aQt.aQt",
"Qt.#Qt.#Qt.#Qt.#Qt.#Qt.g.z.i.k.k.ual.La..K.Jafafam.I#qanao.#Qt.#Qt.#Qt.#Qt.#Qt.#",
".aQt.aQt.aQt.aQt.aQt.c.h.h.z.i.kapal.va.a.aq.Kar.J.Jai.UasQt.aQt.aQt.aQt.aQt.aQt",
"Qt.#Qt.#Qt.#Qt.#Qt.#.d.i.z.i.k.k.u.u.v.v.Gatauai.Kai.U.8#p.#Qt.#Qt.#Qt.#Qt.#Qt.#",
".aQt.aQt.aQt.aQt.aQt.s.i.i.z.i.k.k.ual.v.va.a..Ua..U.8.8avQt.aQt.aQt.aQt.aQt.aQt",
"Qt.#Qt.#Qt.#Qt.#Qt.#.5.faw.faxawayayazaAaBaBaCaDaDaBaE.ZaF.#Qt.#Qt.#Qt.#Qt.#Qt.#",
".aQt.aQt.aQt.aQt.aQtaGaHaIaH.3aHaGaH.3aJ.3.3.3aK.3aKaLaK#dQt.aQt.aQt.aQt.aQt.aQt",
"Qt.#Qt.#Qt.#Qt.#Qt.##daM#d#d#daM#daN#daO#daNaNaOaNaPaNaPaQ.#Qt.#Qt.#Qt.#Qt.#Qt.#",
".aQt.aQt.aQt.aQt.aQtaP#daO#daO#daOaNaOaNaPaNaPaNaPaQaPaQaRQt.aQt.aQt.aQt.aQt.aQt",
"Qt.#Qt.#Qt.#Qt.#Qt.#aNaN#daO#daNaNaOaNaPaNaPaNaPaQaPaQaPaS.#Qt.#Qt.#Qt.#Qt.#Qt.#",
".aQt.aQt.aQt.aQt.aQt.aaTaUaTaUaTaUaUaVaTaVaUaVaTaVaUaVaWaXQt.aQt.aQt.aQt.aQt.aQt",
"Qt.#Qt.#Qt.#Qt.#Qt.#Qt.#Qt.#Qt.#Qt.#Qt.#Qt.#Qt.#Qt.#Qt.#Qt.#Qt.#Qt.#Qt.#Qt.#Qt.#",
".aQt.aQt.aQt.aQt.aQt.aQt.aQt.aQt.aQt.aQt.aQt.aQt.aQt.aQt.aQt.aQt.aQt.aQt.aQt.aQt",
"Qt.#Qt.#Qt.#Qt.#Qt.#Qt.#Qt.#Qt.#Qt.#Qt.#Qt.#Qt.#Qt.#Qt.#Qt.#Qt.#Qt.#Qt.#Qt.#Qt.#",
".aQt.aQt.aQt.aQt.aQt.aQt.aQt.aQt.aQt.aQt.aQt.aQt.aQt.aQt.aQt.aQt.aQt.aQt.aQt.aQt"};


