/* XPM */
static const char* const image3_data[] = { 
"40 40 116 2",
"Qt c None",
"#N c #000000",
"#F c #001000",
"#w c #002400",
"#S c #002800",
"#d c #003000",
"#o c #003400",
"#p c #003800",
".k c #003c00",
"#e c #004000",
".l c #004400",
".m c #004800",
"#x c #084800",
".n c #084c00",
"#R c #084c08",
".o c #085000",
"#M c #085008",
".p c #085500",
".q c #085900",
".r c #085d00",
".s c #086100",
".D c #086500",
".E c #086900",
".S c #086d00",
".4 c #087100",
"#T c #103410",
"#y c #104408",
"#X c #105d08",
"#f c #106900",
".t c #106908",
"#g c #106d08",
".F c #107100",
".T c #107108",
".R c #107500",
".5 c #107508",
".Q c #107908",
"#h c #187510",
".G c #187908",
"#E c #187910",
".3 c #187d08",
".U c #187d10",
".u c #207510",
"#L c #207d10",
"#W c #207d18",
".C c #208110",
".P c #208510",
".H c #208518",
"#c c #208910",
"#O c #296920",
"#q c #297920",
"#V c #298118",
"#i c #298120",
".V c #298918",
".6 c #298d20",
"#D c #299118",
"#v c #299520",
".v c #318d29",
".B c #319120",
"#b c #319520",
".O c #319929",
"#K c #31a129",
"#j c #398d31",
".I c #399931",
".W c #399d31",
".7 c #39a131",
"#C c #39a529",
"#u c #39a531",
"#Q c #39aa29",
".g c #417139",
"#G c #418d39",
"#k c #419939",
"#n c #41aa39",
"#J c #41ae31",
"#U c #41b231",
"#P c #41b239",
".# c #4aa541",
"#a c #4aae39",
"#B c #4ab239",
".2 c #4ab241",
"#I c #4aba41",
".b c #529d4a",
"#z c #52b24a",
".A c #52b641",
"#t c #52ba41",
"#A c #52be4a",
"#H c #52c24a",
".J c #5aba4a",
".X c #5abe4a",
".w c #62ba5a",
".a c #62be5a",
"## c #62c652",
"#s c #62ca52",
"#r c #6aca5a",
".j c #6aca62",
".1 c #6ace5a",
".N c #6ad262",
".8 c #73d262",
".z c #73d662",
".Y c #73d66a",
"#. c #73de6a",
".f c #7bce73",
".K c #7bda6a",
"#m c #7be26a",
"#l c #7be273",
".0 c #83e673",
".9 c #83ea7b",
".c c #8bee7b",
".e c #94e68b",
".L c #94f283",
".h c #94f683",
".x c #94f68b",
".Z c #94fa8b",
".M c #9cff94",
".d c #a4ff94",
".y c #a4ff9c",
".i c #acff9c",
"QtQtQtQtQtQtQtQtQtQtQtQtQtQtQtQtQtQtQtQtQtQtQtQtQtQtQtQtQtQtQtQtQtQtQtQtQtQtQtQt",
"QtQtQtQtQtQtQtQtQtQtQtQtQtQtQtQtQtQtQtQtQtQtQtQtQtQtQtQtQtQtQtQtQtQtQtQtQtQtQtQt",
"QtQtQtQtQtQtQtQtQtQtQtQtQtQtQtQtQtQtQtQtQtQtQtQtQtQtQtQtQtQtQtQtQtQtQtQtQtQtQtQt",
"QtQtQtQtQtQtQtQtQtQtQtQtQtQtQtQtQtQtQtQtQtQtQtQtQtQtQtQtQtQtQtQtQtQtQtQtQtQtQtQt",
"QtQtQtQtQtQtQtQtQtQtQtQtQtQtQtQtQtQtQtQtQtQtQtQtQtQtQtQtQtQtQtQtQtQtQtQtQtQtQtQt",
"QtQtQtQtQtQtQtQtQtQtQtQtQtQtQtQtQtQtQtQtQtQtQtQtQtQtQtQtQtQtQtQtQtQtQtQtQtQtQtQt",
"QtQtQtQtQtQtQtQtQtQtQtQtQtQtQtQtQtQtQtQtQtQtQtQtQtQtQtQtQtQtQtQtQtQtQtQtQtQtQtQt",
"QtQtQtQtQtQtQtQtQtQtQtQtQtQtQtQtQtQtQtQtQtQtQtQtQtQtQtQtQtQtQtQtQtQtQtQtQtQtQtQt",
"QtQtQtQtQtQtQtQtQtQtQtQtQtQtQtQtQtQtQtQtQtQtQtQtQtQtQtQtQtQtQtQtQtQtQtQtQtQtQtQt",
"QtQtQtQtQtQtQtQtQtQtQtQtQtQtQtQtQtQtQtQtQtQtQtQtQtQtQtQtQtQtQtQtQtQtQtQtQtQtQtQt",
"QtQtQtQtQtQtQtQtQtQtQtQtQtQtQtQtQtQtQtQtQtQtQtQtQtQtQtQtQtQtQtQtQtQtQtQtQtQtQtQt",
"QtQtQtQtQtQtQtQtQtQtQtQtQtQtQtQtQtQtQtQtQtQtQtQtQtQtQtQtQtQtQtQtQtQtQtQtQtQtQtQt",
"QtQtQtQtQtQtQtQtQtQtQtQtQtQtQtQtQtQtQtQtQtQtQtQtQt.#.aQtQtQtQtQtQtQtQtQtQtQtQtQt",
"QtQtQtQtQtQtQtQtQtQtQtQtQtQtQtQtQtQtQtQtQtQtQtQtQt.b.c.d.e.fQtQtQtQtQtQtQtQtQtQt",
"QtQtQtQtQtQtQtQtQtQtQtQtQtQtQtQtQtQtQtQtQtQtQtQtQt.g.h.i.i.h.j.#QtQtQtQtQtQtQtQt",
"QtQtQt.k.l.l.m.m.m.n.n.o.p.p.p.q.q.q.r.r.s.t.u.v.#.w.x.y.y.h.z.A.B.C.tQtQtQtQtQt",
"QtQtQt.n.o.p.p.p.q.q.q.r.r.r.s.s.s.D.D.E.F.G.H.I.J.K.L.d.M.c.N.A.O.P.Q.R.sQtQtQt",
"QtQt.l.o.p.p.p.p.q.q.r.r.r.s.s.s.D.D.E.S.T.U.V.W.X.Y.c.Z.h.0.1.2.O.H.3.R.4.E.nQt",
"Qt.k.n.o.p.p.p.q.q.r.r.r.s.s.s.D.D.D.E.S.5.U.6.7.X.8.0.c.9#.###a#b#c.3.R.S.p#dQt",
"Qt#e.n.n.o.o.o.p.p.p.q.q.q.r.r.r.s.s.s.D#f#g#h#i#j#k.a#l#m.N.X#n#b#c.3.R.o#oQtQt",
"Qt#p.l.m.m.m.m.n.n.o.o.o.p.p.p.p.q.q.q.r.r.r.r.r.s.s#q#r.N#s#t#u#v#c.5.o#d#wQtQt",
"Qt#o#e#e.l.l.l.m.m#x#x.n.n.n.o.o.o.p.p.p.p.p.q.q.q.q#y#z#s#A#B#C#D#E.o#o#wQtQtQt",
"QtQtQtQtQtQtQtQtQtQtQtQtQtQtQtQtQtQtQtQtQtQtQtQtQtQt#F#G#H#I#J#K#L#M#p#wQtQtQtQt",
"QtQtQtQtQtQtQtQtQtQtQtQtQtQtQtQtQtQtQtQtQtQtQtQtQtQt#N#O#I#P#Q.V#R#p#SQtQtQtQtQt",
"QtQtQtQtQtQtQtQtQtQtQtQtQtQtQtQtQtQtQtQtQtQtQtQtQtQtQt#T#U#C#V#x#pQtQtQtQtQtQtQt",
"QtQtQtQtQtQtQtQtQtQtQtQtQtQtQtQtQtQtQtQtQtQtQtQtQtQtQt#N#K#W.n#pQtQtQtQtQtQtQtQt",
"QtQtQtQtQtQtQtQtQtQtQtQtQtQtQtQtQtQtQtQtQtQtQtQtQtQtQt#N#X.n.kQtQtQtQtQtQtQtQtQt",
"QtQtQtQtQtQtQtQtQtQtQtQtQtQtQtQtQtQtQtQtQtQtQtQtQtQtQt#N#e.kQtQtQtQtQtQtQtQtQtQt",
"QtQtQtQtQtQtQtQtQtQtQtQtQtQtQtQtQtQtQtQtQtQtQtQtQtQtQtQt#pQtQtQtQtQtQtQtQtQtQtQt",
"QtQtQtQtQtQtQtQtQtQtQtQtQtQtQtQtQtQtQtQtQtQtQtQtQtQtQtQtQtQtQtQtQtQtQtQtQtQtQtQt",
"QtQtQtQtQtQtQtQtQtQtQtQtQtQtQtQtQtQtQtQtQtQtQtQtQtQtQtQtQtQtQtQtQtQtQtQtQtQtQtQt",
"QtQtQtQtQtQtQtQtQtQtQtQtQtQtQtQtQtQtQtQtQtQtQtQtQtQtQtQtQtQtQtQtQtQtQtQtQtQtQtQt",
"QtQtQtQtQtQtQtQtQtQtQtQtQtQtQtQtQtQtQtQtQtQtQtQtQtQtQtQtQtQtQtQtQtQtQtQtQtQtQtQt",
"QtQtQtQtQtQtQtQtQtQtQtQtQtQtQtQtQtQtQtQtQtQtQtQtQtQtQtQtQtQtQtQtQtQtQtQtQtQtQtQt",
"QtQtQtQtQtQtQtQtQtQtQtQtQtQtQtQtQtQtQtQtQtQtQtQtQtQtQtQtQtQtQtQtQtQtQtQtQtQtQtQt",
"QtQtQtQtQtQtQtQtQtQtQtQtQtQtQtQtQtQtQtQtQtQtQtQtQtQtQtQtQtQtQtQtQtQtQtQtQtQtQtQt",
"QtQtQtQtQtQtQtQtQtQtQtQtQtQtQtQtQtQtQtQtQtQtQtQtQtQtQtQtQtQtQtQtQtQtQtQtQtQtQtQt",
"QtQtQtQtQtQtQtQtQtQtQtQtQtQtQtQtQtQtQtQtQtQtQtQtQtQtQtQtQtQtQtQtQtQtQtQtQtQtQtQt",
"QtQtQtQtQtQtQtQtQtQtQtQtQtQtQtQtQtQtQtQtQtQtQtQtQtQtQtQtQtQtQtQtQtQtQtQtQtQtQtQt",
"QtQtQtQtQtQtQtQtQtQtQtQtQtQtQtQtQtQtQtQtQtQtQtQtQtQtQtQtQtQtQtQtQtQtQtQtQtQtQtQt"};


