/* XPM */
static const char* const image5_data[] = { 
"40 40 236 2",
".a c None",
".# c None",
"Qt c None",
"bd c #000000",
"#c c #000800",
"ag c #000c00",
"a# c #001000",
"#d c #001400",
"#N c #001800",
"ae c #001c00",
"#Y c #002000",
"am c #002400",
"au c #002c00",
"#8 c #003000",
".4 c #003400",
"ao c #003800",
"#k c #004400",
"aG c #004800",
"ab c #004c00",
"#q c #081000",
"af c #081400",
"av c #081800",
"#A c #081808",
".0 c #081c00",
"#b c #081c08",
"al c #082000",
"ak c #082400",
"an c #082800",
"be c #082808",
"aj c #082c00",
"aX c #083000",
"bc c #083400",
"a. c #083800",
"#r c #083808",
"#j c #083c00",
"ac c #084000",
".N c #084400",
"bb c #084408",
".5 c #084800",
".L c #084808",
"#v c #084c00",
"#X c #084c08",
".O c #085000",
"#G c #085500",
".M c #085900",
"#F c #085d00",
".b c #086100",
"#g c #086500",
".P c #086900",
".e c #086d00",
".y c #087100",
".2 c #087500",
".c c #087900",
"#h c #087d00",
"#i c #088100",
"#H c #088500",
"#I c #088900",
"#K c #088d00",
"#6 c #089100",
"bf c #103808",
".Z c #104408",
"#e c #104c08",
"a9 c #105508",
"#5 c #105900",
"a5 c #105908",
"bO c #105d00",
"a7 c #105d08",
"#f c #106100",
"#s c #106108",
".3 c #106500",
"b. c #106508",
"#t c #106900",
".o c #106908",
".j c #106d00",
"aM c #106d08",
".x c #107100",
"#E c #107108",
".z c #107500",
"#4 c #107508",
".1 c #107900",
".A c #107908",
".Q c #107d00",
"aW c #107d08",
".d c #108100",
"#U c #108108",
"#u c #108500",
".k c #108900",
"#J c #108d00",
".f c #108d08",
".g c #109100",
"aN c #109108",
"#S c #109500",
"#T c #109900",
"#7 c #109d00",
"ad c #10a100",
"#z c #183818",
"a6 c #185d10",
"a8 c #186110",
"bN c #186d08",
"bP c #186d10",
".t c #187108",
"bI c #187110",
"bx c #187508",
"bH c #187510",
"#D c #187908",
"aa c #187910",
"#3 c #187d08",
"#R c #187d10",
".B c #188108",
"ba c #188110",
"bi c #188508",
"aV c #188510",
"bh c #188908",
"aL c #188910",
"aY c #188d10",
"bg c #189110",
"b# c #189510",
"aH c #189908",
"a1 c #189d08",
"a2 c #189d10",
"aQ c #18a108",
"aB c #18a508",
"aO c #18aa00",
"aP c #18aa08",
"#p c #203818",
"aA c #206918",
"ah c #207110",
"#w c #207510",
".K c #207518",
"bM c #207918",
"aF c #207d10",
"#V c #207d18",
"#l c #208110",
"bD c #208118",
"a4 c #208510",
"bl c #208910",
"#Q c #208918",
".p c #208d10",
"br c #208d18",
".u c #209110",
".l c #209510",
"bj c #209518",
"a3 c #209910",
".h c #209d10",
".i c #20a110",
"aS c #20a118",
"aw c #20a510",
"ax c #20aa10",
"aZ c #20ae10",
"#B c #297118",
"bm c #297520",
"#Z c #297920",
"#C c #297d18",
"#9 c #297d20",
"bK c #298118",
"bL c #298120",
"bG c #298518",
"bJ c #298520",
"bB c #298918",
"#L c #298920",
"#2 c #298d18",
"bC c #298d20",
"bo c #299118",
"bA c #299120",
"aE c #299518",
"aU c #299918",
"bn c #299920",
"aK c #299d18",
"bk c #299d20",
"aT c #29a118",
"aR c #29a518",
"aI c #29a520",
"ap c #29aa18",
"a0 c #29ae18",
"#M c #316d29",
"ai c #318529",
"at c #318929",
"bE c #318d29",
"#W c #319120",
"bF c #319129",
"bw c #319520",
".J c #319529",
".C c #319920",
"#1 c #319929",
".R c #319d20",
".q c #31a120",
"#m c #31a129",
"aJ c #31a520",
".m c #31aa20",
"aC c #31ae20",
"ay c #31b220",
"#a c #396531",
"#y c #397131",
"bp c #398531",
".Y c #398929",
"bs c #398d31",
"bu c #399131",
"by c #399531",
"#x c #399931",
"#P c #399d29",
"bz c #399d31",
"bv c #39a129",
"bq c #39a529",
".6 c #39aa31",
"aD c #39ae29",
"az c #39b631",
"aq c #39ba29",
"#O c #419d31",
"#0 c #41a131",
"bt c #41aa31",
".n c #41ae31",
"as c #41b231",
"ar c #41ba31",
"#o c #4a8141",
".D c #4ab641",
".S c #52c24a",
".I c #5aba52",
".7 c #5ac64a",
".r c #5aca4a",
".X c #62c252",
".s c #62c65a",
".v c #6ada62",
"## c #73c66a",
"#n c #73de6a",
".w c #83de73",
".E c #83ea73",
".T c #83ee73",
".H c #8be67b",
".8 c #8bf27b",
".W c #94f68b",
".G c #9cea94",
".F c #9cf68b",
"#. c #9cf694",
".9 c #9cff94",
".U c #a4ff9c",
".V c #acff9c",
"Qt.#Qt.#Qt.#Qt.#Qt.#Qt.#Qt.#Qt.#Qt.#Qt.#Qt.#Qt.#Qt.#Qt.#Qt.#Qt.#Qt.#Qt.#Qt.#Qt.#",
".aQt.aQt.aQt.aQt.aQt.aQt.aQt.aQt.aQt.aQt.aQt.aQt.aQt.aQt.aQt.aQt.aQt.aQt.aQt.aQt",
"Qt.#Qt.#Qt.#Qt.#Qt.#Qt.#Qt.#Qt.#Qt.#Qt.#Qt.#Qt.#Qt.#Qt.#Qt.#Qt.#Qt.#Qt.#Qt.#Qt.#",
".aQt.aQt.aQt.aQt.aQt.aQt.aQt.aQt.aQt.aQt.aQt.aQt.aQt.aQt.aQt.aQt.aQt.aQt.aQt.aQt",
"Qt.#Qt.#Qt.#Qt.#Qt.#Qt.#Qt.#Qt.#Qt.#Qt.#Qt.#Qt.#Qt.#Qt.#Qt.#Qt.#Qt.#Qt.#Qt.#Qt.#",
".aQt.aQt.aQt.aQt.aQt.aQt.aQt.aQt.a.b.c.d.dQt.aQt.aQt.aQt.aQt.aQt.aQt.aQt.aQt.aQt",
"Qt.#Qt.#Qt.#Qt.#Qt.#Qt.#Qt.#Qt.#Qt.e.f.g.h.iQt.#Qt.#Qt.#Qt.#Qt.#Qt.#Qt.#Qt.#Qt.#",
".aQt.aQt.aQt.aQt.aQt.aQt.aQt.aQt.a.j.k.l.m.n.aQt.aQt.aQt.aQt.aQt.aQt.aQt.aQt.aQt",
"Qt.#Qt.#Qt.#Qt.#Qt.#Qt.#Qt.#Qt.#Qt.o.p.q.r.sQt.#Qt.#Qt.#Qt.#Qt.#Qt.#Qt.#Qt.#Qt.#",
".aQt.aQt.aQt.aQt.aQt.aQt.aQt.aQt.a.t.u.n.v.w.aQt.aQt.aQt.aQt.aQt.aQt.aQt.aQt.aQt",
"Qt.#Qt.#Qt.#Qt.#Qt.#Qt.#.x.y.z.x.A.B.C.D.E.F.G.H.I.J.K.LQt.#Qt.#Qt.#Qt.#Qt.#Qt.#",
".aQt.aQt.aQt.aQt.MQt.a.N.O.P.c.Q.Q.p.R.S.T.U.V.W.X.Y.Z.0.aQt.aQt.aQt.aQt.aQt.aQt",
"Qt.#Qt.#Qt.#Qt.#.1.2.3.4.N.5.M.y.B.u.6.7.8.9#.###a#b#c#d#e.b#f.#Qt.#Qt.#Qt.#Qt.#",
".aQt.aQt.aQt.a#g#h.d#i.z.a#j#k.O#g#l#m.r#n###o#p#c#q#r#s.e#t#g.O.aQt.aQt.aQt.aQt",
".x.y.z.2.Q#h.d.d#u#u.k.k#u.2Qt.##v.M#w#x#y#z#A#cQt#B#C#D#E.P#t.b#F.M.M.O#G#v#v.5",
".y.1.c.Q#i#u#H.k#I#J#K.g#K#J.kQt.a.N#g#L#M#N.aQt#O#P#Q#R.x.j#g#g#F#F.M.M#G#G.O.O",
".Q.Q#u#H.k#J.g.g#S#S#S#S#T.g#U#FQt.##V#W#X#YQt#Z#0#1#2#3#4.j#t#g.3#F#F.M#5#G#G.O",
"#g.j.e.y.y.d#6#T#T#T#T#7#H#F#8#d.aQt#F#9a.a#.a#G#F#waa#R.x.j.P#g.b.Mab.5.N.N#k.N",
"a..4a.a.ac.e#T#7ad#7#S.2a.aeafagQt.#ah.Rai.#Qt.##v#G#s.3#E.e#t#g.3.Oaj#Yak#Yalae",
"#Yamamanao.k#7ad#7.d.Nak#da#.aQt.a.lapaqarasatQt.aQt.O#G.M.b#g.3.b.Mau#da##da#a#",
"Qt.#Qt.##t#T#7.k#Gamava#Qt.#Qt#Uawaxayayarazas#maA.#Qtac.O.O#G#F#f.b#v.#Qt.#Qt.#",
".aQt.aQt#h.k#Faj#d#da#Qt.a#J#SaBaBaxaxaCaCaD.m.qaEaF.aQt.a.5aG#v.O.M#GQt.aQt.aQt",
"Qt.#Qt.#.baoal#daf.#Qt.#aHadaBaBawawapap.maIaJaKaEaL#RaMQt.#Qt.N#v.5.OacQt.#Qt.#",
".aQt.aQt#Y#Na#Qt.aQtaNaBaOaPaBaBaQ.i.iaRaSaTaUaE.paVaW#D.P.M.aQt#8.N.NaX.aQt.aQt",
"Qt.#Qt.##q.#Qt.#aYaxaZaZa0awawa1.ia2.h.haKa3aE.pa4#3#D.xaM.P.3.5Qt.#a..#Qt.#Qt.#",
".aQt.aQt.aQt.a.Za5a6a7a8a7a6a9b.a2.haHa3b#.uaYbabb.Z#j#ja.a..4bcamQt.aQt.aQt.aQt",
"Qt.#Qt.#Qt.#QtbdbdbdbdbdbdbdbdbeaTa3a3b#.uaY.p#3bdbdbdbdbdbdbdbdbd.#Qt.#Qt.#Qt.#",
".aQt.aQt.aQt.aQtbdbdbdbdbdbdbdbfaT.hbg.ubhaLbi.Bbdbdbdbdbdbdbdbd.aQt.aQt.aQt.aQt",
"Qt.#Qt.#Qt.#Qt.#Qt.#Qt.#Qt.#Qt.#.maUbjaYaL.B.BaWQt.#Qt.#Qt.#Qt.#Qt.#Qt.#Qt.#Qt.#",
".aQt.aQt.aQt.aQt.aQt.aQt.aQt.aQtaJbk.ubl.B.B.A.A.aQt.aQt.aQt.aQt.aQt.aQt.aQt.aQt",
"Qt.#Qt.#Qt.#Qt.#Qt.#Qt.#Qt.#Qtbm.6bnboaLbaaW#D#4Qt.#Qt.#Qt.#Qt.#Qt.#Qt.#Qt.#Qt.#",
".aQt.aQt.aQt.aQt.aQt.aQt.aQt.abpbq.Cbra4aW#D.z#E.OQt.aQt.aQt.aQt.aQt.aQt.aQt.aQt",
"Qt.#Qt.#Qt.#Qt.#Qt.#Qt.#Qt.#Qtbsbt.C#2ba#R#4#4.ja5.#Qt.#Qt.#Qt.#Qt.#Qt.#Qt.#Qt.#",
".aQt.aQt.aQt.aQt.aQt.aQt.aQt.abubvbw#Q#l#4bx.jaM.bQt.aQt.aQt.aQt.aQt.aQt.aQt.aQt",
"Qt.#Qt.#Qt.#Qt.#Qt.#Qt.#Qt.#QtbybzbAbB#Raa#EaM#tb..#Qt.#Qt.#Qt.#Qt.#Qt.#Qt.#Qt.#",
".aQt.aQt.aQt.aQt.aQt.aQt.aQt.aby.JbCbDaF#EaM#t.o.bQt.aQt.aQt.aQt.aQt.aQt.aQt.aQt",
"Qt.#Qt.#Qt.#Qt.#Qt.#Qt.#Qt.#QtbEbFbGbDbHbI.o.o#ga7.#Qt.#Qt.#Qt.#Qt.#Qt.#Qt.#Qt.#",
".aQt.aQt.aQt.aQt.aQt.aQt.aQt.aatbJbKaabHaM.o#g.3.MQt.aQt.aQt.aQt.aQt.aQt.aQt.aQt",
"Qt.#Qt.#Qt.#Qt.#Qt.#Qt.#Qt.#QtbLbJbM.KbIbNb.b..bbO.#Qt.#Qt.#Qt.#Qt.#Qt.#Qt.#Qt.#",
".aQt.aQt.aQt.aQt.aQt.aQt.aQt.a#ZbM.KbIbPb.b..b#f.MQt.aQt.aQt.aQt.aQt.aQt.aQt.aQt"};


