/* XPM */
static const char* const image2_data[] = { 
"40 40 179 2",
".a c None",
".# c None",
"Qt c None",
"#H c #001c00",
"#R c #002000",
"#Q c #002400",
"#4 c #002800",
"#G c #002c00",
"aE c #003000",
"at c #003400",
"aU c #003800",
"#T c #003c00",
"#X c #082000",
"#5 c #082400",
"#S c #082800",
"ag c #082c00",
"#I c #083000",
"#x c #083400",
"#W c #083800",
"aJ c #083808",
"#w c #083c00",
"aO c #084000",
"aP c #084008",
"## c #084400",
"#3 c #084800",
"#F c #084c00",
"#6 c #085000",
"#a c #085500",
"#c c #085900",
"#e c #085d00",
".q c #086100",
"#P c #086900",
".5 c #086d00",
".w c #087100",
".J c #087500",
"#z c #087900",
".c c #087d00",
".g c #088100",
".r c #088500",
"aW c #104808",
"aI c #104c08",
"aT c #105008",
"#b c #105900",
"#d c #105d00",
"aF c #105d08",
"#f c #106100",
"#u c #106108",
"#v c #106508",
"aQ c #106908",
"ay c #106d08",
".b c #107100",
".l c #107108",
"#y c #107500",
".C c #107900",
"#g c #107908",
".X c #107d00",
".R c #108100",
".K c #108108",
".d c #108500",
".D c #108508",
".e c #108900",
"an c #108908",
".f c #108d00",
".h c #109100",
".i c #109500",
".j c #109900",
".k c #109d00",
"as c #185510",
"#t c #186910",
"#s c #187110",
"#2 c #187910",
"#O c #188108",
".Y c #188508",
".E c #188908",
"#h c #188910",
".x c #188d08",
".s c #189108",
"#7 c #189110",
".m c #189508",
"ao c #189510",
".n c #189908",
"aD c #206118",
"am c #206518",
"aN c #206d18",
"aV c #208910",
".p c #208d10",
".L c #209110",
".F c #209510",
"#J c #209518",
"au c #209910",
"aG c #209d10",
"aK c #20a110",
".o c #20a510",
"#r c #297d20",
"aS c #298918",
"#A c #299518",
".M c #299918",
"af c #299920",
".y c #299d18",
".t c #29a118",
"az c #29a518",
"aR c #29aa18",
"#q c #318929",
"ar c #319529",
"al c #319d29",
".S c #31a120",
".G c #31a520",
"#8 c #31aa20",
".u c #31ae20",
".z c #31ae29",
"aL c #31b220",
".Z c #39a529",
"#N c #39aa29",
".6 c #39ae31",
"av c #39b229",
".v c #39b231",
"aM c #39ba31",
"aC c #41a131",
".N c #41b231",
"#Y c #41b631",
"#B c #41b639",
"#9 c #41ba31",
"#M c #41ba39",
"aH c #41be31",
"#p c #4a9d41",
".H c #4aba39",
"ax c #4aba41",
".A c #4ac239",
"ae c #4ac241",
"aA c #4ac639",
".0 c #52c24a",
"ah c #52c641",
".7 c #52c64a",
"a. c #52ca41",
"#V c #52ca4a",
"aB c #52ce41",
"#o c #5ab252",
".O c #5aca4a",
".B c #5ace4a",
"#E c #5ace52",
"aq c #5ad24a",
"ai c #5ad252",
"aw c #5ad64a",
"#i c #62ce52",
"#K c #62d252",
"ad c #62d652",
".T c #62d65a",
"a# c #62da5a",
"ap c #62de5a",
"#1 c #6ada5a",
".1 c #6ade5a",
"ac c #6ae25a",
"aj c #6ae262",
"aa c #6ae662",
"#n c #73c26a",
".8 c #73e262",
".I c #73e662",
"#j c #73e66a",
"ak c #73ea6a",
".Q c #7bca6a",
"#C c #7be66a",
".U c #7bee6a",
"ab c #7bf26a",
"#U c #83f273",
"#Z c #83f673",
".P c #83fa7b",
"#m c #8bda83",
".2 c #8bfa7b",
"#L c #8bfa83",
"#0 c #8bff7b",
"#D c #8bff83",
".W c #94f28b",
"#k c #94ff83",
".V c #94ff8b",
".3 c #9cff94",
"#. c #a4f294",
".9 c #a4ff94",
".4 c #acfa9c",
"#l c #acff9c",
"Qt.#Qt.#Qt.#Qt.#Qt.#Qt.#Qt.#Qt.#Qt.#Qt.#Qt.#Qt.#Qt.#Qt.#Qt.#Qt.#Qt.#Qt.#Qt.#Qt.#",
".aQt.aQt.aQt.aQt.aQt.aQt.aQt.aQt.aQt.aQt.aQt.aQt.aQt.aQt.aQt.aQt.aQt.aQt.aQt.aQt",
"Qt.#Qt.#Qt.#Qt.#Qt.#Qt.#Qt.#Qt.#Qt.#Qt.#Qt.#Qt.#Qt.#Qt.#Qt.#Qt.#Qt.#Qt.#Qt.#Qt.#",
".aQt.aQt.aQt.aQt.aQt.aQt.aQt.aQt.aQt.aQt.aQt.aQt.aQt.aQt.aQt.aQt.aQt.aQt.aQt.aQt",
"Qt.#Qt.#Qt.#Qt.#Qt.#Qt.#Qt.#Qt.#Qt.#Qt.#Qt.#Qt.#Qt.#Qt.#Qt.#Qt.#Qt.#Qt.#Qt.#Qt.#",
".aQt.aQt.aQt.aQt.aQt.aQt.aQt.aQt.aQt.aQt.aQt.aQt.aQt.aQt.aQt.aQt.aQt.aQt.aQt.aQt",
"Qt.#Qt.#Qt.#Qt.#Qt.#Qt.#Qt.#Qt.#.b.c.d.d.e.e.f.#Qt.#Qt.#Qt.#Qt.#Qt.#Qt.#Qt.#Qt.#",
".aQt.aQt.aQt.aQt.aQt.aQt.aQt.aQt.g.f.h.i.i.j.k.l.aQt.aQt.aQt.aQt.aQt.aQt.aQt.aQt",
"Qt.#Qt.#Qt.#Qt.#Qt.#Qt.#Qt.#Qt.#.e.e.f.f.m.n.o.pQt.#Qt.#Qt.#Qt.#Qt.#Qt.#Qt.#Qt.#",
".aQt.aQt.aQt.aQt.aQt.aQt.aQt.a.q.r.e.e.s.m.t.u.v.aQt.aQt.aQt.aQt.aQt.aQt.aQt.aQt",
"Qt.#Qt.#Qt.#Qt.#Qt.#Qt.#Qt.#Qt.w.d.d.x.s.y.z.A.BQt.#Qt.#Qt.#Qt.#Qt.#Qt.#Qt.#Qt.#",
".aQt.aQt.aQt.aQt.aQt.aQt.aQt.a.C.g.D.E.F.G.H.B.I.aQt.aQt.aQt.aQt.aQt.aQt.aQt.aQt",
"Qt.#Qt.#Qt.#Qt.#Qt.#Qt.#Qt.#Qt.J.K.D.L.M.N.O.I.P.Q.#Qt.#Qt.#Qt.#Qt.#Qt.#Qt.#Qt.#",
".aQt.aQt.aQt.aQt.aQt.aQt.aQt.a.C.R.E.L.S.H.T.U.V.WQt.aQt.aQt.aQt.aQt.aQt.aQt.aQt",
"Qt.#Qt.#Qt.#Qt.#Qt.#Qt.#Qt.#.l.X.Y.E.M.Z.0.1.2.3.4.#Qt.#Qt.#Qt.#Qt.#Qt.#Qt.#Qt.#",
".aQt.aQt.aQt.aQt.aQt.aQt.aQt.5.K.D.p.M.6.7.8.2.9#.Qt.aQt.aQt.aQt.aQt.aQt.aQt.aQt",
"Qt###a#a#b#c#c#c#d#c#e#e#f.q#g.R#h.L.S.N#i#j#k.9#l#m#n#o#p#q#r#s#t#u#v.q#f#c#w.#",
".a#x#c.b.w#y.J.C.J.C#z.X.c.X.X.D.E#A.S#B.B#C.2.3.9.9#D.U#E.H.G.M.E.Y.R.X.5#F#GQt",
"Qt#H#I#F#y.J.C#z.X#z.X.X.R.X.Y.D.p#J.Z#B#K.I.2.V.9.V#L#j#i#M#N.M.p.D#O#P#w#QQt.#",
".aQt#R#S#T.5#z.C#z.X#z.X.c.R.R.E.x.M.G.H.B.8#U#k#k#k#U.8#V.H.G.M.x#O#e#W#Q#R.aQt",
"Qt.##X#Q#S#x#e.J.X.X.R.X.K.R.E.E.F.M#N#Y#E.1.U#Z#0#Z.U#1.O#Y#N#J#2#3#I#4#5.#Qt.#",
".aQt.a#R#Q#S#G#6.w.R.c.R.R.D.d.x#7.y#8#9a.a#aaabab.Uacadae#Yaf#s#wag#4#Q.aQt.aQt",
"Qt.#Qt.#Qt#Qag#G#3#P.R.R.d.d.E.x.F.y#N#Yahaiaj.Iakaa.1.Baealam#Wag#4#X.#Qt.#Qt.#",
".aQt.aQt.aQt#Q#S#G#W#e.R.ran.e.sao.t#8#Y.A.Bad.1apapaq#Varasat#I#4#H.aQt.aQt.aQt",
"Qt.#Qt.#Qt.#Qt#Qag#G#I###g.e.x.sau.y#8av.Aahaqawad.Bax#r#x#I#I#4Qt.#Qt.#Qt.#Qt.#",
".aQt.aQt.aQt.aQt#Q#S#G#I#way.e.sao.tazav#9.AaAaBahaCaD#WaE#I#QQt.aQt.aQt.aQt.aQt",
"Qt.#Qt.#Qt.#Qt.#Qt.#ag#G#x#waF.EauaG#8.u#9aHaA.A#qaIaJ#x#I#QQt.#Qt.#Qt.#Qt.#Qt.#",
".aQt.aQt.aQt.aQt.aQt.a#SaE#xat##.YaKaz.uaLaM#NaNaO#xaE#I#HQt.aQt.aQt.aQt.aQt.aQt",
"Qt.#Qt.#Qt.#Qt.#Qt.#Qt.##SaE#xataPaQ.MaR.GaSaTaU#W#xag.#Qt.#Qt.#Qt.#Qt.#Qt.#Qt.#",
".aQt.aQt.aQt.aQt.aQt.aQt.a#S#G#xat#waFaV#taWaU#WaEag.aQt.aQt.aQt.aQt.aQt.aQt.aQt",
"Qt.#Qt.#Qt.#Qt.#Qt.#Qt.#Qt.#Qt#G#xat#W#3aP#W#W#x#S.#Qt.#Qt.#Qt.#Qt.#Qt.#Qt.#Qt.#",
".aQt.aQt.aQt.aQt.aQt.aQt.aQt.aQt#4#xat#waU#WaEQt.aQt.aQt.aQt.aQt.aQt.aQt.aQt.aQt",
"Qt.#Qt.#Qt.#Qt.#Qt.#Qt.#Qt.#Qt.#Qt#4#xaU#WaEQt.#Qt.#Qt.#Qt.#Qt.#Qt.#Qt.#Qt.#Qt.#",
".aQt.aQt.aQt.aQt.aQt.aQt.aQt.aQt.aQt.a#x#GQt.aQt.aQt.aQt.aQt.aQt.aQt.aQt.aQt.aQt",
"Qt.#Qt.#Qt.#Qt.#Qt.#Qt.#Qt.#Qt.#Qt.#Qt.#Qt.#Qt.#Qt.#Qt.#Qt.#Qt.#Qt.#Qt.#Qt.#Qt.#",
".aQt.aQt.aQt.aQt.aQt.aQt.aQt.aQt.aQt.aQt.aQt.aQt.aQt.aQt.aQt.aQt.aQt.aQt.aQt.aQt",
"Qt.#Qt.#Qt.#Qt.#Qt.#Qt.#Qt.#Qt.#Qt.#Qt.#Qt.#Qt.#Qt.#Qt.#Qt.#Qt.#Qt.#Qt.#Qt.#Qt.#",
".aQt.aQt.aQt.aQt.aQt.aQt.aQt.aQt.aQt.aQt.aQt.aQt.aQt.aQt.aQt.aQt.aQt.aQt.aQt.aQt",
"Qt.#Qt.#Qt.#Qt.#Qt.#Qt.#Qt.#Qt.#Qt.#Qt.#Qt.#Qt.#Qt.#Qt.#Qt.#Qt.#Qt.#Qt.#Qt.#Qt.#",
".aQt.aQt.aQt.aQt.aQt.aQt.aQt.aQt.aQt.aQt.aQt.aQt.aQt.aQt.aQt.aQt.aQt.aQt.aQt.aQt"};


