/* XPM */
static const char* const image0_data[] = { 
"40 40 106 2",
".a c None",
".# c None",
"Qt c None",
".7 c #085000",
".9 c #086100",
"## c #086500",
"#b c #086900",
"#o c #086d00",
"#r c #087100",
"#n c #087900",
"#l c #087d00",
"#k c #088100",
"#i c #088500",
".5 c #088900",
".3 c #088d00",
".8 c #106100",
"#. c #106500",
"#g c #106900",
"#a c #106908",
"#c c #106d00",
"#d c #106d08",
"#e c #107100",
"#m c #107d00",
"#h c #108100",
"#j c #108500",
".6 c #108900",
"#p c #108908",
".4 c #108d00",
"#f c #108d08",
".1 c #109100",
".2 c #109108",
".V c #109500",
".0 c #109508",
".X c #109900",
".Y c #109908",
"#N c #187908",
"#L c #187d08",
"#s c #188d08",
"#q c #189108",
".Z c #189508",
".W c #189908",
"#J c #189910",
".Q c #189d08",
"#B c #189d10",
".S c #18a108",
".R c #18a110",
"#t c #209910",
"#u c #209d10",
"#v c #209d18",
".U c #20a110",
".N c #20a510",
"#x c #20a518",
".T c #20aa10",
"#z c #20aa18",
".P c #20ae10",
"#M c #299118",
"#y c #29a118",
"#A c #29a518",
"#w c #29aa18",
".O c #29ae18",
".J c #29b218",
".H c #29b618",
"#K c #31a120",
"#C c #31aa20",
"#E c #31b220",
"#D c #31b620",
".b c #31ba20",
".D c #31be20",
".z c #31c220",
".i c #31c620",
"#I c #39b229",
"#F c #39b629",
"#G c #39b631",
"#H c #39ba29",
".K c #39be29",
".L c #39c229",
".u c #39c620",
".c c #39c629",
".p c #39ca29",
".M c #41ca31",
".A c #41ce31",
".I c #41d231",
".j c #41d631",
".E c #4ad231",
".d c #4ad639",
".q c #4ada31",
".v c #4ada39",
".e c #52de41",
".G c #52e241",
".k c #52e639",
".w c #52e641",
".F c #5ae64a",
".h c #5aea4a",
".f c #62ee52",
".x c #62f24a",
".C c #62f252",
".l c #62f652",
".r c #62fa52",
".g c #6aee52",
".B c #6af652",
".y c #6afa5a",
".m c #6aff5a",
".o c #73ff5a",
".n c #73ff62",
".s c #7bff62",
".t c #7bff6a",
"Qt.#Qt.#Qt.#Qt.#Qt.#Qt.#Qt.#Qt.#Qt.#Qt.#Qt.#Qt.#Qt.#Qt.#Qt.#Qt.#Qt.#Qt.#Qt.#Qt.#",
".aQt.aQt.aQt.aQt.aQt.aQt.aQt.aQt.aQt.aQt.aQt.aQt.aQt.aQt.aQt.aQt.aQt.aQt.aQt.aQt",
"Qt.#Qt.#Qt.#Qt.#Qt.#Qt.#Qt.#Qt.#.b.c.d.e.f.f.g.hQt.#Qt.#Qt.#Qt.#Qt.#Qt.#Qt.#Qt.#",
".aQt.aQt.aQt.aQt.aQt.aQt.aQt.aQt.i.j.k.l.m.n.o.m.aQt.aQt.aQt.aQt.aQt.aQt.aQt.aQt",
"Qt.#Qt.#Qt.#Qt.#Qt.#Qt.#Qt.#Qt.#.p.q.h.r.n.s.t.oQt.#Qt.#Qt.#Qt.#Qt.#Qt.#Qt.#Qt.#",
".aQt.aQt.aQt.aQt.aQt.aQt.aQt.aQt.u.v.w.l.m.s.n.o.aQt.aQt.aQt.aQt.aQt.aQt.aQt.aQt",
"Qt.#Qt.#Qt.#Qt.#Qt.#Qt.#Qt.#Qt.#.c.j.w.x.m.o.n.yQt.#Qt.#Qt.#Qt.#Qt.#Qt.#Qt.#Qt.#",
".aQt.aQt.aQt.aQt.aQt.aQt.aQt.aQt.z.A.v.h.x.B.l.C.aQt.aQt.aQt.aQt.aQt.aQt.aQt.aQt",
"Qt.#Qt.#Qt.#Qt.#Qt.#Qt.#Qt.#Qt.#.D.c.E.v.F.F.h.GQt.#Qt.#Qt.#Qt.#Qt.#Qt.#Qt.#Qt.#",
".aQt.aQt.aQt.aQt.aQt.aQt.aQt.aQt.H.D.c.I.d.v.d.d.aQt.aQt.aQt.aQt.aQt.aQt.aQt.aQt",
"Qt.#Qt.#Qt.#Qt.#Qt.#Qt.#Qt.#Qt.#.J.H.K.L.M.p.M.cQt.#Qt.#Qt.#Qt.#Qt.#Qt.#Qt.#Qt.#",
".aQt.aQt.aQt.aQt.aQt.aQt.aQt.aQt.N.O.J.b.b.D.D.b.aQt.aQt.aQt.aQt.aQt.aQt.aQt.aQt",
"Qt.#Qt.#Qt.#Qt.#Qt.#Qt.#Qt.#Qt.#.N.N.O.P.J.J.J.PQt.#Qt.#Qt.#Qt.#Qt.#Qt.#Qt.#Qt.#",
".aQt.aQt.aQt.aQt.aQt.aQt.aQt.aQt.Q.R.S.N.N.T.N.N.aQt.aQt.aQt.aQt.aQt.aQt.aQt.aQt",
"Qt.#Qt.#Qt.#Qt.#Qt.#Qt.#Qt.#Qt.#.Q.Q.U.S.U.S.U.SQt.#Qt.#Qt.#Qt.#Qt.#Qt.#Qt.#Qt.#",
".aQt.aQt.aQt.aQt.aQt.aQt.aQt.aQt.V.W.X.Q.Y.Q.W.W.aQt.aQt.aQt.aQt.aQt.aQt.aQt.aQt",
"Qt.#Qt.#Qt.#Qt.#Qt.#Qt.#Qt.#Qt.#.Z.V.W.V.W.0.W.VQt.#Qt.#Qt.#Qt.#Qt.#Qt.#Qt.#Qt.#",
".aQt.aQt.aQt.aQt.aQt.aQt.aQt.aQt.1.V.1.V.1.0.1.1.aQt.aQt.aQt.aQt.aQt.aQt.aQt.aQt",
"Qt.#Qt.#Qt.#Qt.#Qt.#Qt.#Qt.#Qt.#.1.1.2.1.V.1.2.1Qt.#Qt.#Qt.#Qt.#Qt.#Qt.#Qt.#Qt.#",
".aQt.aQt.aQt.aQt.aQt.aQt.aQt.aQt.3.1.4.1.4.1.4.4.aQt.aQt.aQt.aQt.aQt.aQt.aQt.aQt",
"Qt.#Qt.#Qt.#Qt.#Qt.#Qt.#Qt.#Qt.#.1.4.1.4.1.4.4.4Qt.#Qt.#Qt.#Qt.#Qt.#Qt.#Qt.#Qt.#",
".aQt.aQt.aQt.aQt.aQt.aQt.aQt.aQt.4.4.3.4.4.4.5.4.aQt.aQt.aQt.aQt.aQt.aQt.aQt.aQt",
"Qt.#Qt.#Qt.#Qt.#Qt.#Qt.#Qt.#Qt.#.4.4.4.4.4.4.4.6Qt.#Qt.#Qt.#Qt.#Qt.#Qt.#Qt.#Qt.#",
".aQt.aQt.aQt.aQt.aQt.aQt.aQt.aQt.5.4.6.4.5.4.5.6.aQt.aQt.aQt.aQt.aQt.aQt.aQt.aQt",
"Qt.#Qt.#Qt.#Qt.#Qt.#Qt.#Qt.#Qt.#.4.4.4.4.4.6.4.6Qt.#Qt.#Qt.#Qt.#Qt.#Qt.#Qt.#Qt.#",
".aQt.aQt.aQt.aQt.aQt.aQt.aQt.a.7.4.4.3.4.6.4.5.6.aQt.aQt.aQt.aQt.aQt.aQt.aQt.aQt",
"Qt.#Qt.#Qt.#.8.9#.###a#b#c#b#d#e.1.4#f.4.4.6.6.6#c###g###.###..9.8.#Qt.#Qt.#Qt.#",
".aQt.aQt.aQt###h#i.6.6.6.6.4.4#f.4.1.4.4.6.4.6.6#i#j#k#h#l#m#n#m#oQt.aQt.aQt.aQt",
"Qt.#Qt.#Qt.#Qt.##p.4.2.1#q.1.Z.1#q.1#q.4#f.4.4.6.6#j#j#k#h#m#m#rQt.#Qt.#Qt.#Qt.#",
".aQt.aQt.aQt.aQt#r#p.1.Z.1.Z.V.Z.1.Z.1.1.4.4.6.6#i#j#k#h#k#m#oQt.aQt.aQt.aQt.aQt",
"Qt.#Qt.#Qt.#Qt.#Qt.##s.Z.W.W#t.W.W.Z.Z.2#q.4#f.6.6#j#j#h#h#rQt.#Qt.#Qt.#Qt.#Qt.#",
".aQt.aQt.aQt.aQt.aQt.a.Z.Q#u.Q#u.W.W.Z.Z.1.1.4.6#i#j#k#h#oQt.aQt.aQt.aQt.aQt.aQt",
"Qt.#Qt.#Qt.#Qt.#Qt.#Qt.##v.N#w.N#x.U#u.W.Z.2#q.4#p#j#j#oQt.#Qt.#Qt.#Qt.#Qt.#Qt.#",
".aQt.aQt.aQt.aQt.aQt.aQt.a#y.O.O#z#A.R#B.Z.Z.4.4.6#j#oQt.aQt.aQt.aQt.aQt.aQt.aQt",
"Qt.#Qt.#Qt.#Qt.#Qt.#Qt.#Qt.##C#D#E.O#w.U#u.Z#q.4.6#rQt.#Qt.#Qt.#Qt.#Qt.#Qt.#Qt.#",
".aQt.aQt.aQt.aQt.aQt.aQt.aQt.a#F.b#D#w#x.Q.W.1.2#oQt.aQt.aQt.aQt.aQt.aQt.aQt.aQt",
"Qt.#Qt.#Qt.#Qt.#Qt.#Qt.#Qt.#Qt.##G#H#D#w.U.W#q#eQt.#Qt.#Qt.#Qt.#Qt.#Qt.#Qt.#Qt.#",
".aQt.aQt.aQt.aQt.aQt.aQt.aQt.aQt.a#I#E.J.U#J#mQt.aQt.aQt.aQt.aQt.aQt.aQt.aQt.aQt",
"Qt.#Qt.#Qt.#Qt.#Qt.#Qt.#Qt.#Qt.#Qt.##K.O#x#LQt.#Qt.#Qt.#Qt.#Qt.#Qt.#Qt.#Qt.#Qt.#",
".aQt.aQt.aQt.aQt.aQt.aQt.aQt.aQt.aQt.a#M#NQt.aQt.aQt.aQt.aQt.aQt.aQt.aQt.aQt.aQt"};


