/* XPM */
static const char* const image1_data[] = { 
"40 40 109 2",
".a c None",
".# c None",
"Qt c None",
"#x c #086100",
"#l c #087900",
"#o c #088500",
"#m c #106900",
"#y c #106d08",
"#Q c #107100",
"#h c #107900",
"#g c #107d00",
".P c #108100",
".F c #108108",
"#n c #108500",
".B c #108508",
"#p c #108900",
"#w c #108908",
"#i c #108d00",
"#. c #109100",
".0 c #109500",
".Q c #109900",
"#r c #109908",
"## c #109d00",
"#j c #10a100",
"#P c #187508",
"#O c #187d08",
".9 c #188908",
".o c #188910",
"#q c #188d08",
".w c #188d10",
"#v c #189108",
"#t c #189908",
"#B c #189d00",
"#b c #189d08",
"#A c #18a100",
".G c #18a108",
".C c #18a508",
".R c #18aa08",
"#z c #18ae08",
"#N c #208518",
".Z c #208d10",
"#u c #209910",
"#s c #209d10",
"#C c #20a508",
"#D c #20a510",
"#J c #20aa08",
".1 c #20aa10",
".x c #20ae10",
".S c #20b210",
".H c #20b610",
".d c #298d18",
"#M c #299118",
".i c #299518",
".O c #299d20",
"#E c #29b210",
"#I c #29b218",
".D c #29b610",
".8 c #29b618",
".2 c #29ba18",
".p c #29be18",
".E c #29c218",
"#f c #31be18",
"#k c #31be20",
"#c c #31c218",
".I c #31c220",
".j c #31c620",
"#d c #31ca20",
"#L c #399d29",
"#K c #39a531",
".e c #39c620",
"#e c #39c629",
".T c #39ca20",
".b c #39ca29",
".Y c #39ce20",
".J c #39ce29",
".q c #39d229",
".7 c #41ce29",
".c c #41d231",
".X c #41d629",
".3 c #41d631",
".6 c #41da31",
".r c #41de31",
"#H c #4ad631",
"#a c #4ada31",
"#F c #4ada39",
".k c #4ade31",
".K c #4ade39",
".f c #4ae239",
".4 c #52e239",
".W c #52e639",
".5 c #52e641",
".g c #52ea39",
".L c #52ea41",
".N c #52ee41",
"#G c #5ae641",
".h c #5aea41",
".s c #5af241",
".y c #5af24a",
".V c #5af64a",
".U c #62f64a",
".l c #62fa52",
".t c #62ff52",
".n c #6af65a",
".m c #6aff52",
".z c #6aff5a",
".v c #73f662",
".M c #73ff5a",
".u c #73ff62",
".A c #7bff6a",
"Qt.#Qt.#Qt.#Qt.#Qt.#Qt.#Qt.#Qt.#Qt.#Qt.#Qt.#Qt.#Qt.#Qt.#Qt.#Qt.#Qt.#Qt.#Qt.#Qt.#",
".aQt.aQt.aQt.aQt.aQt.aQt.aQt.aQt.aQt.aQt.aQt.aQt.aQt.aQt.aQt.aQt.aQt.aQt.aQt.aQt",
"Qt.#Qt.#Qt.#Qt.#Qt.#Qt.#Qt.#Qt.#Qt.#Qt.b.c.#Qt.#Qt.#Qt.#Qt.#Qt.#Qt.#Qt.#Qt.#Qt.#",
".aQt.aQt.aQt.aQt.aQt.aQt.aQt.aQt.a.d.e.f.g.h.aQt.aQt.aQt.aQt.aQt.aQt.aQt.aQt.aQt",
"Qt.#Qt.#Qt.#Qt.#Qt.#Qt.#Qt.#Qt.#.i.j.k.g.l.m.n.#Qt.#Qt.#Qt.#Qt.#Qt.#Qt.#Qt.#Qt.#",
".aQt.aQt.aQt.aQt.aQt.aQt.aQt.a.o.p.q.r.s.t.u.u.v.aQt.aQt.aQt.aQt.aQt.aQt.aQt.aQt",
"Qt.#Qt.#Qt.#Qt.#Qt.#Qt.#Qt.#.w.x.j.q.f.y.z.u.A.u.n.#Qt.#Qt.#Qt.#Qt.#Qt.#Qt.#Qt.#",
".aQt.aQt.aQt.aQt.aQt.aQt.a.B.C.D.E.q.k.y.t.u.u.u.m.y.aQt.aQt.aQt.aQt.aQt.aQt.aQt",
"Qt.#Qt.#Qt.#Qt.#Qt.#Qt.#.F.G.x.H.I.J.K.L.l.m.M.z.l.N.f.OQt.#Qt.#Qt.#Qt.#Qt.#Qt.#",
".aQt.aQt.aQt.aQt.aQt.a.P.Q.C.R.S.p.T.q.f.L.U.V.U.N.W.X.Y.ZQt.aQt.aQt.aQt.aQt.aQt",
"Qt.#Qt.#Qt.#Qt.#Qt.#.P.0.G.G.1.x.2.I.J.3.4.W.h.5.4.6.7.I.8.9Qt.#Qt.#Qt.#Qt.#Qt.#",
".aQt.aQt.aQt.aQt.a.P#..Q##.G.C.x.S.p.I.J.q.6.6#a.q.J.I.p.S.R.PQt.aQt.aQt.aQt.aQt",
"Qt.#Qt.#Qt.#Qt.#.P#..0.Q#b##.C.R.S.H.p#c.b.T.J#d#e#f.2.S.x.C.G#gQt.#Qt.#Qt.#Qt.#",
".aQt.aQt.aQt.a#h#i#.#..Q.Q#b#j.C.R.x.S.2.2#k.p#f.2.2.S.x.C.G#####lQt.aQt.aQt.aQt",
"Qt.#Qt.#Qt.##m#g#n#o#n#n#p#p#q#r.R.R.x.S.8.H.8.H#s#t#u#v#v#p#w#n.P#xQt.#Qt.#Qt.#",
".aQt.aQt.aQt.aQt.aQt.aQt.aQt.a#y#j.C.C.x.R.x#z.x.aQt.aQt.aQt.aQt.aQt.aQt.aQt.aQt",
"Qt.#Qt.#Qt.#Qt.#Qt.#Qt.#Qt.#Qt.#.G#A.C.C.R.C.R.CQt.#Qt.#Qt.#Qt.#Qt.#Qt.#Qt.#Qt.#",
".aQt.aQt.aQt.aQt.aQt.aQt.aQt.aQt##.G##.G#j.C#j.G.aQt.aQt.aQt.aQt.aQt.aQt.aQt.aQt",
"Qt.#Qt.#Qt.#Qt.#Qt.#Qt.#Qt.#Qt.##B##.G##.G##.G##Qt.#Qt.#Qt.#Qt.#Qt.#Qt.#Qt.#Qt.#",
".aQt.aQt.aQt.aQt.aQt.aQt.aQt.aQt.Q##.Q######.Q##.aQt.aQt.aQt.aQt.aQt.aQt.aQt.aQt",
"Qt.#Qt.#Qt.#Qt.#Qt.#Qt.#Qt.#Qt.###.Q##.Q#b.Q##.QQt.#Qt.#Qt.#Qt.#Qt.#Qt.#Qt.#Qt.#",
".aQt.aQt.aQt.aQt.aQt.aQt.aQt.aQt.Q.Q.Q.Q.Q.Q.Q.Q.aQt.aQt.aQt.aQt.aQt.aQt.aQt.aQt",
"Qt.#Qt.#Qt.#Qt.#Qt.#Qt.#Qt.#Qt.#.Q.Q.Q.Q.Q.Q.Q.0Qt.#Qt.#Qt.#Qt.#Qt.#Qt.#Qt.#Qt.#",
".aQt.aQt.aQt.aQt.aQt.aQt.aQt.aQt.Q.Q.Q.Q.Q.Q.0.0.aQt.aQt.aQt.aQt.aQt.aQt.aQt.aQt",
"Qt.#Qt.#Qt.#Qt.#Qt.#Qt.#Qt.#Qt.##b.Q##.Q.Q.Q.Q.0Qt.#Qt.#Qt.#Qt.#Qt.#Qt.#Qt.#Qt.#",
".aQt.aQt.aQt.aQt.aQt.aQt.aQt.aQt.Q##.Q.Q.Q.Q.0.0.aQt.aQt.aQt.aQt.aQt.aQt.aQt.aQt",
"Qt.#Qt.#Qt.#Qt.#Qt.#Qt.#Qt.#Qt.##b###b.Q.Q.Q.Q.0Qt.#Qt.#Qt.#Qt.#Qt.#Qt.#Qt.#Qt.#",
".aQt.aQt.aQt.aQt.aQt.aQt.aQt.aQt###b###b.Q.Q.0.0.aQt.aQt.aQt.aQt.aQt.aQt.aQt.aQt",
"Qt.#Qt.#Qt.#Qt.#Qt.#Qt.#Qt.#Qt.##C.G.G###b.Q.Q.0Qt.#Qt.#Qt.#Qt.#Qt.#Qt.#Qt.#Qt.#",
".aQt.aQt.aQt.aQt.aQt.aQt.aQt.aQt.C#D.G.G###b.0.0.aQt.aQt.aQt.aQt.aQt.aQt.aQt.aQt",
"Qt.#Qt.#Qt.#Qt.#Qt.#Qt.#Qt.#Qt.#.S.1.1.C.G###t.0Qt.#Qt.#Qt.#Qt.#Qt.#Qt.#Qt.#Qt.#",
".aQt.aQt.aQt.aQt.aQt.aQt.aQt.aQt.S#E.1.1.G#b.Q.Q.aQt.aQt.aQt.aQt.aQt.aQt.aQt.aQt",
"Qt.#Qt.#Qt.#Qt.#Qt.#Qt.#Qt.#Qt.#.I.2.8.x.1.G#b.QQt.#Qt.#Qt.#Qt.#Qt.#Qt.#Qt.#Qt.#",
".aQt.aQt.aQt.aQt.aQt.aQt.aQt.aQt#e.I.8.S.C.C##.Q.aQt.aQt.aQt.aQt.aQt.aQt.aQt.aQt",
"Qt.#Qt.#Qt.#Qt.#Qt.#Qt.#Qt.#Qt.#.c.b.I.8.x.C.G.QQt.#Qt.#Qt.#Qt.#Qt.#Qt.#Qt.#Qt.#",
".aQt.aQt.aQt.aQt.aQt.aQt.aQt.aQt#F.c.I.2.x.C#b#b.aQt.aQt.aQt.aQt.aQt.aQt.aQt.aQt",
"Qt.#Qt.#Qt.#Qt.#Qt.#Qt.#Qt.#Qt.##G#H.b.p#I#J.G##Qt.#Qt.#Qt.#Qt.#Qt.#Qt.#Qt.#Qt.#",
".aQt.aQt.aQt.aQt.aQt.aQt.aQt.aQt.h.K.J.I.S.1#A#b.aQt.aQt.aQt.aQt.aQt.aQt.aQt.aQt",
"Qt.#Qt.#Qt.#Qt.#Qt.#Qt.#Qt.#Qt.#.y.K.c.I.8.R.C##Qt.#Qt.#Qt.#Qt.#Qt.#Qt.#Qt.#Qt.#",
".aQt.aQt.aQt.aQt.aQt.aQt.aQt.aQt#K#L#M#N#O#P#Q#y.aQt.aQt.aQt.aQt.aQt.aQt.aQt.aQt"};


