/* XPM */
static const char* const image6_data[] = { 
"40 40 134 2",
"Qt c None",
"#9 c #000000",
"#7 c #000c00",
"ac c #002000",
"#3 c #002800",
"ad c #002c00",
"#n c #003000",
"#F c #003400",
"#O c #003800",
"#c c #003c00",
"#N c #004000",
".F c #004400",
".E c #004800",
"#E c #004c00",
"ab c #082800",
"#P c #084800",
".D c #084c00",
".C c #085000",
".B c #085500",
".A c #085900",
".z c #085d00",
".X c #086100",
".G c #086500",
".W c #086900",
".V c #086d00",
"#o c #087100",
".Y c #087500",
".y c #106100",
"aa c #106108",
"#D c #106908",
"#b c #106d00",
"#m c #107100",
".U c #107108",
"#G c #107500",
"#a c #107508",
".Z c #107900",
".H c #107908",
".0 c #107d08",
"#p c #108108",
".x c #186908",
".n c #186d08",
"#C c #187110",
"#X c #187508",
"#l c #187908",
".T c #187d10",
".I c #188110",
".1 c #188510",
"#H c #188908",
"#q c #188910",
"#2 c #204c18",
"a# c #206518",
".w c #207518",
"#B c #207918",
"## c #208110",
"#k c #208518",
"#Q c #209110",
"#r c #209518",
".m c #295529",
".g c #295929",
".o c #298918",
".S c #298d20",
".J c #299118",
"#Y c #299918",
"a. c #299920",
"#R c #299d20",
".b c #317529",
"#W c #317d29",
"#8 c #318920",
"#A c #318929",
"#. c #319120",
"#j c #319520",
"#I c #31a120",
"#s c #31a129",
"#4 c #31a520",
".v c #398931",
"#d c #39a129",
".K c #39a531",
"#Z c #39aa29",
"#5 c #39ae29",
"#S c #39ae31",
"#z c #419531",
".p c #41a131",
"#6 c #41ae39",
"#J c #41b231",
"#0 c #41b631",
"#y c #4aa141",
"#M c #4aa541",
".R c #4aaa39",
".9 c #4aae39",
"#t c #4ab639",
"#T c #4aba39",
"#1 c #4abe39",
".u c #52a14a",
"#e c #52ba41",
"#K c #52c241",
"#U c #52c64a",
".a c #5ab652",
".2 c #5ac24a",
"#i c #5ac252",
".L c #5ac652",
"#V c #5aca4a",
"#u c #5aca52",
".# c #62ae5a",
".8 c #62c652",
".Q c #62c65a",
".q c #62ca5a",
"#L c #62ce52",
"#x c #6ace62",
"#f c #6ad25a",
"#v c #6ad662",
".3 c #73da62",
"#w c #73de6a",
".l c #7bd26a",
".f c #7bd66a",
".7 c #7bde6a",
".t c #7bde73",
".M c #7be26a",
".P c #7be273",
".h c #83e27b",
"#h c #83e673",
"#g c #83ea73",
".r c #83ea7b",
".4 c #83ee7b",
".c c #8bce7b",
".6 c #8bf27b",
".5 c #8bf683",
".N c #94f683",
".O c #94fa8b",
".d c #9cea94",
".e c #9cfa94",
".k c #9cff94",
".i c #a4ff94",
".s c #a4ff9c",
".j c #acffa4",
"QtQtQtQtQtQtQtQtQtQtQtQtQtQtQtQtQtQtQtQtQtQtQtQtQtQtQtQtQtQtQtQtQtQtQtQtQtQtQtQt",
"QtQtQtQtQtQtQtQtQtQtQtQtQtQtQtQtQtQtQtQtQtQtQtQtQtQtQtQtQtQtQtQtQtQtQtQtQtQtQtQt",
"QtQtQtQtQtQtQtQtQtQtQtQtQtQtQtQtQtQtQtQtQtQtQtQtQtQtQtQtQtQtQtQtQtQtQtQtQtQtQtQt",
"QtQtQtQtQtQtQtQtQtQtQtQtQtQtQtQtQtQtQtQtQtQtQtQtQtQtQtQtQtQtQtQtQtQtQtQtQtQtQtQt",
"QtQtQtQtQtQtQtQtQtQtQtQtQtQtQtQtQtQtQtQtQtQtQtQtQtQtQtQtQtQtQtQtQtQtQtQtQtQtQtQt",
"QtQtQtQtQtQtQtQtQtQtQtQtQtQtQtQtQtQtQtQtQtQtQtQtQtQtQtQtQtQtQtQtQtQtQtQtQtQtQtQt",
"QtQtQtQtQtQtQtQtQtQtQtQtQtQtQtQtQtQtQtQtQtQtQtQtQtQtQtQtQtQtQtQtQtQtQtQtQtQtQtQt",
"QtQtQtQtQtQtQtQtQtQtQtQtQtQtQtQtQtQtQtQtQtQtQtQtQtQtQtQtQtQtQtQtQtQtQtQtQtQtQtQt",
"QtQtQtQtQtQtQtQtQtQtQtQtQtQtQtQtQtQtQtQtQtQtQtQtQtQtQtQtQtQtQtQtQtQtQtQtQtQtQtQt",
"QtQtQtQtQtQtQtQtQtQtQtQtQtQtQtQtQtQtQtQtQtQtQtQtQtQtQtQtQtQtQtQtQtQtQtQtQtQtQtQt",
"QtQtQtQtQtQtQtQtQtQtQtQtQtQtQtQtQtQtQtQtQtQtQtQtQtQtQtQtQtQtQtQtQtQtQtQtQtQtQtQt",
"QtQtQtQtQtQtQtQtQtQtQtQtQtQtQtQtQtQtQtQtQtQtQtQtQtQtQtQtQtQtQtQtQtQtQtQtQtQtQtQt",
"QtQtQtQtQtQtQtQtQtQtQtQt.#.a.bQtQtQtQtQtQtQtQtQtQtQtQtQtQtQtQtQtQtQtQtQtQtQtQtQt",
"QtQtQtQtQtQtQtQtQtQt.c.d.e.f.gQtQtQtQtQtQtQtQtQtQtQtQtQtQtQtQtQtQtQtQtQtQtQtQtQt",
"QtQtQtQtQtQtQtQt.a.h.i.j.k.l.mQtQtQtQtQtQtQtQtQtQtQtQtQtQtQtQtQtQtQtQtQtQtQtQtQt",
"QtQtQtQtQt.n.o.p.q.r.k.s.k.t.u.v.w.x.y.z.A.B.B.B.B.B.C.C.C.D.D.D.E.E.F.EQtQtQtQt",
"QtQt.B.G.H.I.J.K.L.M.N.k.O.P.Q.R.S.T.U.V.W.G.G.X.X.z.z.A.A.A.B.B.B.C.C.D.EQtQtQt",
"Qt.z.Y.Z.0.1.J.K.2.3.4.5.6.7.8.9#.###a#b.W.G.G.X.X.X.z.z.A.A.A.B.B.C.C.C.D#cQtQt",
"Qt.F.V.Z.0.1.J#d#e#f.M#g#h.3#i.9#j#k#l#m.V.W.G.G.X.X.z.z.z.A.A.A.B.B.C.C.C.EQtQt",
"Qt#n.F#o#p#q#r#s#t#u#v#w#x#y#z#A#B#C#D.G.X.z.z.A.A.B.B.B.C.C.D#E.E.E.E.F.F.F#FQt",
"QtQt#n#c#G#H#r#I#J#K#L#f#M.B.A.A.B.B.B.C.C.D.D.D.E.E.E.F.F.F#N#N#N#c#c#c#O#OQtQt",
"QtQtQt#F#P#a#Q#R#S#T#U#V#W.E.C.C.C.D.D.D#P.E.E.F.F.F#N#N#N#c#c#c#c#O#O#O#F#nQtQt",
"QtQtQtQt#F#P#X#Y#Z#0#1#K#2#3QtQtQtQtQtQtQtQtQtQtQtQtQtQtQtQtQtQtQtQtQtQtQtQtQtQt",
"QtQtQtQtQt#F.D#C#4#5#0#6#7QtQtQtQtQtQtQtQtQtQtQtQtQtQtQtQtQtQtQtQtQtQtQtQtQtQtQt",
"QtQtQtQtQtQt#O.F#D#I#5#8#9QtQtQtQtQtQtQtQtQtQtQtQtQtQtQtQtQtQtQtQtQtQtQtQtQtQtQt",
"QtQtQtQtQtQtQt#O#P#Da.a##9QtQtQtQtQtQtQtQtQtQtQtQtQtQtQtQtQtQtQtQtQtQtQtQtQtQtQt",
"QtQtQtQtQtQtQtQt#O#PaaabQtQtQtQtQtQtQtQtQtQtQtQtQtQtQtQtQtQtQtQtQtQtQtQtQtQtQtQt",
"QtQtQtQtQtQtQtQtQt#O.EacQtQtQtQtQtQtQtQtQtQtQtQtQtQtQtQtQtQtQtQtQtQtQtQtQtQtQtQt",
"QtQtQtQtQtQtQtQtQtQt#cadQtQtQtQtQtQtQtQtQtQtQtQtQtQtQtQtQtQtQtQtQtQtQtQtQtQtQtQt",
"QtQtQtQtQtQtQtQtQtQtQtQtQtQtQtQtQtQtQtQtQtQtQtQtQtQtQtQtQtQtQtQtQtQtQtQtQtQtQtQt",
"QtQtQtQtQtQtQtQtQtQtQtQtQtQtQtQtQtQtQtQtQtQtQtQtQtQtQtQtQtQtQtQtQtQtQtQtQtQtQtQt",
"QtQtQtQtQtQtQtQtQtQtQtQtQtQtQtQtQtQtQtQtQtQtQtQtQtQtQtQtQtQtQtQtQtQtQtQtQtQtQtQt",
"QtQtQtQtQtQtQtQtQtQtQtQtQtQtQtQtQtQtQtQtQtQtQtQtQtQtQtQtQtQtQtQtQtQtQtQtQtQtQtQt",
"QtQtQtQtQtQtQtQtQtQtQtQtQtQtQtQtQtQtQtQtQtQtQtQtQtQtQtQtQtQtQtQtQtQtQtQtQtQtQtQt",
"QtQtQtQtQtQtQtQtQtQtQtQtQtQtQtQtQtQtQtQtQtQtQtQtQtQtQtQtQtQtQtQtQtQtQtQtQtQtQtQt",
"QtQtQtQtQtQtQtQtQtQtQtQtQtQtQtQtQtQtQtQtQtQtQtQtQtQtQtQtQtQtQtQtQtQtQtQtQtQtQtQt",
"QtQtQtQtQtQtQtQtQtQtQtQtQtQtQtQtQtQtQtQtQtQtQtQtQtQtQtQtQtQtQtQtQtQtQtQtQtQtQtQt",
"QtQtQtQtQtQtQtQtQtQtQtQtQtQtQtQtQtQtQtQtQtQtQtQtQtQtQtQtQtQtQtQtQtQtQtQtQtQtQtQt",
"QtQtQtQtQtQtQtQtQtQtQtQtQtQtQtQtQtQtQtQtQtQtQtQtQtQtQtQtQtQtQtQtQtQtQtQtQtQtQtQt",
"QtQtQtQtQtQtQtQtQtQtQtQtQtQtQtQtQtQtQtQtQtQtQtQtQtQtQtQtQtQtQtQtQtQtQtQtQtQtQtQt"};


